120090162/mujoco_unitree_rl/pre_train/a1/csv/isaacgym_model_0702.pt_20250124212623.csv
tau_cal_0,tau_cal_1,tau_cal_2,tau_cal_3,tau_cal_4,tau_cal_5,tau_cal_6,tau_cal_7,tau_cal_8,tau_cal_9,tau_cal_10,tau_cal_11,tau_est_0,tau_est_1,tau_est_2,tau_est_3,tau_est_4,tau_est_5,tau_est_6,tau_est_7,tau_est_8,tau_est_9,tau_est_10,tau_est_11,joint_pos_0,joint_pos_1,joint_pos_2,joint_pos_3,joint_pos_4,joint_pos_5,joint_pos_6,joint_pos_7,joint_pos_8,joint_pos_9,joint_pos_10,joint_pos_11,joint_pos_target_0,joint_pos_target_1,joint_pos_target_2,joint_pos_target_3,joint_pos_target_4,joint_pos_target_5,joint_pos_target_6,joint_pos_target_7,joint_pos_target_8,joint_pos_target_9,joint_pos_target_10,joint_pos_target_11,joint_vel_0,joint_vel_1,joint_vel_2,joint_vel_3,joint_vel_4,joint_vel_5,joint_vel_6,joint_vel_7,joint_vel_8,joint_vel_9,joint_vel_10,joint_vel_11
-0.22600744664669037,-5.984323024749756,3.386939764022827,-1.3896028995513916,-6.75543212890625,-0.9042354226112366,1.371077537536621,2.12397837638855,7.03496789932251,0.7176975607872009,0.8306460380554199,5.609047889709473,4.1736321449279785,-2.6902315616607666,0.7999653220176697,-4.256658554077148,-2.762690305709839,0.8257615566253662,2.7053170204162598,1.8001869916915894,2.9417712688446045,-2.678117513656616,2.0514745712280273,3.140923023223877,-0.004346886184066534,0.8658502697944641,-1.5168437957763672,0.006415982730686665,0.8676435947418213,-1.5174602270126343,0.03231082856655121,0.9540418386459351,-1.5713835954666138,-0.03299487382173538,0.9477512836456299,-1.5763386487960815,-0.009990982711315155,0.7176477313041687,-1.4353256225585938,-0.028323613107204437,0.7001814842224121,-1.5432499647140503,0.06664401292800903,1.0080947875976562,-1.397670030593872,-0.015104621648788452,0.9694792628288269,-1.438296914100647,0.00030448014149442315,0.070276640355587,-0.15776608884334564,2.38332140725106e-05,0.07118445634841919,-0.15919257700443268,0.0028122353833168745,0.04767454415559769,-0.10803140699863434,-0.00260937144048512,0.04809144139289856,-0.1092233881354332
-1.0602138042449951,-4.988235950469971,4.68580436706543,-0.744255781173706,-6.847684383392334,0.1454978585243225,0.7543928623199463,3.5053255558013916,8.858153343200684,0.692796528339386,1.638115406036377,6.719246864318848,-0.32284650206565857,-5.894018650054932,3.745821714401245,-1.4889270067214966,-6.786816120147705,-0.15917138755321503,1.1397783756256104,2.579575300216675,6.777684211730957,0.47767406702041626,1.303587794303894,5.473913192749023,-0.003704429604113102,0.8670756220817566,-1.5235042572021484,0.007090561557561159,0.8697541952133179,-1.5268545150756836,0.033936552703380585,0.9521329402923584,-1.572497844696045,-0.03142518177628517,0.9457310438156128,-1.5783158540725708,-0.02842516452074051,0.7402923107147217,-1.4118260145187378,-0.009706832468509674,0.6986597776412964,-1.5356332063674927,0.05700937286019325,1.0312385559082031,-1.345658302307129,-0.009726561605930328,0.9778424501419067,-1.4071636199951172,0.089230477809906,-0.10387082397937775,-0.27334344387054443,0.09045004099607468,0.004884317517280579,-0.620806872844696,0.2106499820947647,-0.426376074552536,0.2692855894565582,0.21893537044525146,-0.44207391142845154,0.15855318307876587
-0.9907427430152893,-4.371232986450195,5.540332317352295,-0.5906417965888977,-6.579624652862549,-0.3012753427028656,-0.049235254526138306,4.766438007354736,7.560873985290527,0.1764204204082489,2.4310927391052246,5.659453392028809,-1.0897932052612305,-4.506849765777588,4.588644981384277,-0.7726565003395081,-6.436365127563477,0.6647325754165649,0.34719687700271606,4.588883876800537,7.7806220054626465,0.2509130835533142,2.8737220764160156,5.818702697753906,-0.0019694147631525993,0.8609319925308228,-1.5262893438339233,0.008833499625325203,0.8658121824264526,-1.540200114250183,0.04082237184047699,0.9358084201812744,-1.5584757328033447,-0.02408849634230137,0.9278383851051331,-1.5675396919250488,-0.0259489044547081,0.7436827421188354,-1.3880338668823242,-0.005156464874744415,0.6950783133506775,-1.5597834587097168,0.04709856957197189,1.035677433013916,-1.351151943206787,-0.01158887892961502,0.9667767286300659,-1.4111448526382446,0.03945399820804596,-0.3984214961528778,-0.0126416627317667,0.038804054260253906,-0.3121628165245056,-0.602573037147522,0.37535396218299866,-0.9645970463752747,0.9150967001914978,0.4044553339481354,-1.0919488668441772,0.7454253435134888
-0.8517712354660034,-4.367649078369141,5.603135108947754,-0.2642531991004944,-6.672417640686035,-1.391345500946045,-0.6995874047279358,4.622079849243164,6.400539398193359,-0.239900141954422,2.298186779022217,5.140151023864746,-0.8755481243133545,-3.93013858795166,4.9153547286987305,-0.4725148379802704,-6.200078964233398,-0.1502944380044937,-0.4145755469799042,5.358612060546875,6.7255988121032715,-0.21297253668308258,3.2762258052825928,4.953489303588867,-0.0024910476058721542,0.8516109585762024,-1.5205985307693481,0.00826884526759386,0.8580469489097595,-1.5489639043807983,0.04904692620038986,0.9175906777381897,-1.5385656356811523,-0.015260138548910618,0.9056956171989441,-1.5510386228561401,-0.025354482233524323,0.7327449917793274,-1.3708393573760986,5.007535219192505e-05,0.6832698583602905,-1.59080970287323,0.03997327387332916,1.0172641277313232,-1.3592784404754639,-0.012262068688869476,0.94232577085495,-1.4064782857894897,-0.07845768332481384,-0.4837367832660675,0.48403987288475037,-0.08062198013067245,-0.3983326852321625,-0.35310810804367065,0.42080163955688477,-0.793927013874054,0.9636858105659485,0.44977864623069763,-1.041225790977478,0.8028281927108765
-0.5148126482963562,-4.653390884399414,5.194499492645264,0.2892920672893524,-6.856073379516602,-2.0101981163024902,-1.2175681591033936,3.948657512664795,5.64647102355957,-0.6363271474838257,1.8769333362579346,5.312102317810059,-0.5024858117103577,-4.0264763832092285,4.6883931159973145,0.06528111547231674,-6.382323741912842,-1.0434974431991577,-0.9308042526245117,4.729528903961182,5.916438102722168,-0.4880152642726898,2.793877124786377,4.710759162902832,-0.006823355797678232,0.8424817323684692,-1.5055875778198242,0.004021225497126579,0.8503790497779846,-1.5552997589111328,0.05644765496253967,0.9072238802909851,-1.5223262310028076,-0.007344693876802921,0.8885418176651001,-1.5372936725616455,-0.025662653148174286,0.7170721292495728,-1.3581867218017578,0.005650348961353302,0.6714261174201965,-1.614977240562439,0.03280417621135712,0.9977423548698425,-1.366027593612671,-0.015969865024089813,0.9194021821022034,-1.3914446830749512,-0.2984490692615509,-0.4537416696548462,0.876918375492096,-0.2801589071750641,-0.37755489349365234,-0.4711262881755829,0.3397863209247589,-0.4098983108997345,0.7568432688713074,0.3641503155231476,-0.8031484484672546,0.6523212790489197
-0.031354308128356934,-4.950811862945557,4.850032806396484,0.5696660280227661,-4.939713954925537,-1.8718419075012207,-1.6563892364501953,3.218306303024292,4.680458068847656,-0.9293962717056274,1.5016539096832275,5.90942907333374,-0.01646863855421543,-4.330376148223877,4.293797016143799,0.49426913261413574,-5.33698844909668,-1.0123462677001953,-1.3412344455718994,4.039713382720947,5.1826348304748535,-0.7751352787017822,2.381831645965576,4.928615570068359,-0.015267214737832546,0.8339093327522278,-1.4858766794204712,-0.001747227506712079,0.8325406908988953,-1.569648027420044,0.061906903982162476,0.9017915725708008,-1.5088791847229004,-0.001443350687623024,0.8742141127586365,-1.525908350944519,-0.026034794747829437,0.7015612125396729,-1.3442808389663696,0.007535271346569061,0.6813579797744751,-1.6364645957946777,0.02492530643939972,0.9772071838378906,-1.3785820007324219,-0.019826389849185944,0.8973977565765381,-1.3669242858886719,-0.49918609857559204,-0.4288909137248993,1.0172512531280518,-0.24795758724212646,-1.3844929933547974,-1.001025915145874,0.2214067429304123,-0.25210219621658325,0.6642863750457764,0.24259339272975922,-0.7178851962089539,0.5624167323112488
0.558230459690094,-5.1322479248046875,4.578701972961426,0.5598381757736206,-1.7483384609222412,-1.3457683324813843,-1.8792853355407715,2.461578607559204,3.4186575412750244,-1.0384360551834106,1.3937857151031494,6.679572105407715,0.5614902377128601,-4.650910377502441,4.073878288269043,0.6234453320503235,-2.2574260234832764,-0.47165748476982117,-1.6438426971435547,3.342005491256714,4.241688251495361,-0.9335885047912598,2.00395131111145,5.586557388305664,-0.02710198424756527,0.82581627368927,-1.4657299518585205,-0.005181808024644852,0.7894114851951599,-1.5950993299484253,0.06459580361843109,0.8977606892585754,-1.496640920639038,0.0016559803625568748,0.8608154058456421,-1.516144871711731,-0.02611628919839859,0.6895277500152588,-1.331660270690918,0.005945093929767609,0.6940851807594299,-1.6583173274993896,0.019039243459701538,0.9551964998245239,-1.3991577625274658,-0.022447578608989716,0.8821436166763306,-1.3395988941192627,-0.648503303527832,-0.3991160988807678,0.9801067113876343,-0.14345265924930573,-2.5808920860290527,-1.478689432144165,0.07127870619297028,-0.20518283545970917,0.6008360981941223,0.09286711364984512,-0.6758214831352234,0.47783398628234863
1.018441915512085,-5.3310065269470215,4.431504726409912,0.42812713980674744,0.7803230285644531,-1.015883445739746,-1.915435791015625,1.835666298866272,2.2302334308624268,-1.1037436723709106,1.6690590381622314,7.172808647155762,1.0878901481628418,-4.894756317138672,3.957494020462036,0.5831421613693237,1.0880072116851807,-0.05576104670763016,-1.8375550508499146,2.545063018798828,3.0561277866363525,-1.0223760604858398,1.7616767883300781,6.54730224609375,-0.04031264781951904,0.818676233291626,-1.4476648569107056,-0.00696925912052393,0.7285553216934204,-1.6248024702072144,0.0649663433432579,0.8945575952529907,-1.4858571290969849,0.0025312593206763268,0.8491032123565674,-1.5091488361358643,-0.02785249799489975,0.6786214709281921,-1.3198100328445435,0.002069719135761261,0.6863930821418762,-1.6823203563690186,0.017092227935791016,0.9374615550041199,-1.4198051691055298,-0.024481765925884247,0.879828155040741,-1.3239612579345703,-0.6500447988510132,-0.3389797508716583,0.8533602952957153,-0.08321002870798111,-3.0835156440734863,-1.6060400009155273,0.0005889377207495272,-0.14938485622406006,0.51480633020401,0.029028167948126793,-0.5500766634941101,0.29336804151535034
1.4603322744369507,-5.397393226623535,4.425754070281982,0.36094924807548523,1.6250274181365967,-0.5102598667144775,-1.6908090114593506,1.379291296005249,2.1863911151885986,-1.0098810195922852,2.3718433380126953,7.1621623039245605,1.4303034543991089,-5.1674604415893555,3.936455488204956,0.5200811624526978,2.114729166030884,0.4105745255947113,-1.7329306602478027,1.7624377012252808,1.7527453899383545,-1.1103976964950562,1.8292373418807983,7.289589881896973,-0.052208062261343,0.8130207061767578,-1.4323850870132446,-0.00865161418914795,0.676819920539856,-1.6576329469680786,0.06307197362184525,0.893631637096405,-1.4742039442062378,0.0030373167246580124,0.8410212397575378,-1.5069197416305542,-0.027101777493953705,0.6728731393814087,-1.3075776100158691,-0.0019085779786109924,0.6741505265235901,-1.7053412199020386,0.01814527064561844,0.9278829097747803,-1.4089640378952026,-0.021968849003314972,0.8933932781219482,-1.3271468877792358,-0.5701011419296265,-0.260637104511261,0.7081812024116516,-0.1140347570180893,-2.1647539138793945,-1.7475887537002563,-0.1328239142894745,-0.011550433933734894,0.5290064811706543,0.012043031863868237,-0.3462022840976715,0.035939887166023254
1.775726318359375,-5.496677398681641,4.602099895477295,0.40587133169174194,1.3995368480682373,-0.19598281383514404,-1.5186645984649658,1.5121620893478394,3.235563039779663,-0.8227551579475403,3.1225595474243164,6.4499359130859375,1.7179110050201416,-5.250849723815918,3.9960439205169678,0.41006749868392944,1.6643757820129395,0.5699880719184875,-1.5707292556762695,1.3765548467636108,1.6871236562728882,-1.0721216201782227,2.3896403312683105,7.442469120025635,-0.0619300901889801,0.808458685874939,-1.4198105335235596,-0.010607832111418247,0.6499336957931519,-1.6892969608306885,0.060086093842983246,0.89360111951828,-1.4633632898330688,0.0035724288318306208,0.8363460302352905,-1.5089367628097534,-0.02565639466047287,0.6667274236679077,-1.2924262285232544,-0.00201348215341568,0.6675295233726501,-1.7244905233383179,0.01944688707590103,0.9312731027603149,-1.370253086090088,-0.015734687447547913,0.9117162823677063,-1.3519601821899414,-0.4059731960296631,-0.21571634709835052,0.6165904402732849,-0.07762166857719421,-0.8696296215057373,-1.5146995782852173,-0.13362964987754822,-0.006603444926440716,0.611056387424469,0.06308817118406296,-0.13468684256076813,-0.21359099447727203
1.6767385005950928,-5.927391529083252,4.776384353637695,0.5131615400314331,0.996727705001831,-0.4410938024520874,-1.5681582689285278,1.835371971130371,4.281954288482666,-0.9125280380249023,3.673729658126831,5.2245283126831055,1.7541522979736328,-5.3420796394348145,4.081306457519531,0.36786088347435,0.9574279189109802,0.27532142400741577,-1.5381735563278198,1.6634482145309448,2.214069128036499,-1.0791573524475098,2.8635551929473877,7.042181968688965,-0.06695620715618134,0.8044129014015198,-1.4075374603271484,-0.011103215627372265,0.6442510485649109,-1.7120351791381836,0.05847276374697685,0.892468273639679,-1.4470643997192383,0.006570305675268173,0.8369724154472351,-1.5170260667800903,-0.02759174257516861,0.6520946025848389,-1.2750493288040161,0.0016190335154533386,0.6685120463371277,-1.742400884628296,0.01869726926088333,0.9355711936950684,-1.3185559511184692,-0.011568956077098846,0.9319706559181213,-1.3974015712738037,-0.12769989669322968,-0.20667563378810883,0.6539259552955627,-0.005339459050446749,-0.03285977616906166,-0.9669179916381836,-0.028576867654919624,-0.13906897604465485,1.0729795694351196,0.23369702696800232,0.1577499955892563,-0.549435555934906
1.4229469299316406,-6.766256809234619,4.754574775695801,0.7281262278556824,0.8524260520935059,-0.8308213949203491,-1.7772250175476074,1.9149374961853027,5.366419315338135,-1.1128450632095337,4.177641868591309,3.446474552154541,1.4812636375427246,-5.762211799621582,4.109564781188965,0.5086976885795593,0.5165609121322632,-0.16373342275619507,-1.6383731365203857,2.0808396339416504,2.9878475666046143,-1.2470747232437134,3.0757720470428467,6.174630641937256,-0.0667610764503479,0.8003338575363159,-1.3934310674667358,-0.01112356036901474,0.6483300924301147,-1.7255117893218994,0.05869041755795479,0.8887407779693604,-1.422197937965393,0.012604587711393833,0.8442462086677551,-1.5325043201446533,-0.02904965728521347,0.6269934773445129,-1.258924126625061,0.007104746997356415,0.6769086718559265,-1.759078025817871,0.01522596925497055,0.9314236640930176,-1.2590916156768799,-0.008213214576244354,0.9595174193382263,-1.4656054973602295,0.10688722878694534,-0.2091982364654541,0.7821285128593445,0.0012575846631079912,0.36339637637138367,-0.6397850513458252,0.04830888658761978,-0.25952762365341187,1.4472917318344116,0.3501662015914917,0.5415080785751343,-0.9631518721580505
1.14357590675354,-7.806692123413086,4.612977504730225,1.0106679201126099,0.871468722820282,-0.9258888959884644,-2.4935343265533447,1.8394973278045654,7.27623176574707,-1.310579538345337,5.194813251495361,0.5497927665710449,1.013606309890747,-6.504809379577637,3.896580934524536,0.6202377676963806,0.24110077321529388,-0.2909975051879883,-2.321309804916382,2.1395814418792725,4.8656487464904785,-1.4916304349899292,3.2284634113311768,4.751269340515137,-0.062001392245292664,0.7954634428024292,-1.3759657144546509,-0.010364613495767117,0.6584016680717468,-1.7377063035964966,0.06422842293977737,0.8835354447364807,-1.4000065326690674,0.020238731056451797,0.8595744371414185,-1.5563907623291016,-0.025800414383411407,0.5944464206695557,-1.2410142421722412,0.016865499317646027,0.6926678419113159,-1.7749502658843994,0.01092035323381424,0.9239215850830078,-1.1988270282745361,-0.003686942160129547,1.0086761713027954,-1.5706424713134766,0.3805788457393646,-0.29248619079589844,0.9813517928123474,0.09817079454660416,0.6239727735519409,-0.7048369646072388,0.4515143632888794,-0.2800646722316742,0.9636853933334351,0.4419407546520233,0.9615700244903564,-1.3998264074325562
1.0120173692703247,-8.921557426452637,4.6001458168029785,0.8702948093414307,1.421654224395752,-0.9090561270713806,-2.9399831295013428,0.802794337272644,9.192052841186523,-1.4693161249160767,7.22900390625,-4.313889503479004,0.4413255751132965,-7.372045993804932,3.5159218311309814,0.6989803314208984,0.16740159690380096,-0.24297291040420532,-2.9746294021606445,2.206010580062866,6.357531547546387,-1.49263596534729,3.122354030609131,2.9445242881774902,-0.051315877586603165,0.7879588603973389,-1.353817343711853,-0.006998125463724136,0.6723684668540955,-1.7523283958435059,0.07396078109741211,0.8768609166145325,-1.3800073862075806,0.027493497356772423,0.8886626958847046,-1.5939711332321167,-0.011533118784427643,0.555708646774292,-1.2139086723327637,0.021148361265659332,0.7240241765975952,-1.791602373123169,0.011786505579948425,0.8888411521911621,-1.1279640197753906,-0.0031039491295814514,1.111342430114746,-1.7521028518676758,0.7241162657737732,-0.4605637490749359,1.2452512979507446,0.3194558322429657,0.8057177066802979,-0.8273786902427673,0.5662651658058167,-0.40448111295700073,1.1121020317077637,0.30677294731140137,2.097731590270996,-2.514224052429199
0.46552324295043945,-10.215352058410645,6.362121105194092,-1.4295547008514404,3.655841827392578,-2.488805055618286,-3.1115705966949463,-0.899374783039093,9.892544746398926,-1.0760074853897095,9.083979606628418,-10.426799774169922,-0.3038049340248108,-8.158024787902832,3.1413064002990723,0.12015003710985184,0.4312882721424103,-0.08441657572984695,-3.7018027305603027,1.6121214628219604,7.655217170715332,-0.7265787720680237,2.338608503341675,0.5609228610992432,-0.03109305538237095,0.7754725813865662,-1.3251978158950806,0.0033456156961619854,0.6907168030738831,-1.76943838596344,0.08710319548845291,0.8648518323898315,-1.352641224861145,0.025483643636107445,0.9555379152297974,-1.663919448852539,0.007700085639953613,0.5042754411697388,-1.1333882808685303,-0.01759425550699234,0.8046380281448364,-1.8517121076583862,0.026542305946350098,0.8260537385940552,-1.072030782699585,-0.011839665472507477,1.279976725578308,-2.0267958641052246,1.3577529191970825,-0.7906660437583923,1.6378252506256104,0.7399497032165527,1.1262590885162354,-1.002679705619812,0.8614189028739929,-0.8156862258911133,1.6648409366607666,-0.5211561322212219,4.8669657707214355,-5.110321044921875
-1.0058637857437134,-13.89262580871582,15.46560287475586,-3.7640092372894287,4.183701515197754,-7.356774806976318,-2.2485148906707764,-6.15833854675293,9.108942985534668,1.3061964511871338,8.837645530700684,-11.920269966125488,-1.4916820526123047,-8.904694557189941,4.175273418426514,-1.4400596618652344,1.2821084260940552,-0.16411049664020538,-4.316527366638184,0.5596262812614441,7.471753120422363,1.1181449890136719,0.4442872703075409,-0.2728729248046875,0.0034804302267730236,0.7537720203399658,-1.2856636047363281,0.014235042966902256,0.7237228751182556,-1.7994422912597656,0.10832376778125763,0.8409298658370972,-1.3096165657043457,-0.0013844366185367107,1.0923908948898315,-1.8105088472366333,0.019845545291900635,0.3795771598815918,-0.8511301279067993,-0.07569299638271332,0.8771778345108032,-2.0315287113189697,0.07824261486530304,0.6581045985221863,-1.0311009883880615,-0.007138378918170929,1.4898107051849365,-2.3179807662963867,2.07558536529541,-1.3439610004425049,2.394671678543091,0.2086096704006195,2.4431207180023193,-2.4083523750305176,1.3065859079360962,-1.4433404207229614,2.539599895477295,-1.9204427003860474,8.823933601379395,-10.473259925842285
-4.801481246948242,-18.113306045532227,33.5,-1.5199328660964966,-0.029132366180419922,-9.832298278808594,0.8733804225921631,-14.513884544372559,16.597383499145508,2.6792352199554443,12.199051856994629,-10.400053977966309,-4.082810878753662,-11.245887756347656,10.754433631896973,-1.868285894393921,-0.1338171660900116,-0.868026614189148,-4.703535556793213,-3.729072332382202,4.939498424530029,3.0592870712280273,-1.4840444326400757,1.5394623279571533,0.055627696216106415,0.7141785621643066,-1.216371774673462,0.0001830491964938119,0.7922638058662415,-1.882231593132019,0.14474548399448395,0.8007408380508423,-1.2409489154815674,-0.04457930848002434,1.2953755855560303,-2.060542106628418,0.0018787980079650879,0.20789176225662231,-0.24896204471588135,-0.06698417663574219,0.8797949552536011,-2.2556354999542236,0.21766552329063416,0.38848429918289185,-0.7396539449691772,-0.016639679670333862,1.8318880796432495,-2.616468667984009,3.314406156539917,-2.672708749771118,4.819039344787598,-1.4584449529647827,4.412972927093506,-6.37982177734375,2.55427622795105,-2.470470905303955,4.318020820617676,-1.9520624876022339,11.576807975769043,-14.796260833740234
-8.929573059082031,-12.682876586914062,33.5,-0.7311558723449707,-5.768080711364746,-12.779233932495117,1.8472561836242676,-19.50473976135254,33.5,-2.763137102127075,22.804279327392578,-10.737594604492188,-10.937919616699219,-11.800827026367188,22.61179542541504,0.8729314804077148,-3.159907341003418,-0.6483175158500671,-5.096667289733887,-9.465516090393066,7.146416664123535,1.9476914405822754,-0.20468060672283173,2.9731287956237793,0.14824391901493073,0.6269800662994385,-1.0528241395950317,-0.046198535710573196,0.8787234425544739,-2.043714761734009,0.2260497659444809,0.7263132929801941,-1.1063646078109741,-0.06238445267081261,1.5446133613586426,-2.360325336456299,0.052087437361478806,0.18584054708480835,0.2530428171157837,-0.10708636045455933,0.8145906329154968,-2.558908462524414,0.39126360416412354,0.13750368356704712,0.0336298942565918,-0.13441039621829987,2.4071121215820312,-2.9592368602752686,6.354143142700195,-6.203380107879639,11.928360939025879,-2.130446434020996,4.003459930419922,-9.785642623901367,5.9516215324401855,-5.059554576873779,9.402514457702637,-0.14737564325332642,14.619588851928711,-16.523582458496094
-3.839073419570923,11.881120681762695,33.5,-1.389533519744873,-10.121721267700195,-15.650030136108398,-8.681370735168457,-7.14024543762207,33.5,-3.136998414993286,23.42657470703125,-13.456991195678711,-11.721068382263184,-5.840078830718994,33.5,1.6679142713546753,-3.3585045337677,-0.6966114640235901,-3.7140443325042725,-10.719184875488281,28.231496810913086,2.322958469390869,3.3347556591033936,3.3049845695495605,0.2672797441482544,0.4758824408054352,-0.8327978253364563,-0.09413016587495804,0.9077181220054626,-2.2661702632904053,0.360999196767807,0.5723667740821838,-0.8591869473457336,-0.09677500277757645,1.8915218114852905,-2.6836674213409424,0.24913731217384338,0.6288705468177795,0.5358374118804932,-0.1835225522518158,0.645510196685791,-2.932744026184082,0.2670804560184479,0.2269771695137024,0.7425062656402588,-0.27090930938720703,2.909407615661621,-3.378286361694336,3.8917200565338135,-7.201996326446533,4.488128662109375,-2.7327024936676025,-0.45824506878852844,-13.76615047454834,6.155776023864746,-8.344173431396484,9.351470947265625,-4.785467624664307,21.61107063293457,-17.90970802307129
6.19483757019043,24.668447494506836,33.5,5.930003643035889,-7.2276787757873535,-2.4077539443969727,-23.77721405029297,21.87882423400879,33.5,-4.555726051330566,1.652292251586914,-22.967754364013672,1.715388536453247,13.821093559265137,33.5,4.209831237792969,-2.3244264125823975,0.21101368963718414,-6.3777971267700195,0.01999857649207115,33.5,0.29931336641311646,-2.1209850311279297,-21.791330337524414,0.2515520751476288,0.35267576575279236,-0.8257246613502502,-0.18111304938793182,0.8291423320770264,-2.5772836208343506,0.4167551100254059,0.40096113085746765,-0.8241352438926697,-0.19225133955478668,2.394364356994629,-2.8279662132263184,0.36112353205680847,0.900054395198822,0.018288373947143555,-0.14051823318004608,0.5229288935661316,-2.998213291168213,-0.16790494322776794,0.7734478116035461,1.3598453998565674,-0.3922852873802185,3.003739595413208,-3.4076969623565674,-2.264974355697632,-3.466627836227417,-0.7431721091270447,-5.382763862609863,-6.2760725021362305,-18.03679084777832,0.4885142147541046,-8.724196434020996,-0.19153708219528198,-4.307040214538574,28.403396606445312,-0.2768450975418091
10.112895965576172,26.97341537475586,-16.574050903320312,4.036393165588379,2.7248592376708984,3.7361655235290527,-28.378917694091797,30.11969566345215,33.5,1.8494420051574707,-14.114484786987305,-22.90234375,8.749894142150879,14.411707878112793,33.5,5.675047397613525,4.271275043487549,-5.061840534210205,-12.58197021484375,20.228416442871094,33.5,-2.2548165321350098,-15.491623878479004,-25.996356964111328,0.19754858314990997,0.4017114043235779,-0.8440226316452026,-0.24999786913394928,0.6405168771743774,-2.81217622756958,0.3297942280769348,0.2885720729827881,-0.8397461175918579,-0.25839850306510925,2.9240922927856445,-2.7950286865234375,0.3951985836029053,1.214097023010254,-1.275739073753357,-0.18148458003997803,0.48426851630210876,-2.7782630920410156,-0.5628286004066467,1.0207297801971436,1.2911882400512695,-0.28967881202697754,3.03816819190979,-3.3303465843200684,-2.758620023727417,6.902514457702637,-0.8682591319084167,-1.6198272705078125,-11.218491554260254,-2.9745500087738037,-9.157496452331543,-1.0417343378067017,-0.8953813910484314,-3.8758180141448975,23.346900939941406,1.8620338439941406
5.570228099822998,16.69089698791504,-33.5,-9.713024139404297,5.322257995605469,1.459189534187317,-12.530790328979492,-1.9344482421875,30.886821746826172,8.56797981262207,-14.393208503723145,-11.443532943725586,7.92262077331543,3.68109130859375,-0.7599894404411316,2.8432860374450684,5.48854923248291,-1.4851795434951782,-6.990968227386475,14.031585693359375,33.5,3.79947566986084,-12.795804023742676,-23.57030487060547,0.18232709169387817,0.695763885974884,-0.9644298553466797,-0.25278738141059875,0.4696606993675232,-2.785858392715454,0.01562061533331871,0.4291036128997803,-0.8537222743034363,-0.3311102092266083,3.199392080307007,-2.765648365020752,0.3363887667655945,1.5393421649932861,-2.300849676132202,-0.4953923225402832,0.4801112413406372,-2.7046539783477783,-0.7013242244720459,0.6215789318084717,-0.09270215034484863,-0.17046621441841125,2.9982330799102783,-3.027177333831787,0.7402987480163574,21.315290451049805,-14.615473747253418,0.011032369919121265,-6.130295276641846,2.236233711242676,-20.18375015258789,12.041826248168945,-0.5575202107429504,-2.6777749061584473,7.933560371398926,1.227967381477356
-17.787691116333008,-33.5,3.879781723022461,-28.132240295410156,8.068078994750977,-23.822486877441406,29.996540069580078,0.7139387130737305,-33.5,23.77174186706543,-23.51482582092285,5.3869218826293945,-1.883959412574768,-13.798975944519043,-4.957390308380127,-5.578557968139648,2.732290506362915,0.20976625382900238,11.738409996032715,-13.039615631103516,30.790903091430664,5.114511966705322,-5.265346527099609,-11.99524974822998,0.26427462697029114,1.2433686256408691,-1.4515364170074463,-0.2769385874271393,0.423742413520813,-2.745739459991455,-0.46819624304771423,0.7113852500915527,-0.8594875335693359,-0.3308138847351074,3.204284429550171,-2.746225357055664,-0.061204515397548676,0.5219652652740479,-2.0799202919006348,-1.059234380722046,0.6135059595108032,-3.305460214614868,-0.24487099051475525,0.9654178023338318,-2.4107165336608887,0.2959645390510559,2.5419960021972656,-2.592622995376587,5.960655689239502,32.04739761352539,-36.2689208984375,-3.949489116668701,-0.5969215035438538,1.7920701503753662,-26.32941246032715,11.809205055236816,-0.14936068654060364,1.6242437362670898,-3.72088885307312,0.946465790271759
-28.92339515686035,-33.5,33.5,-32.22982406616211,-1.0604147911071777,-33.5,33.5,33.5,-33.5,-0.49394702911376953,-33.5,-10.645232200622559,-15.187309265136719,-33.5,13.747941017150879,-13.991600036621094,3.396029472351074,-23.309131622314453,31.51019287109375,-5.973518371582031,-33.5,7.0596466064453125,-5.83914852142334,1.3128379583358765,0.3503485918045044,1.710245132446289,-2.064605236053467,-0.44718557596206665,0.45510226488113403,-2.727165699005127,-0.8569169640541077,0.8852940797805786,-1.0238535404205322,-0.176311656832695,3.0069639682769775,-2.7058582305908203,-0.4046066701412201,-0.7637589573860168,-0.07097244262695312,-1.5151900053024292,0.5020948648452759,-3.681889772415161,0.21883141994476318,2.194190502166748,-4.353809356689453,0.1071246936917305,1.682929515838623,-2.8915748596191406,-1.5935195684432983,10.98005199432373,-17.950674057006836,-13.112939834594727,3.6751484870910645,0.22168830037117004,-8.785444259643555,11.473084449768066,-21.74174690246582,14.789251327514648,-15.949459075927734,4.0207085609436035
23.186243057250977,-33.5,33.5,-10.245988845825195,8.134933471679688,-33.5,33.5,0.6810722351074219,-33.5,-33.5,0.0940093994140625,13.947951316833496,4.427210807800293,-33.5,33.5,-1.8585070371627808,-2.720104694366455,-33.5,22.252731323242188,10.796669960021973,-33.5,-16.279176712036133,-6.523545742034912,-9.682891845703125,0.01708589307963848,1.4703677892684937,-1.974300503730774,-0.8836326003074646,0.5300849676132202,-2.730665445327759,-0.7068459391593933,1.301971435546875,-1.9605871438980103,0.19475872814655304,2.510699510574341,-2.642439126968384,0.06436914205551147,0.04776400327682495,1.500338077545166,-1.724877119064331,0.7734708189964294,-3.977412462234497,1.3171534538269043,1.941300630569458,-4.70042610168457,-0.8459856510162354,1.8483684062957764,-2.3008038997650146,-26.618640899658203,-25.7268009185791,21.620332717895508,-29.254737854003906,2.000624895095825,-0.3700024485588074,18.467952728271484,31.1151180267334,-62.72291564941406,15.967269897460938,-33.234066009521484,-0.35317766666412354
-11.374286651611328,33.5,33.5,-29.120267868041992,-27.85732078552246,-33.5,33.5,-33.5,-3.8374624252319336,-33.5,33.5,33.5,14.252549171447754,17.128368377685547,33.5,-31.84905433654785,8.125826835632324,-33.5,-5.612448692321777,-21.543916702270508,-33.5,-33.5,22.768869400024414,10.828742027282715,-0.2764664590358734,0.608269989490509,-0.8847911357879639,-0.9664153456687927,0.5292873978614807,-2.7367098331451416,0.2421787977218628,1.9682973623275757,-3.0054988861083984,0.3574965298175812,1.8398656845092773,-2.658573865890503,-0.5763017535209656,0.5028200745582581,2.522205352783203,-1.6566574573516846,-0.12610787153244019,-4.996336936950684,2.9103922843933105,-0.33824753761291504,-3.48012113571167,-1.7097147703170776,2.7333688735961914,-1.6669687032699585,-0.7739071846008301,-49.43575668334961,73.49007415771484,1.888230323791504,2.0518875122070312,-0.31692346930503845,60.7642936706543,25.580060958862305,-18.934284210205078,-2.182359457015991,-28.03594970703125,4.352576732635498
-22.503847122192383,33.5,33.5,30.240203857421875,-33.5,-33.5,13.942178726196289,-33.5,33.5,-30.461421966552734,33.5,-33.5,-8.486955642700195,28.31460952758789,33.5,-31.885883331298828,-17.798234939575195,-33.5,33.5,-33.5,-14.157325744628906,-21.336030960083008,33.5,7.025042533874512,-0.24057218432426453,0.08929524570703506,-0.5771384239196777,-0.9105862975120544,0.5127467513084412,-2.740720272064209,1.0311111211776733,2.0939958095550537,-3.09932017326355,-0.24611449241638184,1.6076525449752808,-2.3560214042663574,-0.9267240762710571,1.8127639293670654,2.385305881500244,-0.10350525379180908,-0.8892846703529358,-4.212657451629639,1.6105016469955444,-0.818101167678833,-1.3411571979522705,-1.9378496408462524,2.998349666595459,-2.813079357147217,-6.177784442901611,-14.717020988464355,-0.5445442199707031,2.5537972450256348,-9.694937705993652,-0.09190715104341507,11.541802406311035,1.7771400213241577,-1.3433853387832642,-46.50997543334961,-0.15390749275684357,25.671327590942383
-19.765178680419922,33.5,13.934720993041992,33.5,-12.310413360595703,9.888116836547852,-33.5,-33.5,33.5,-26.949684143066406,33.5,-33.5,-14.808600425720215,33.5,33.5,10.425848007202148,-12.23967456817627,-33.5,27.79010009765625,-33.5,33.5,-26.92521095275879,29.416139602661133,-33.5,-0.42414581775665283,0.05282881110906601,-0.6797013282775879,-0.7391124367713928,0.05610300227999687,-2.74188232421875,0.9999903440475464,2.1027984619140625,-3.1060330867767334,-1.0223675966262817,1.8690924644470215,-1.8267666101455688,-1.0506385564804077,2.388859987258911,-0.4436246156692505,0.544649600982666,-0.8910531401634216,-2.4950456619262695,0.039213813841342926,0.10952508449554443,0.7555539608001709,-1.938461422920227,3.254930257797241,-2.6403799057006836,-6.618163108825684,6.1868577003479,-5.614565849304199,18.748046875,-31.969789505004883,-0.01831277646124363,-4.212059020996094,0.13279224932193756,-0.10004610568284988,-12.117586135864258,19.69268798828125,15.392738342285156
7.854446887969971,33.5,-33.5,10.402618408203125,18.901220321655273,33.5,-33.5,-33.5,33.5,-24.2218074798584,12.93195629119873,-18.948314666748047,-10.615710258483887,33.5,16.496219635009766,22.1624813079834,-4.004167556762695,9.364641189575195,-13.958223342895508,-33.5,33.5,-33.5,18.274330139160156,-13.545979499816895,-0.575840175151825,0.3492976427078247,-0.7732205986976624,-0.35070160031318665,-0.5108659267425537,-2.73897385597229,0.7957648038864136,2.1035399436950684,-3.1065919399261475,-0.9962236881256104,2.4358251094818115,-1.9949456453323364,-0.5888845920562744,2.844731569290161,-2.9815337657928467,0.2506530284881592,-0.3184184432029724,-1.3689626455307007,-0.8596131205558777,1.0813367366790771,2.1988890171051025,-1.5202645063400269,3.121370792388916,-2.7754383087158203,-10.470279693603516,19.408031463623047,-4.140474319458008,17.064456939697266,-14.004151344299316,0.49060484766960144,-20.379770278930664,-0.0009551563998684287,-0.005056248977780342,4.075218677520752,18.11233901977539,-15.339240074157715
33.5,33.5,-33.5,-33.5,16.94684600830078,33.5,-32.151973724365234,-31.951215744018555,33.5,-19.82724952697754,25.285493850708008,0.44542503356933594,20.671810150146484,33.5,-33.5,-6.705287933349609,9.201807022094727,33.5,2.4425840377807617,-33.5,33.5,-26.709197998046875,18.413883209228516,3.780467987060547,-0.8521785736083984,0.9921542406082153,-1.0113528966903687,0.032820746302604675,-0.5854483842849731,-2.694470167160034,0.0635058805346489,2.1034202575683594,-3.1065804958343506,-0.9194232225418091,2.5517706871032715,-2.3935279846191406,-0.1735348105430603,4.567788600921631,-5.2775163650512695,-0.4940371513366699,-0.12479251623153687,-0.38160037994384766,-1.7244770526885986,1.304527997970581,3.671752452850342,-1.3482158184051514,3.293161153793335,-2.8588144779205322,-12.675063133239746,42.7729377746582,-25.909732818603516,19.273223876953125,1.8492376804351807,4.724555492401123,-49.20917892456055,-0.005594319198280573,0.0015672309091314673,3.344433069229126,5.462655067443848,-23.82110595703125
33.5,-4.3701019287109375,-33.5,-33.5,17.34095573425293,32.20060348510742,16.825103759765625,-26.416549682617188,33.5,3.8950424194335938,-19.304874420166016,-3.9615535736083984,12.351417541503906,27.629228591918945,-33.5,-33.5,11.40229320526123,33.5,19.81521224975586,-31.933780670166016,33.5,-20.61396026611328,8.434830665588379,5.448756217956543,-0.7780523896217346,2.287055730819702,-1.9314848184585571,0.3064437806606293,-0.5019373893737793,-2.226132869720459,-1.0342943668365479,2.103201389312744,-3.1064910888671875,-0.8708808422088623,2.78186297416687,-2.787559986114502,0.37642136216163635,3.767805337905884,-5.9856743812561035,-1.321285605430603,0.023674070835113525,-0.6895104050636292,-1.7992297410964966,1.4424586296081543,2.339996337890625,-0.7354907393455505,2.599668502807617,-3.0940723419189453,14.78660774230957,79.50010681152344,-54.11820983886719,4.843225002288818,4.604377746582031,36.58037185668945,-59.27814865112305,-0.016449864953756332,0.007095081266015768,1.900701880455017,15.021370887756348,-10.373675346374512
-33.5,-33.5,-33.5,-33.5,8.591802597045898,-30.259872436523438,18.11446762084961,7.589350700378418,-9.516705513000488,-3.9132871627807617,-33.5,13.80291748046875,8.216574668884277,-33.5,-33.5,-33.5,16.285734176635742,-24.21707534790039,-29.648317337036133,-26.42833137512207,33.5,-3.8911468982696533,-23.22726821899414,-13.159208297729492,-0.33467748761177063,4.125486850738525,-2.91575288772583,0.16929996013641357,-0.4523133337497711,-1.1749588251113892,-1.168824315071106,2.1030354499816895,-3.106401205062866,-0.7896406650543213,3.0542616844177246,-2.798468589782715,-1.355418086051941,2.403604030609131,-7.2667670249938965,-2.2102320194244385,-0.16867423057556152,-0.840580403804779,-0.605160117149353,2.292900562286377,-3.34434175491333,-0.7360442280769348,1.8857011795043945,-2.4200191497802734,25.284223556518555,86.51842498779297,-28.365650177001953,-15.296459197998047,3.4422011375427246,54.54376220703125,5.540126323699951,0.006567344069480896,-0.0011451212922111154,7.571430683135986,6.304421424865723,1.6688252687454224
-33.5,-33.5,-33.5,-33.5,26.020275115966797,-33.5,27.10150146484375,-17.624561309814453,-33.5,13.429332733154297,-33.5,23.694875717163086,-33.5,-33.5,-33.5,-33.5,-19.490720748901367,-13.084425926208496,5.597444534301758,7.54091215133667,-9.506291389465332,6.80204963684082,-18.854969024658203,2.587613105773926,0.19221358001232147,4.6984333992004395,-2.9608466625213623,-0.26124557852745056,-0.14074523746967316,-0.6233611106872559,-0.9864392876625061,2.103665590286255,-3.1065268516540527,-0.784159243106842,2.8290956020355225,-2.695314407348633,-1.307843804359436,1.8726842403411865,-5.712733745574951,-1.7668089866638184,0.9691006541252136,-3.517327070236206,-0.06755872815847397,1.6637637615203857,-4.334595680236816,-0.5703621506690979,1.3920156955718994,-1.8923375606536865,12.72547435760498,-1.4907770156860352,3.5408756732940674,-24.823566436767578,22.966951370239258,5.494568347930908,12.06715202331543,0.035609856247901917,-0.007877562195062637,-6.096811771392822,-23.60100555419922,10.530244827270508
-15.654651641845703,-33.5,-4.494080543518066,-18.097780227661133,-0.46624183654785156,-33.5,33.5,-31.222749710083008,-33.5,-19.67190933227539,2.5754165649414062,24.235183715820312,-20.105558395385742,-33.5,-33.5,-4.921787738800049,-5.849921226501465,-33.5,0.15575280785560608,-17.633670806884766,-33.5,10.130297660827637,9.97939682006836,-5.65376615524292,-0.14281995594501495,4.269350051879883,-2.867055654525757,-0.9116358757019043,0.4181789755821228,-0.8383789658546448,-0.6056928038597107,2.1041648387908936,-3.106637954711914,-0.8469276428222656,2.0634713172912598,-2.3054723739624023,-1.1965712308883667,2.187852382659912,-2.890894889831543,-2.0962088108062744,1.103692650794983,-3.789360761642456,1.510413646697998,1.324036955833435,-6.053592681884766,-1.3154172897338867,1.206916332244873,-1.1451139450073242,-33.11924362182617,-32.6364860534668,4.425638675689697,-36.606422424316406,34.85848617553711,-23.630666732788086,26.712011337280273,0.022040998563170433,-0.004781933035701513,1.1654037237167358,-46.047019958496094,27.723941802978516
-6.320426940917969,-33.5,33.5,-7.693050861358643,-33.5,-33.5,19.634056091308594,-33.5,-33.5,-18.38689422607422,33.5,-29.535743713378906,-22.384737014770508,-33.5,-6.169083118438721,-33.5,-30.421483993530273,-33.5,-0.4000398516654968,-31.201557159423828,-33.5,-19.360090255737305,29.63701629638672,-7.893604755401611,-0.5037776827812195,3.764615774154663,-2.7991223335266113,-1.0197042226791382,1.1524940729141235,-1.6010276079177856,0.3144564628601074,2.1041810512542725,-3.106653928756714,-0.7570973038673401,1.2200596332550049,-1.6604167222976685,-0.7949634790420532,1.841402292251587,-1.242030143737793,-1.167238712310791,0.8890295624732971,-4.609702110290527,2.011265993118286,0.1001209020614624,-3.966265916824341,-1.2910873889923096,1.7898969650268555,-1.6861674785614014,-6.658756732940674,-17.90061378479004,3.1227223873138428,2.239588975906372,35.58678436279297,-46.26762771606445,60.297908782958984,-0.005253854673355818,0.00032060881494544446,-3.7158868312835693,-37.703433990478516,35.63214111328125
4.75835657119751,9.332672119140625,33.5,10.588071823120117,-33.5,-17.830242156982422,-29.058734893798828,-33.5,33.5,-4.0544047355651855,33.5,-11.780710220336914,10.427574157714844,-22.072154998779297,33.5,-12.060220718383789,-33.5,-25.039907455444336,26.09375,-33.5,-33.5,-14.962193489074707,33.5,-22.78391456604004,-0.761803925037384,3.1815497875213623,-2.5928478240966797,-0.9432684779167175,1.687376856803894,-2.725192070007324,1.1528548002243042,2.104252815246582,-3.1067140102386475,-0.882705807685852,0.8182603716850281,-1.222757339477539,-0.9366939067840576,2.626523017883301,-0.5254772305488586,-0.6010314226150513,-0.2485305666923523,-4.429460525512695,0.6324539184570312,1.0192198753356934,-1.9359009265899658,-1.0183926820755005,1.7253448963165283,-1.4110873937606812,-14.692444801330566,-39.417179107666016,23.133981704711914,3.8767621517181396,18.408998489379883,-62.925621032714844,10.30337142944336,0.01084976363927126,-0.005801516585052013,-1.71633780002594,-6.695549964904785,5.309385299682617
-10.273635864257812,33.5,-33.5,21.928634643554688,-33.5,22.081005096435547,-27.982471466064453,-33.5,33.5,-1.5398013591766357,11.54985237121582,24.818639755249023,-1.8830759525299072,33.5,-4.775476455688477,3.2848033905029297,-33.5,-33.5,-12.616424560546875,-33.5,33.5,-6.906952381134033,8.397878646850586,13.108820915222168,-0.882355809211731,2.357558488845825,-1.629818320274353,-0.8379614949226379,1.549037218093872,-2.9875807762145996,1.0764060020446777,2.104485273361206,-3.1068215370178223,-0.8679393529891968,1.082009196281433,-1.484246015548706,-1.1464579105377197,3.017655849456787,-1.5664533376693726,-0.1349356323480606,-0.43907755613327026,-2.4220035076141357,0.24830269813537598,0.9065136909484863,-1.9877264499664307,-0.884213924407959,1.8041441440582275,-1.1183419227600098,-0.3630599081516266,-32.1148681640625,61.186397552490234,7.740499973297119,-20.790531158447266,0.6776060461997986,-6.427073955535889,0.006369052454829216,-0.002871488220989704,1.111023187637329,21.66943359375,-12.728095054626465
-6.9060869216918945,33.5,-33.5,-13.460275650024414,33.5,33.5,10.969537734985352,-11.479288101196289,-0.9338814616203308,4.063448905944824,-33.5,26.697734832763672,-12.693803787231445,33.5,-33.5,4.3741455078125,-7.173882484436035,-1.2181153297424316,-12.653579711914062,-33.5,33.5,-2.5147502422332764,-5.40501070022583,2.726861000061035,-0.8570699691772461,2.061544179916382,-0.7099250555038452,-0.577594518661499,0.760168194770813,-2.776671886444092,0.8708933591842651,2.1043455600738525,-3.1067285537719727,-0.8440600633621216,1.5299432277679443,-1.441847801208496,-1.0017650127410889,2.9359872341156006,-2.1280429363250732,-0.5807961821556091,1.0532987117767334,-0.20788359642028809,0.8388806581497192,1.8170535564422607,-3.129885196685791,-0.719758927822113,0.9162047505378723,-0.519070029258728,1.397856593132019,-1.0833191871643066,20.306812286376953,16.66526222229004,-50.99493408203125,19.256057739257812,-15.312557220458984,-0.0154906390234828,0.009519669227302074,1.1357457637786865,20.46630859375,12.766717910766602
4.183032989501953,-33.5,-24.78864860534668,-18.404476165771484,33.5,33.5,12.198297500610352,4.860884666442871,11.585206031799316,14.203764915466309,-33.5,27.909564971923828,-7.392198085784912,-2.151799440383911,-16.896909713745117,-10.679309844970703,33.5,33.5,17.810665130615234,-11.465182304382324,-0.9399031400680542,-3.192013740539551,-32.607479095458984,-11.766992568969727,-0.8352494239807129,2.43261981010437,-1.0184911489486694,-0.3931049406528473,-0.19957858324050903,-2.169921636581421,0.565336287021637,2.1040310859680176,-3.106558084487915,-0.7794684767723083,1.7396501302719116,-0.9391454458236694,-0.7123842239379883,2.0576424598693848,-2.325336456298828,-0.7739253640174866,2.692547082901001,1.1276519298553467,0.698571503162384,2.225205183029175,-2.8167574405670166,-0.2848644554615021,-0.37495529651641846,0.47284388542175293,0.9144687056541443,27.858118057250977,-34.35645294189453,3.9645743370056152,-37.32001876831055,42.12224578857422,-8.586111068725586,-0.017401207238435745,0.008524875156581402,6.975494384765625,-0.4129176735877991,35.71250915527344
15.364316940307617,-33.5,-0.8189525604248047,-13.2208251953125,33.5,20.686878204345703,-25.540250778198242,-1.0676579475402832,20.195083618164062,4.16386604309082,-33.5,33.5,3.9378466606140137,-33.5,11.688177108764648,-11.203909873962402,33.5,24.74453353881836,-1.1108561754226685,4.852606296539307,11.587563514709473,-4.632623672485352,-33.5,33.5,-0.8222551345825195,2.9703073501586914,-1.8678325414657593,-0.4053102433681488,-0.6789867877960205,-0.9389523267745972,0.615892767906189,2.1038780212402344,-3.106476068496704,-0.5242300629615784,1.5826833248138428,-0.6226150989532471,-0.4267224371433258,2.3288509845733643,-2.638014793395996,-0.8243482708930969,2.500725030899048,1.0262105464935303,0.08783669024705887,2.0771985054016113,-2.601569414138794,-0.06495224684476852,-0.8084598779678345,0.5792162418365479,0.5712385773658752,19.171165466308594,-37.48542022705078,-4.425868511199951,-19.34311294555664,72.39954376220703,5.522507667541504,0.0005966533208265901,0.0014785627136006951,17.759057998657227,-10.862829208374023,0.5971596240997314
7.959622859954834,-28.045360565185547,7.762720108032227,4.040936470031738,33.5,-5.160951614379883,-24.4920711517334,-18.656036376953125,16.650737762451172,5.200661659240723,15.73291301727295,33.5,10.021262168884277,-17.787710189819336,3.748082399368286,4.189652919769287,33.5,33.5,-13.490278244018555,-1.0762794017791748,20.197725296020508,-2.6372413635253906,-33.5,33.5,-0.778816819190979,2.978224039077759,-2.3478658199310303,-0.6362929940223694,-0.6891680955886841,-0.29866334795951843,0.6138774752616882,2.1039867401123047,-3.1064865589141846,-0.22575639188289642,1.1533598899841309,-0.698966920375824,-0.47826340794563293,2.0724096298217773,-2.537648916244507,-0.8280661702156067,1.7840614318847656,-0.44248759746551514,-0.18720805644989014,1.6377044916152954,-2.690244197845459,0.13099536299705505,0.985993504524231,1.143707275390625,5.078142166137695,-10.234016418457031,-19.192554473876953,-14.6398286819458,14.244121551513672,-0.7400227785110474,-9.439189910888672,0.005932637955993414,-0.0013038445031270385,11.336759567260742,-28.034460067749023,-4.409595966339111
10.253802299499512,1.5491809844970703,4.066457748413086,13.009363174438477,2.9053707122802734,-9.166851997375488,9.391467094421387,-33.5,33.5,-6.708718299865723,33.5,25.908422470092773,-8.21839714050293,2.6751692295074463,6.7430033683776855,5.151271820068359,33.5,11.778970718383789,5.006502151489258,-18.65023422241211,16.653656005859375,3.453248977661133,33.5,33.5,-0.5584607124328613,2.5446865558624268,-2.5847175121307373,-0.8563364744186401,-0.13323523104190826,-0.5034211874008179,0.20109520852565765,2.1040432453155518,-3.1065330505371094,-0.09248343110084534,0.5295811891555786,-0.7710477113723755,-0.016458362340927124,2.044259786605835,-2.604562520980835,-0.6316139101982117,0.6461776494979858,-0.966133177280426,-0.07758396118879318,0.8071544766426086,-1.8214983940124512,-0.12305382639169693,2.205806255340576,-0.1866060495376587,14.282861709594727,-26.957813262939453,-6.07532262802124,-5.025575160980225,35.33892822265625,-11.677035331726074,-25.673290252685547,-0.004140650387853384,-0.0026214809622615576,6.8573784828186035,-25.464946746826172,-3.163444995880127
-11.114261627197266,-19.8480224609375,18.704940795898438,33.5,-33.5,-25.052371978759766,21.190399169921875,-16.53960418701172,33.5,-26.680057525634766,9.093596458435059,-33.5,-9.519904136657715,16.05231475830078,-1.7993665933609009,7.459153652191162,-32.59449768066406,-4.656991004943848,15.65452766418457,-33.5,33.5,-16.38258934020996,33.5,27.0621337890625,-0.20283573865890503,2.050791025161743,-2.5826942920684814,-0.8519167900085449,0.6864004731178284,-0.6921481490135193,-0.2094743251800537,2.1038339138031006,-3.1065244674682617,0.09907226264476776,0.2676137387752533,-0.8203553557395935,-0.056317321956157684,1.1467514038085938,-2.0919549465179443,0.08443000167608261,-0.37634390592575073,-1.476017713546753,0.06081286817789078,1.6901206970214844,-1.972166657447815,-0.3804905414581299,0.3652726411819458,-2.0937788486480713,21.218748092651367,-20.391950607299805,1.1557912826538086,1.6912002563476562,38.73197937011719,-7.8780131340026855,-12.973640441894531,-0.011156491003930569,0.0028270455077290535,9.371932029724121,-6.484050273895264,-2.140202760696411
-33.5,10.317472457885742,33.5,22.032461166381836,-9.228879928588867,-33.5,8.409351348876953,-5.495730876922607,14.856319427490234,1.6485663652420044,7.6331868171691895,21.242889404296875,-13.474003791809082,-3.0454392433166504,4.7663068771362305,21.672155380249023,-33.5,-13.992243766784668,3.944525957107544,-16.54573631286621,33.5,-19.905677795410156,-4.6614203453063965,-22.474674224853516,0.11794300377368927,1.6991746425628662,-2.4786665439605713,-0.7303371429443359,1.2355618476867676,-0.8655956387519836,-0.20537349581718445,2.1037280559539795,-3.106498956680298,0.1593456119298935,0.3276893198490143,-1.0320361852645874,-0.6650382876396179,1.4808242321014404,-0.7187474370002747,0.09343769401311874,1.4161441326141357,-2.3906469345092773,0.1724335253238678,1.9663708209991455,-2.7351460456848145,0.15836554765701294,0.6726378202438354,-1.0008397102355957,8.129487991333008,-23.814361572265625,13.377690315246582,13.648163795471191,20.565214157104492,-13.030797958374023,8.378661155700684,0.0018019045237451792,-0.002753762062638998,-2.109711170196533,7.705941677093506,-24.993785858154297
6.90318489074707,33.5,-1.8249092102050781,-29.94091033935547,-33.5,-7.975671768188477,-11.06528377532959,-22.413429260253906,33.5,5.480074882507324,33.24302673339844,33.5,-12.445793151855469,28.502931594848633,19.222938537597656,-12.166942596435547,-9.35873794555664,-16.818979263305664,-5.291508674621582,-5.504296779632568,14.858741760253906,15.232645034790039,8.028327941894531,33.5,-0.01801718957722187,1.1952561140060425,-1.9586414098739624,-0.1992383599281311,1.4547406435012817,-1.3058892488479614,0.05045393109321594,2.1038308143615723,-3.1065521240234375,-0.027424225583672523,0.4447029232978821,-1.6293643712997437,-0.18131381273269653,1.8258051872253418,-1.244943618774414,-0.35091155767440796,0.6828743815422058,-2.1695642471313477,0.02808912843465805,1.5436426401138306,-2.0485191345214844,-0.0854487195611,1.303005337715149,-0.8316323757171631,-16.793811798095703,-21.350261688232422,37.966026306152344,29.842479705810547,9.768599510192871,-33.21416091918945,12.713364601135254,0.007376702036708593,-0.003119206987321377,-9.751317977905273,1.361335039138794,-15.973917961120605
14.92166519165039,33.5,-20.91516876220703,-33.5,-22.728513717651367,33.5,13.484214782714844,-23.759531021118164,33.5,7.915403366088867,33.5,9.022160530090332,18.880956649780273,32.46117401123047,-26.65512466430664,-33.37717819213867,-24.92621612548828,15.660329818725586,-2.136542320251465,-22.403461456298828,33.5,8.217832565307617,27.431177139282227,9.050971031188965,-0.37602177262306213,1.00137197971344,-1.1327764987945557,0.23242273926734924,1.4868714809417725,-2.0262556076049805,0.13700905442237854,2.1038479804992676,-3.106541156768799,-0.16041597723960876,0.4821566939353943,-1.4574443101882935,-0.28029605746269226,2.569052219390869,-1.1014447212219238,-0.4258824586868286,0.7378169894218445,-1.6767410039901733,0.41860803961753845,1.5097408294677734,-2.1249284744262695,-0.09300944954156876,1.5137169361114502,-0.8323526382446289,-13.865796089172363,0.6451969146728516,27.710548400878906,12.554757118225098,-9.042081832885742,-26.740840911865234,-2.775317907333374,-0.0059446124359965324,0.005008575040847063,-6.523928165435791,6.7534613609313965,19.97688102722168
19.096723556518555,4.966100692749023,-33.5,3.1820316314697266,24.88919448852539,33.5,7.205643653869629,-31.268077850341797,33.5,-1.1435003280639648,-16.751537322998047,-25.787517547607422,6.156181812286377,24.069847106933594,5.807939052581787,-13.615425109863281,9.770710945129395,11.833812713623047,13.344686508178711,-23.738794326782227,33.5,10.818799018859863,10.25589656829834,-8.216913223266602,-0.46998918056488037,1.3902370929718018,-1.1078656911849976,0.15903234481811523,1.0271625518798828,-2.138622522354126,0.056132592260837555,2.10357928276062,-3.106407880783081,-0.27430257201194763,0.8117111325263977,-1.0132685899734497,0.0432174876332283,2.091458559036255,-2.1672816276550293,-0.005946077406406403,1.1157790422439575,-0.18488144874572754,0.26513195037841797,1.3215086460113525,-1.5129649639129639,-0.39206692576408386,0.8385311365127563,-1.2716177701950073,1.7894283533096313,28.85344696044922,-6.938873767852783,-12.226459503173828,-26.680665969848633,8.3018159866333,1.4429137706756592,-0.018433427438139915,0.006408026907593012,-4.4588422775268555,22.280420303344727,19.316938400268555
-5.607107162475586,-33.5,-33.5,17.74370002746582,-19.095598220825195,33.5,-9.063427925109863,-19.346385955810547,33.5,-7.602619171142578,-26.96924591064453,-33.5,-4.8801069259643555,-31.758962631225586,-16.200265884399414,12.75823974609375,30.921016693115234,30.573143005371094,-8.463188171386719,-31.263267517089844,33.5,-1.9627423286437988,-33.5,-17.847793579101562,-0.2027665674686432,2.1269824504852295,-1.3438795804977417,-0.12694111466407776,0.6246803402900696,-1.6618704795837402,0.24581608176231384,2.103290557861328,-3.106318235397339,-0.3139641284942627,1.3028572797775269,-0.8350671529769897,0.025042474269866943,1.6765472888946533,-2.9917492866516113,0.11869042366743088,-0.13463634252548218,0.17408883571624756,0.2501259744167328,1.6194307804107666,-1.8096975088119507,-0.5330638289451599,1.0637699365615845,-1.907851219177246,18.399335861206055,37.92250442504883,-20.919771194458008,-9.89804744720459,-14.096336364746094,35.63302230834961,11.544778823852539,-0.010005836375057697,0.004086656495928764,-1.4517117738723755,21.757190704345703,0.4822106659412384
-6.860090255737305,-33.5,-23.239748001098633,9.562829971313477,-10.350127220153809,18.59340476989746,-16.55944061279297,-19.232933044433594,33.5,-3.219043254852295,-33.5,-18.825443267822266,0.5438483357429504,-33.5,-9.75406551361084,11.68315315246582,-11.78666877746582,11.317784309387207,-12.280582427978516,-19.372512817382812,33.5,-4.696669101715088,-26.958560943603516,-16.42422103881836,-0.027745269238948822,2.671288251876831,-1.9622761011123657,-0.17757660150527954,0.39308401942253113,-0.7357068657875061,0.4224308431148529,2.1033804416656494,-3.106320381164551,-0.35006341338157654,1.5616880655288696,-1.0566009283065796,-0.1600559949874878,2.1335437297821045,-3.3288912773132324,0.06568234413862228,-0.09872281551361084,0.35597944259643555,0.1431545466184616,1.622920274734497,-1.9887521266937256,-0.49612319469451904,0.6219164729118347,-1.9678817987442017,1.9595767259597778,19.57845115661621,-39.28107452392578,0.2094096541404724,-11.652682304382324,31.34255599975586,6.735484600067139,0.018158888444304466,-0.002887591253966093,-3.279184579849243,8.802295684814453,-22.032236099243164
-0.05889701843261719,-24.190227508544922,33.5,-9.409466743469238,33.5,-4.847076892852783,-10.418212890625,-6.57274055480957,33.5,18.40285873413086,-19.890445709228516,33.5,1.5663118362426758,-13.228246688842773,13.149385452270508,5.149584770202637,-5.767184257507324,33.5,-7.109808444976807,-19.255313873291016,33.5,0.6868526935577393,-24.36025047302246,5.7288923263549805,-0.08909270912408829,2.689655303955078,-2.814709186553955,-0.12634147703647614,0.2237856537103653,-0.6590885519981384,0.4256666600704193,2.1038355827331543,-3.1064062118530273,-0.4341455399990082,1.4983398914337158,-1.6114262342453003,-0.20068621635437012,1.8594942092895508,-2.092519760131836,-0.29829394817352295,1.037946105003357,-0.8363453149795532,0.0604444220662117,1.9399845600128174,-1.9811075925827026,-0.05322304368019104,0.7336616516113281,-0.9217418432235718,-5.506053924560547,-11.270271301269531,-42.14583206176758,3.1642096042633057,-8.916443824768066,-2.8039920330047607,-5.238345146179199,0.023374635726213455,-0.0041075823828577995,-3.9574482440948486,-13.370855331420898,-24.9838924407959
2.4559707641601562,11.693765640258789,33.5,-19.475662231445312,8.399925231933594,-33.5,-0.8667325973510742,-16.349672317504883,26.134868621826172,-1.1292786598205566,33.5,31.958221435546875,4.244479656219482,8.580914497375488,21.545454025268555,-10.886366844177246,33.5,7.52960729598999,4.101844310760498,-6.577742099761963,33.5,9.020988464355469,17.925064086914062,25.93888282775879,-0.20148277282714844,2.206406354904175,-2.880070447921753,-0.06368054449558258,0.11243771761655807,-0.7970231175422668,0.21508409082889557,2.104222536087036,-3.1065332889556885,-0.4138016998767853,0.9378869533538818,-1.754536509513855,-0.24539893865585327,1.9373154640197754,-1.4111607074737549,-0.5130262970924377,0.35278552770614624,-1.8659108877182007,-0.06376998871564865,1.6956863403320312,-2.4532649517059326,-0.3069797456264496,1.6226574182510376,-0.7712584137916565,-5.265771389007568,-28.07175064086914,12.445722579956055,1.8772879838943481,1.5174845457077026,-11.378118515014648,-12.859288215637207,0.01028026919811964,-0.0051696510054171085,6.7526960372924805,-32.617591857910156,9.216126441955566
-3.8490071296691895,-1.8647384643554688,17.837413787841797,-12.644468307495117,-15.762990951538086,-25.841218948364258,33.5,-33.5,7.547300338745117,-18.23792266845703,33.5,3.9169750213623047,2.086822032928467,19.702861785888672,-0.8575064539909363,-10.15692138671875,-13.48746109008789,-3.453787088394165,9.463482856750488,-16.330684661865234,26.133447647094727,-7.8227152824401855,33.5,-7.286519527435303,-0.2583715617656708,1.7637430429458618,-2.2411293983459473,-0.11470741033554077,0.35933682322502136,-1.1834200620651245,-0.04131343215703964,2.104130506515503,-3.106577157974243,-0.23474089801311493,0.45918378233909607,-1.2060316801071167,-0.3937946856021881,1.398125410079956,-0.943787693977356,-0.5752149820327759,0.2958972454071045,-2.4255967140197754,0.5516570806503296,1.1050106287002563,-2.9179186820983887,-0.5673599243164062,1.3608776330947876,-0.4911710023880005,-1.9598970413208008,-15.949957847595215,42.57032012939453,-7.219793319702148,16.53175926208496,-29.80730628967285,-12.952181816101074,-0.008852392435073853,-0.0012014564126729965,6.166451930999756,-15.292020797729492,30.84681510925293
-8.305536270141602,-26.050270080566406,28.8173828125,13.081565856933594,-9.975946426391602,-17.64849853515625,33.5,-33.5,10.115069389343262,-21.126461029052734,33.5,11.64118766784668,-3.4202282428741455,2.6983325481414795,-17.690263748168945,3.836003065109253,-17.311429977416992,4.747800827026367,19.440155029296875,-33.5,7.545087814331055,-10.822985649108887,29.173593521118164,6.91493558883667,-0.27479279041290283,1.5608718395233154,-1.3708915710449219,-0.37316012382507324,0.5936580300331116,-1.8457320928573608,-0.11097531020641327,2.1039328575134277,-3.106555700302124,-0.2300332635641098,0.45727431774139404,-0.8361197710037231,-0.5159273743629456,0.6794103384017944,0.2189035415649414,-0.34407591819763184,0.4792843759059906,-2.985504150390625,1.3459917306900024,0.5194985270500183,-2.8536691665649414,-0.8249468207359314,2.026346206665039,-0.3730146884918213,-1.6748096942901611,-11.510238647460938,43.46802520751953,-14.897747039794922,6.75124979019165,-34.927978515625,8.831425666809082,-0.006881110370159149,0.0004894676967523992,-3.33760142326355,8.713172912597656,8.60377025604248
-9.237926483154297,33.5,33.5,21.064786911010742,-27.58635902404785,4.308116912841797,-6.243125915527344,-33.5,33.5,-33.5,33.5,-28.4418888092041,-3.565474033355713,-11.69750690460205,20.988454818725586,5.773219585418701,7.601916313171387,8.941182136535645,-3.6079304218292236,-33.5,10.112380027770996,-14.212656021118164,31.15926170349121,19.29958724975586,-0.33749812841415405,1.2871044874191284,-0.7065995335578918,-0.5351681113243103,0.49746644496917725,-2.5032081604003906,0.5018836259841919,2.103865385055542,-3.1065261363983154,-0.3514409065246582,0.8189523220062256,-0.8271836638450623,-0.6577386856079102,2.5132033824920654,0.5450568199157715,0.0382133349776268,-0.40042251348495483,-3.1013307571411133,1.2801117897033691,0.08057832717895508,-1.2891230583190918,-1.3484218120574951,2.1710472106933594,-1.5665515661239624,-4.4646196365356445,-15.762822151184082,20.039583206176758,2.3380866050720215,-10.411498069763184,-35.29127502441406,46.71531677246094,-5.504313958226703e-05,0.0023703642655164003,-5.909475326538086,21.420616149902344,-1.4160354137420654
16.862998962402344,33.5,33.5,20.029926300048828,4.786375045776367,33.5,-33.19647216796875,-33.5,33.5,22.515018463134766,-12.722984313964844,-14.496284484863281,1.401461124420166,33.5,33.5,3.3989264965057373,-6.337501049041748,-3.7236685752868652,2.5602924823760986,-33.5,33.5,-1.4032896757125854,-11.275419235229492,-6.393179893493652,-0.4818147122859955,1.1569119691848755,-0.6838311553001404,-0.3249049186706543,0.21027694642543793,-2.9158689975738525,1.093464970588684,2.1037936210632324,-3.1065051555633545,-0.6798346042633057,1.5463156700134277,-1.0029138326644897,-0.2712002694606781,2.6669955253601074,0.6269540786743164,0.45398828387260437,-0.122325599193573,-1.123844027519226,0.38619264960289,0.46840089559555054,0.5118649005889893,-0.7504640817642212,2.1348581314086914,-1.7691292762756348,-10.548025131225586,0.48376280069351196,-3.4442009925842285,13.907254219055176,-22.613096237182617,-4.618497371673584,6.1319756507873535,0.0013616613578051329,-0.0007383519550785422,-31.675247192382812,45.33085250854492,-20.190414428710938
4.747480869293213,31.55760955810547,-33.5,0.021329879760742188,33.5,33.5,-20.53754425048828,-33.5,33.5,0.13905620574951172,-33.5,-2.767582893371582,11.0880765914917,33.5,33.5,-3.3157804012298584,22.564373016357422,33.5,-10.115682601928711,-33.5,33.5,7.193267822265625,-32.36191940307617,-3.724388599395752,-0.5815503597259521,1.3755184412002563,-0.7632293701171875,0.0634998306632042,-0.2849538028240204,-2.7334482669830322,0.945873498916626,2.103749990463257,-3.106478691101074,-0.9962612986564636,2.325856924057007,-1.3810088634490967,-0.42971518635749817,2.513521194458008,-2.062756061553955,0.5374160408973694,0.9530894756317139,0.23466849327087402,0.12564611434936523,0.6557895541191101,1.1779043674468994,-0.926819384098053,1.7873706817626953,-1.7452090978622437,1.6574076414108276,17.453125,-3.616776466369629,23.669147491455078,-20.07405662536621,21.040613174438477,-15.33944034576416,-0.006468515843153,0.0024314643815159798,3.2982754707336426,30.902462005615234,-14.750533103942871
-10.36640739440918,-15.822175979614258,-33.5,-16.1690673828125,33.5,29.401386260986328,29.805171966552734,-33.5,33.5,1.5759689807891846,-33.5,0.9481675624847412,-8.09447193145752,11.511162757873535,-33.5,-6.674570083618164,33.5,33.5,12.620611190795898,-33.5,33.5,-6.466334342956543,-28.507469177246094,-6.585655212402344,-0.39160385727882385,1.8688896894454956,-0.9354960918426514,0.4142082631587982,-0.43896377086639404,-1.918380856513977,0.44643303751945496,2.103457450866699,-3.106372594833374,-0.8575534820556641,2.491360664367676,-1.4866337776184082,-0.48651358485221863,1.8301877975463867,-2.822725296020508,0.30005359649658203,1.0806043148040771,-0.14568030834197998,0.555260181427002,1.163805365562439,0.6720235347747803,-0.7257617712020874,1.5744941234588623,-1.55686354637146,8.212523460388184,17.84262466430664,-13.323033332824707,14.50360107421875,-0.21281154453754425,51.88329315185547,-31.815109252929688,-0.010313887149095535,0.0033386440481990576,4.619624137878418,0.43483662605285645,-4.69669771194458
-13.991194725036621,17.34685707092285,-33.5,-21.009187698364258,10.353032112121582,-28.00967788696289,-23.108182907104492,-33.5,33.5,4.668078422546387,-33.5,11.18342113494873,1.7423306703567505,-2.0747427940368652,-33.5,-16.69133949279785,33.5,-28.97507095336914,2.9604833126068115,-33.5,33.5,1.4814300537109375,-11.79773998260498,-0.5648985505104065,-0.43065884709358215,1.9142457246780396,-1.2505968809127808,0.640403151512146,-0.35531288385391235,-0.6500461101531982,0.37566226720809937,2.1033992767333984,-3.1063363552093506,-0.8142277002334595,2.274782419204712,-1.557955026626587,-0.8798516988754272,2.315727710723877,-2.9312100410461426,0.19210737943649292,0.04237973690032959,-0.12154555320739746,-0.09645649045705795,1.0446983575820923,-2.072800874710083,-0.6460955739021301,0.6037615537643433,-1.2631555795669556,-4.970649719238281,-1.6094698905944824,-25.771085739135742,3.846695899963379,6.943341255187988,61.43712615966797,5.279291152954102,-0.0016232422785833478,0.0030505945906043053,2.5715079307556152,-20.26723861694336,0.7606958150863647
10.063783645629883,-33.5,33.5,12.87843132019043,-33.5,6.803000450134277,-3.6616058349609375,-17.105541229248047,27.56924819946289,8.174622535705566,-27.38962745666504,1.3694000244140625,-1.9450690746307373,16.07897186279297,13.25079345703125,5.175804138183594,-24.896297454833984,19.43844223022461,-17.001846313476562,-33.5,33.5,1.3023666143417358,-10.828251838684082,-6.783232688903809,-0.5880690813064575,1.897040605545044,-2.1653995513916016,0.44022735953330994,0.13728220760822296,-0.49573275446891785,0.42988938093185425,2.103407382965088,-3.1062700748443604,-0.7463635802268982,1.6560797691345215,-1.3955442905426025,-0.5796303749084473,1.0496323108673096,-2.1062493324279785,0.3846730589866638,-0.41534632444381714,-0.43743157386779785,0.23704954981803894,1.6757864952087402,-2.4169561862945557,-0.4742891788482666,0.18972712755203247,-1.0593397617340088,-12.157793998718262,0.8356421589851379,-54.85401916503906,-18.87575340270996,26.375247955322266,-5.588691711425781,-5.064984321594238,0.000881671963725239,0.0041342973709106445,3.3854422569274902,-39.080596923828125,15.09847640991211
24.836109161376953,20.067472457885742,33.5,14.892995834350586,30.837100982666016,-33.12704849243164,-10.385379791259766,-25.32024383544922,33.5,23.654022216796875,33.5,33.5,14.059410095214844,-15.84742546081543,33.5,23.279203414916992,-33.5,14.423811912536621,0.675229549407959,-17.122682571411133,27.58228302001953,5.529763221740723,8.851553916931152,-15.063409805297852,-0.8090991973876953,1.7946232557296753,-2.9424517154693604,0.05551408976316452,0.4708108901977539,-0.650291919708252,0.2572394609451294,2.1035678386688232,-3.1063292026519775,-0.7025513052940369,0.8101918697357178,-1.0354965925216675,-0.3102128505706787,1.9475047588348389,-0.8347949385643005,0.1750178337097168,1.4333266019821167,-1.6262030601501465,-0.03946570307016373,1.4708473682403564,-2.2057414054870605,-0.02118268609046936,1.187504529953003,0.3225919008255005,-6.100820064544678,-17.440265655517578,-16.43750762939453,-12.641056060791016,9.5794095993042,-7.386748313903809,-1.8535321950912476,0.014281162992119789,-0.009208297356963158,4.50090217590332,-42.087677001953125,17.637102127075195
-3.654482841491699,15.787895202636719,2.4515857696533203,-4.990687370300293,10.132169723510742,-8.805452346801758,-29.676660537719727,-33.5,33.5,-6.403438568115234,33.5,19.44009017944336,-0.2673569321632385,31.709613800048828,33.5,4.185007095336914,16.929893493652344,-0.6424199342727661,-15.175732612609863,-25.306760787963867,33.5,8.129307746887207,33.5,33.5,-0.6623423099517822,1.3750269412994385,-2.7644033432006836,0.02853773720562458,0.6432491540908813,-0.9702038168907166,0.32380884885787964,2.1036322116851807,-3.1064610481262207,-0.5084692239761353,0.1742493212223053,-0.7860196828842163,-0.39489102363586426,1.549461841583252,-2.266706705093384,-0.05437451973557472,1.2633835077285767,-1.8302788734436035,-0.4019889533519745,0.9894140362739563,-1.0565896034240723,-0.3845013380050659,1.9274849891662598,-0.1245037317276001,17.9406681060791,-11.013123512268066,21.820348739624023,2.0927462577819824,18.34150505065918,-31.996938705444336,0.8059374094009399,-0.0057921442203223705,-0.004512183368206024,14.202692031860352,-22.07300567626953,8.77568531036377
0.5436859130859375,-5.784285545349121,-28.924007415771484,-0.9460234642028809,-33.5,14.995393753051758,5.413034439086914,-31.013261795043945,33.5,-16.407142639160156,33.5,-1.7049763202667236,-11.146903991699219,-0.14920416474342346,-28.032373428344727,2.811753749847412,-14.31753158569336,14.029308319091797,-7.884444236755371,-33.5,33.5,-14.658551216125488,33.5,27.902647018432617,-0.3200604021549225,1.4312677383422852,-2.1095879077911377,0.006377093959599733,1.1472958326339722,-1.643074631690979,0.1506742686033249,2.103395700454712,-3.1064789295196533,-0.2136554718017578,0.04956856369972229,-0.7819918394088745,-0.1026262566447258,1.4085848331451416,-2.2889976501464844,-0.14831894636154175,0.32305437326431274,-1.8061267137527466,-0.0695519670844078,1.3278000354766846,-1.5192511081695557,-0.4282160997390747,1.4921218156814575,-0.8646942973136902,10.192099571228027,6.0962114334106445,27.18452262878418,-6.552272796630859,23.7012996673584,-26.896846771240234,-17.777605056762695,-0.013206600211560726,0.0027609518729150295,9.780896186828613,1.586902379989624,-2.0039024353027344
3.5692033767700195,-23.4915828704834,-25.526521682739258,-7.665700912475586,-29.173084259033203,33.5,33.5,-17.018617630004883,33.5,-9.5523099899292,26.049449920654297,-28.575408935546875,1.5219573974609375,-11.538504600524902,-10.283563613891602,4.0036301612854,-33.5,2.2732648849487305,22.812698364257812,-31.007522583007812,33.5,-8.995983123779297,32.31814956665039,6.970044136047363,-0.24098443984985352,1.5745247602462769,-1.9719781875610352,-0.15062542259693146,1.3750897645950317,-1.8458000421524048,-0.3138025104999542,2.1031692028045654,-3.1063764095306396,-0.18123890459537506,0.2987746000289917,-0.8732953071594238,-0.051445089280605316,1.109757900238037,-2.670071601867676,-0.44005224108695984,0.6659435629844666,-0.5201645493507385,0.26421672105789185,1.6775226593017578,-1.3761110305786133,-0.44212424755096436,1.335404396057129,-1.7533305883407593,5.015462398529053,6.126133918762207,-2.99651837348938,-4.889214038848877,1.009044885635376,-0.8579158782958984,-16.303346633911133,-0.009054526686668396,0.004885696340352297,-1.1038806438446045,19.26967430114746,-8.28250503540039
-10.133208274841309,15.183783531188965,5.516980171203613,-16.543447494506836,-10.365535736083984,33.5,-0.7555131912231445,-13.573960304260254,33.5,-0.9866337776184082,-18.573144912719727,-6.080591201782227,-4.605014324188232,-13.298243522644043,-5.485433101654053,-9.91341495513916,0.6489061713218689,19.612314224243164,8.699933052062988,-17.0118408203125,33.5,-2.1843528747558594,-10.019134521484375,-2.8081698417663574,-0.09266766160726547,1.5653644800186157,-2.1981329917907715,-0.16701316833496094,1.0859583616256714,-1.5729259252548218,-0.25265273451805115,2.103010416030884,-3.106309652328491,-0.2603260278701782,0.887820303440094,-1.1832478046417236,-0.18964993953704834,1.8218085765838623,-2.3950111865997314,-0.6058030724525452,0.3905825614929199,0.40026140213012695,0.027830563485622406,1.7634696960449219,-1.7392185926437378,-0.4121812582015991,1.1215541362762451,-1.8351410627365112,7.81739616394043,-6.157524585723877,-16.740135192871094,-1.2601841688156128,-21.811870574951172,28.122678756713867,14.96855640411377,-0.009586114436388016,0.00320188095793128,-6.359469413757324,34.90312194824219,-24.99392318725586
-6.337777137756348,17.969768524169922,14.808953285217285,2.890164375305176,29.829832077026367,27.67276954650879,-12.674825668334961,-15.02270793914795,33.5,12.181690216064453,-33.5,8.09704875946045,-5.317012310028076,22.514122009277344,13.887232780456543,-2.2125165462493896,7.478363513946533,23.234121322631836,-14.482378959655762,-13.591876983642578,33.5,8.798023223876953,-30.76396942138672,2.6197049617767334,-0.024628572165966034,1.3678131103515625,-2.5144689083099365,-0.306413859128952,0.6033299565315247,-0.7476716041564941,0.11684311926364899,2.103013038635254,-3.1062963008880615,-0.444145143032074,1.4733483791351318,-1.6105091571807861,-0.21516907215118408,1.7081997394561768,-2.3719682693481445,-0.47823601961135864,0.9493693113327026,0.5112276077270508,0.07301940023899078,1.7276990413665771,-1.7977944612503052,-0.32758960127830505,0.8622915744781494,-1.6982074975967407,-1.6048028469085693,-5.442878723144531,-11.38615894317627,-12.203813552856445,-19.985322952270508,28.3539981842041,13.652345657348633,0.012685212306678295,-0.0015549580566585064,-9.399335861206055,20.865251541137695,-14.506227493286133
3.34580397605896,-8.605951309204102,17.790693283081055,31.002140045166016,8.192441940307617,15.689849853515625,-9.189476013183594,-22.114229202270508,33.5,-4.576658248901367,-8.025307655334473,-5.686056613922119,3.2515389919281006,3.5125813484191895,5.932816982269287,17.10509490966797,21.85585594177246,33.5,-5.837082386016846,-15.028870582580566,33.5,2.8792479038238525,-21.61874771118164,-2.2081258296966553,-0.15562129020690918,1.4590352773666382,-2.5651605129241943,-0.6111654043197632,0.4406624436378479,-0.677945613861084,0.19626618921756744,2.103242874145508,-3.106314182281494,-0.4853391945362091,1.5435458421707153,-1.6862648725509644,-0.21281245350837708,1.4052364826202393,-2.075521469116211,-0.13080985844135284,0.6077839732170105,-0.34037232398986816,-0.010790452361106873,1.5505650043487549,-1.82423734664917,-0.5139872431755066,1.2021275758743286,-1.7851557731628418,-7.041812896728516,8.067499160766602,2.2435855865478516,-14.73489761352539,-1.8844764232635498,-2.7336480617523193,1.1340135335922241,0.008893538266420364,-0.0004227327590342611,4.2884202003479,-7.039278507232666,2.1630258560180664
0.3525799512863159,6.110947132110596,19.66299057006836,29.006059646606445,-6.844934940338135,-33.5,-10.365842819213867,-23.489757537841797,33.5,-16.738195419311523,18.064144134521484,-1.1873157024383545,3.508866548538208,-8.432862281799316,1.5916155576705933,25.013690948486328,1.5294865369796753,19.93299674987793,-8.297295570373535,-22.110483169555664,33.5,-12.819828033447266,8.693784713745117,-4.976698875427246,-0.2441197782754898,1.5816142559051514,-2.396843910217285,-0.7350366711616516,0.4947899281978607,-0.7585967779159546,0.21259094774723053,2.1033294200897217,-3.106339693069458,-0.32063964009284973,1.2485504150390625,-1.6358981132507324,-0.29171961545944214,1.768831729888916,-1.623737096786499,-0.031000621616840363,0.398423433303833,-1.6893517971038818,-0.0625041201710701,1.5160831212997437,-1.6982836723327637,-0.6119464039802551,1.4363865852355957,-1.690421223640442,-2.820716619491577,1.7221895456314087,14.076603889465332,-1.055773138999939,3.7378437519073486,-4.005023956298828,-0.797450602054596,-0.00012013370724162087,-0.002412768080830574,6.357405662536621,-13.188370704650879,-1.2420109510421753
-16.0106201171875,29.682722091674805,33.42082977294922,20.867164611816406,-19.625255584716797,-20.66977882385254,1.7083358764648438,-28.681379318237305,33.5,-21.531753540039062,20.99435043334961,15.263809204101562,-1.46238374710083,9.493589401245117,-1.3220820426940918,17.010459899902344,-13.254865646362305,-9.465545654296875,-2.455763339996338,-23.485225677490234,33.5,-11.707616806030273,13.678279876708984,8.69041633605957,-0.2559591233730316,1.5452916622161865,-2.0273451805114746,-0.6280500888824463,0.5921398401260376,-0.9797654151916504,0.12784059345722198,2.103271484375,-3.1063668727874756,-0.29376596212387085,1.1248447895050049,-1.7653443813323975,-0.6554255485534668,2.273560047149658,-0.7551642060279846,0.06541699916124344,0.23916369676589966,-1.9694576263427734,0.0415983572602272,1.3861793279647827,-1.5304702520370483,-0.857549786567688,1.6192883253097534,-1.526086449623108,0.03995441272854805,-0.6899839043617249,21.833011627197266,8.589397430419922,6.882761478424072,-23.64738655090332,-6.447531700134277,-0.002882989589124918,-0.000861697131767869,-1.2745006084442139,-1.5207633972167969,-7.1168646812438965
-4.890417575836182,18.36439323425293,-1.1641349792480469,16.564285278320312,-25.520490646362305,-9.585975646972656,18.52506446838379,-33.5,33.5,-16.906291961669922,27.72322654724121,-8.363419532775879,-9.553855895996094,21.78386878967285,3.8614227771759033,5.973886966705322,-13.071919441223145,6.264556884765625,6.527441501617432,-28.6778564453125,33.5,-6.565155506134033,10.392573356628418,9.081457138061523,-0.2944706380367279,1.610076665878296,-1.5133333206176758,-0.3780016601085663,0.6340146064758301,-1.564018964767456,-0.007405559066683054,2.1032068729400635,-3.10636568069458,-0.4367210566997528,1.208963394165039,-1.8066129684448242,-0.53883957862854,2.18807315826416,-0.8808031678199768,0.3301770091056824,-0.07205063104629517,-2.3657209873199463,0.3415389358997345,1.1649984121322632,-1.0242875814437866,-1.11607825756073,2.0525546073913574,-1.9622083902359009,-6.105424880981445,5.944333076477051,33.0816764831543,14.703575134277344,-3.4026474952697754,-28.102630615234375,-5.709105968475342,-0.004053561948239803,-0.00027973728720098734,-12.834991455078125,7.5255279541015625,2.6745028495788574
-9.845943450927734,33.5,-33.5,-6.749912261962891,-15.644776344299316,33.5,1.0504517555236816,-33.5,33.5,-8.45833969116211,33.5,-7.4530134201049805,2.885611057281494,6.8909125328063965,-18.95277976989746,-4.323990821838379,-2.2218358516693115,1.4537049531936646,6.31764030456543,-33.5,33.5,3.9059431552886963,8.670235633850098,-7.960354804992676,-0.4655645191669464,1.78795325756073,-0.883416473865509,-0.0190719086676836,0.36493155360221863,-2.0001094341278076,0.01686554029583931,2.103109836578369,-3.106343984603882,-0.7950102686882019,1.463353157043457,-1.7280088663101196,-0.8571284413337708,4.199674606323242,-2.492149829864502,0.26952895522117615,-0.40762418508529663,-1.3578236103057861,0.2098592221736908,0.5584574937820435,-0.04362475872039795,-1.4251853227615356,2.8712968826293945,-1.9495248794555664,-7.270766258239746,11.392355918884277,23.821640014648438,22.867433547973633,-19.071815490722656,-20.097705841064453,8.33661937713623,-0.006812585052102804,0.0019380864687263966,-20.935829162597656,18.62228012084961,-1.7595341205596924
-12.15174388885498,33.5,-33.5,-33.5,28.259794235229492,33.5,-33.5,-25.183677673339844,33.5,2.041391372680664,-23.781269073486328,13.573217391967773,2.6727535724639893,33.5,-33.5,-26.86905288696289,12.582626342773438,29.58766746520996,-13.289029121398926,-33.5,33.5,-18.930938720703125,10.03922176361084,1.3441334962844849,-0.6481833457946777,1.9014813899993896,-0.8543052077293396,0.4973665475845337,-0.13903744518756866,-2.1881825923919678,0.29637035727500916,2.103037118911743,-3.1063244342803955,-0.9632934927940369,1.974347472190857,-1.8453797101974487,-1.2277408838272095,4.221113204956055,-2.590299606323242,-0.30182015895843506,-0.01569497585296631,0.6792035102844238,-0.3280954957008362,1.4732561111450195,1.086967945098877,-0.900877058506012,2.025784730911255,-1.643797755241394,-13.788195610046387,6.908621788024902,-12.536502838134766,22.19443702697754,-29.15761947631836,4.533361911773682,12.28572940826416,-0.009452986530959606,0.0026366186793893576,0.5690826177597046,32.29844665527344,-6.887423038482666
12.869909286499023,-5.17236852645874,-33.5,-17.843223571777344,33.5,33.5,0.3366985321044922,-16.079723358154297,33.5,-3.3615968227386475,-20.449363708496094,-22.266178131103516,-16.680288314819336,33.5,-9.970133781433105,-27.5568790435791,33.5,33.5,-0.6895184516906738,-25.169591903686523,33.5,-1.6081072092056274,-15.199378967285156,-4.386268138885498,-0.7753021121025085,2.2179243564605713,-1.5477867126464844,0.5803821086883545,-0.5805730819702148,-1.6575995683670044,0.16815927624702454,2.1027464866638184,-3.106172800064087,-0.9136568903923035,2.267031192779541,-1.749263882637024,-0.48898592591285706,2.256558895111084,-3.2228105068206787,-0.05897882953286171,0.868954598903656,-0.03966498374938965,-0.3024400770664215,1.700502872467041,1.4007275104522705,-0.9447143077850342,1.8945350646972656,-2.0907955169677734,-1.77157723903656,8.397187232971191,-39.66297912597656,-9.664016723632812,-13.76828384399414,37.93218231201172,-23.95083999633789,-0.012527590617537498,0.005488313268870115,2.649125099182129,6.936898708343506,10.75614070892334
31.818828582763672,-13.40030288696289,-14.889995574951172,-3.0664567947387695,33.5,-3.8958492279052734,21.107074737548828,-26.657608032226562,33.5,-6.463985919952393,-16.51619529724121,-11.135743141174316,12.487706184387207,-1.0594221353530884,10.243707656860352,7.222303867340088,33.5,6.613419532775879,24.143239974975586,-16.08599090576172,33.5,-4.900543212890625,-13.730298042297363,-16.62611198425293,-0.8135089874267578,2.2881972789764404,-2.4710042476654053,0.14712022244930267,-0.6315076947212219,-0.7636141777038574,-0.4369202256202698,2.1026084423065186,-3.106098175048828,-0.8670803308486938,2.2784643173217773,-1.6207607984542847,-0.005707800388336182,1.9480369091033936,-3.8511531352996826,-0.31619781255722046,0.7525894641876221,-0.30239665508270264,-0.37834420800209045,1.436212420463562,0.8721218109130859,-0.9838003516197205,1.8248876333236694,-1.9535362720489502,0.6165217161178589,-0.2576398253440857,-50.39495086669922,-19.33283233642578,7.525926113128662,27.93068504333496,-23.455041885375977,0.0022068226244300604,0.0008397000492550433,2.24398136138916,-2.0335893630981445,-2.71909499168396
10.239191055297852,1.3115434646606445,-0.9044344425201416,3.0559046268463135,-24.480377197265625,-27.642887115478516,-9.868879318237305,-33.5,33.5,8.934033393859863,-5.528172969818115,-1.3799982070922852,5.915190696716309,2.520158052444458,-33.5,-4.4607462882995605,10.310381889343262,18.344715118408203,4.563786506652832,-26.660905838012695,33.5,-6.97780179977417,-4.8435163497924805,3.507506847381592,-0.5813079476356506,2.119955539703369,-2.9163951873779297,-0.05363968387246132,-0.14466437697410583,-0.7012332677841187,-0.5457170605659485,2.1026923656463623,-3.1061816215515137,-0.8335888385772705,2.1447482109069824,-1.8357748985290527,0.10239224135875702,1.9178216457366943,-3.016846179962158,-0.12828153371810913,-0.1171795129776001,-1.4520866870880127,-0.7391608357429504,0.8195892572402954,-0.9763821363449097,-0.5860044360160828,1.8077713251113892,-2.075723886489868,21.386018753051758,-11.746123313903809,-3.8920063972473145,-7.551973342895508,31.974714279174805,-2.989062547683716,2.663909673690796,0.0021390581969171762,-0.004376684781163931,1.2116773128509521,-9.938628196716309,-10.272451400756836
-1.422372817993164,-33.5,33.5,13.91901969909668,-33.5,-33.5,-7.234232425689697,-33.5,33.5,16.992477416992188,-0.6081247329711914,-9.167266845703125,-16.08237075805664,5.107364177703857,-9.154918670654297,6.6779069900512695,-33.5,-15.779312133789062,-10.880821228027344,-33.5,33.5,3.218571901321411,7.646553039550781,0.7296778559684753,-0.03201790526509285,1.9342938661575317,-2.868178129196167,-0.18177247047424316,0.5101059675216675,-0.8340723514556885,-0.4630042314529419,2.102724075317383,-3.1062119007110596,-0.7796310186386108,1.8855637311935425,-1.9697238206863403,0.4688922166824341,0.7073562145233154,-1.6964513063430786,0.05274628847837448,-0.025871217250823975,-2.7059130668640137,-0.6479961276054382,0.9741973876953125,-1.677695870399475,-0.2416568100452423,1.6014044284820557,-2.3231475353240967,26.823469161987305,-7.2078142166137695,4.010242462158203,-5.672836780548096,28.4553165435791,-11.1765775680542,-0.2068040668964386,0.0035021689254790545,-0.0009769127937033772,5.658114910125732,-13.447809219360352,-6.212101459503174
-31.85216522216797,-4.940832138061523,33.5,-0.04747974872589111,-11.317619323730469,-25.2514591217041,15.500503540039062,-33.5,33.5,-0.3690061569213867,-6.652396202087402,19.740188598632812,-4.87827205657959,-20.663360595703125,17.538402557373047,9.8863525390625,-33.5,-33.5,1.564732313156128,-33.5,33.5,0.9348987340927124,6.276605606079102,-0.45802655816078186,0.3192913234233856,1.69212806224823,-2.632817506790161,-0.2354351282119751,0.8910996317863464,-1.215623378753662,-0.5836831331253052,2.1028249263763428,-3.10627818107605,-0.5776946544647217,1.656415581703186,-2.118518829345703,-0.20545515418052673,1.1004194021224976,0.11058950424194336,-0.1955995261669159,0.8957708477973938,-2.403876781463623,-0.29960185289382935,1.211283564567566,-1.5649164915084839,-0.2742544412612915,1.278179407119751,-1.8181922435760498,13.57788372039795,-23.409393310546875,24.895305633544922,2.0511298179626465,14.380584716796875,-27.848344802856445,-5.171565532684326,0.009201115928590298,-0.0075028203427791595,15.633268356323242,-10.5963134765625,-9.658905029296875
-27.56649398803711,24.09584617614746,33.5,2.1106362342834473,-11.626399040222168,6.7138671875,24.28362274169922,-33.5,33.5,-14.544976234436035,14.337098121643066,24.1480655670166,-19.048521041870117,29.01833724975586,25.496763229370117,-2.8284449577331543,-4.866868019104004,15.966018676757812,7.562234878540039,-33.5,33.5,-10.690070152282715,4.932447910308838,12.703554153442383,0.38988834619522095,1.0165038108825684,-1.7121057510375977,-0.14433012902736664,1.0041884183883667,-2.004971504211426,-0.5774987936019897,2.1029698848724365,-3.106388807296753,-0.25388020277023315,1.433355689048767,-2.220538854598999,-0.41840454936027527,0.9773571491241455,0.5024056434631348,-0.0721224993467331,0.7267825603485107,-2.635180711746216,0.11843284219503403,1.1920417547225952,-1.1228210926055908,-0.37062710523605347,1.5132956504821777,-1.5320795774459839,-5.956524848937988,-32.07714080810547,59.26380920410156,0.9720861315727234,0.6627059578895569,-39.902793884277344,4.442052841186523,0.00294177676551044,-0.00239483080804348,12.34387493133545,-13.9243745803833,4.237883567810059
0.9536495208740234,32.22182846069336,-33.5,8.557690620422363,8.809656143188477,33.5,4.212656021118164,-33.5,33.5,8.614514350891113,18.20201873779297,16.839344024658203,-13.398765563964844,24.57921028137207,8.376810073852539,8.68058967590332,4.200989723205566,11.423857688903809,7.012670516967773,-33.5,33.5,-2.830723762512207,17.280452728271484,0.3841976523399353,0.16949759423732758,0.5668019652366638,-0.43641766905784607,-0.22338514029979706,0.8547303676605225,-2.5327651500701904,-0.37696754932403564,2.1028213500976562,-3.1063437461853027,-0.2151828557252884,1.2150843143463135,-1.924464464187622,-0.05959417670965195,1.1684225797653198,-0.8984087109565735,-0.07519496977329254,0.8419992327690125,-2.0220627784729004,0.04843249171972275,0.9429628849029541,-1.399503469467163,-0.0844961553812027,1.536334753036499,-1.1207008361816406,-12.646649360656738,-10.196255683898926,36.47015380859375,-3.287605047225952,-11.648626327514648,-19.40060043334961,16.004182815551758,-0.006465835962444544,0.004755187314003706,-4.2338080406188965,-6.690000534057617,19.13899803161621
9.811408042907715,20.756710052490234,-27.94214630126953,-3.8343589305877686,20.796926498413086,33.5,-14.234498023986816,-32.15109634399414,33.5,7.298099040985107,-17.650943756103516,7.973859786987305,11.000232696533203,1.872283697128296,2.4999616146087646,-0.8512255549430847,13.595281600952148,17.966655731201172,-12.276030540466309,-33.5,33.5,9.056291580200195,9.573160171508789,-1.9170808792114258,-0.10428977757692337,0.7601119875907898,-0.5416116118431091,-0.1754244863986969,0.6456369161605835,-2.6316730976104736,0.004911564290523529,2.1025941371917725,-3.106247901916504,-0.3050731122493744,1.2249888181686401,-1.5231512784957886,-0.08931479603052139,1.640533208847046,-1.659461498260498,-0.14977329969406128,1.0220403671264648,-1.3721215724945068,-0.0005291923880577087,1.2985434532165527,-1.8501226902008057,-0.12845098972320557,0.8557321429252625,-0.8734273910522461,-11.515510559082031,18.075176239013672,-20.964807510375977,6.075507640838623,-7.175985336303711,8.022197723388672,17.52108383178711,-0.013661702163517475,0.004685192368924618,-0.29151713848114014,3.600844144821167,22.518871307373047
7.619564533233643,-6.576259613037109,-33.5,-20.58954620361328,1.116213321685791,29.485244750976562,4.4182820320129395,-18.32237434387207,33.5,-11.026776313781738,-24.897062301635742,-13.135627746582031,11.546059608459473,-4.881667613983154,3.370164155960083,-7.457721710205078,12.25503158569336,3.073723077774048,-8.432154655456543,-32.151039123535156,33.5,-1.8655864000320435,-16.509380340576172,-12.486080169677734,-0.2556518316268921,1.2164280414581299,-1.0688523054122925,-0.04859261214733124,0.6443483829498291,-2.1436026096343994,0.17325139045715332,2.1024019718170166,-3.106182813644409,-0.20689471065998077,1.29341721534729,-1.062645673751831,-0.18747717142105103,1.5981683731079102,-2.726796865463257,-0.47806891798973083,0.7435699105262756,-0.7118334174156189,0.3207317292690277,1.6442601680755615,-1.9596258401870728,-0.3574807345867157,0.646040141582489,-0.8896661400794983,-6.11572265625,27.307340621948242,-33.743167877197266,4.263117790222168,3.565809726715088,34.731903076171875,1.8511645793914795,-0.004122050479054451,0.0032673818059265614,6.25416898727417,-1.2475248575210571,25.068511962890625
5.230380058288574,-18.518463134765625,-9.901481628417969,-5.098719120025635,-21.763599395751953,12.360973358154297,5.279158115386963,-29.592470169067383,33.5,-6.686783790588379,-17.574535369873047,-15.011087417602539,8.157990455627441,-26.355628967285156,-2.1756229400634766,-11.213406562805176,2.577587366104126,-11.30370807647705,6.307656288146973,-18.327972412109375,33.5,-8.337982177734375,-16.13799285888672,-7.1542534828186035,-0.3307121992111206,1.7520660161972046,-1.8012111186981201,-0.07917296886444092,0.6984912753105164,-1.3323311805725098,0.1425417959690094,2.102410316467285,-3.106154203414917,-0.13472513854503632,1.1848654747009277,-0.7744373083114624,-0.2606674134731293,1.7940974235534668,-2.919943332672119,-0.32520171999931335,0.135040283203125,-0.1202162504196167,0.295019268989563,1.3626477718353271,-2.24919056892395,-0.31620076298713684,0.6101266145706177,-1.0860869884490967,-3.035735845565796,25.249650955200195,-43.55976104736328,-5.928038597106934,-0.9680511355400085,45.15452575683594,1.0249261856079102,0.002461506286635995,0.0017051455797627568,-0.7153016924858093,-6.768775939941406,3.181375026702881
-0.9226013422012329,-8.31840705871582,33.5,17.162372589111328,-5.8988800048828125,0.6317987442016602,-11.008711814880371,-23.87616539001465,33.5,9.781290054321289,-10.427990913391113,16.8444766998291,6.456124305725098,-11.462933540344238,16.67084312438965,5.769042491912842,-21.092517852783203,18.189319610595703,-3.5760304927825928,-29.612789154052734,33.5,2.480504035949707,-5.0349812507629395,-4.245729923248291,-0.37543442845344543,2.0047531127929688,-2.613311529159546,-0.26429834961891174,0.6663270592689514,-0.7647719383239746,0.2628012001514435,2.1026625633239746,-3.106220245361328,-0.23509803414344788,0.9714356660842896,-0.8423445224761963,-0.44513556361198425,1.8727107048034668,-2.4246604442596436,-0.04036850109696388,0.5148812532424927,-0.5591542720794678,0.10920224338769913,1.5060633420944214,-2.216050148010254,-0.13368111848831177,0.4753013253211975,-0.5588318109512329,-2.3318049907684326,3.7958877086639404,-36.170143127441406,-10.25647258758545,-0.19869042932987213,9.491134643554688,6.080941677093506,0.015247313305735588,-0.00545838288962841,-7.155766487121582,-11.771727561950684,-6.879961013793945
-1.0158202648162842,24.898488998413086,24.427352905273438,7.4317450523376465,25.383699417114258,-11.333762168884277,-11.211016654968262,-17.721261978149414,33.5,12.990788459777832,31.005977630615234,28.482301712036133,2.356346845626831,4.497237205505371,14.362536430358887,17.819007873535156,-2.7971227169036865,10.58767318725586,-11.101126670837402,-23.88018226623535,33.5,10.04846477508545,5.1889424324035645,7.91835880279541,-0.44168350100517273,1.9114638566970825,-2.85378360748291,-0.4181593954563141,0.629567563533783,-0.7696552872657776,0.3460519313812256,2.1028804779052734,-3.106344699859619,-0.34985876083374023,0.6920512914657593,-0.897299587726593,-0.5294397473335266,2.382741928100586,-2.1730401515960693,-0.3000500500202179,1.2194018363952637,-1.1071901321411133,0.1064549908041954,1.660036325454712,-2.2497243881225586,-0.06012303754687309,1.1207271814346313,-0.044733285903930664,-3.118036985397339,-7.559205532073975,3.5029821395874023,-3.384213924407959,-2.2379109859466553,-2.7095401287078857,2.033924102783203,0.009370523504912853,-0.005569684784859419,-1.7516984939575195,-17.32367706298828,7.025439739227295
-3.288686752319336,5.8796067237854,4.943443298339844,11.234825134277344,2.5510454177856445,-0.2514047622680664,4.866606712341309,-19.779552459716797,31.920425415039062,-12.371353149414062,33.5,17.82771110534668,-2.9333953857421875,22.22695541381836,-1.30314040184021,2.2122409343719482,15.19331169128418,2.890951633453369,-4.842282295227051,-17.705093383789062,33.5,5.7865190505981445,26.931909561157227,32.64009475708008,-0.4604291319847107,1.8403898477554321,-2.5491628646850586,-0.39047306776046753,0.667567253112793,-0.9083964228630066,0.33553457260131836,2.102818012237549,-3.1063942909240723,-0.2956477999687195,0.4973374009132385,-0.8657447099685669,-0.5383220314979553,1.9740581512451172,-2.0168755054473877,-0.0744854062795639,0.9033451676368713,-1.1857490539550781,0.34917721152305603,1.6081748008728027,-2.308418035507202,-0.5140698552131653,1.640690803527832,-0.4150428771972656,0.21621356904506683,-0.6660931706428528,20.4350643157959,1.7558503150939941,8.600088119506836,-13.553375244140625,-5.401126384735107,-0.007720469031482935,-0.0017193706007674336,4.543088912963867,-2.4953982830047607,0.2504507601261139
-0.5192939043045044,10.933389663696289,-14.638678550720215,3.881751298904419,-31.410579681396484,13.38979721069336,19.636953353881836,-22.627038955688477,33.5,-18.406641006469727,13.445294380187988,-19.176671981811523,-2.757539749145508,7.569465160369873,-9.343570709228516,7.358434677124023,-9.138406753540039,6.120957851409912,12.564839363098145,-19.770044326782227,31.917951583862305,-12.878633499145508,27.518775939941406,18.747318267822266,-0.4618673026561737,1.8175010681152344,-2.150237798690796,-0.3461048901081085,0.9185517430305481,-1.1693930625915527,0.1524616926908493,2.102630853652954,-3.106391668319702,-0.21991094946861267,0.6613608598709106,-0.8715981841087341,-0.4823658764362335,2.0581562519073486,-2.1492531299591064,-0.16140246391296387,0.3465408384799957,-1.004028081893921,0.5259800553321838,1.5367498397827148,-2.0965845584869385,-0.6522700786590576,1.2888537645339966,-1.3631426095962524,-0.3758113384246826,-1.6339776515960693,18.34758186340332,4.382931709289551,10.662677764892578,-8.46899700164795,-5.870273590087891,-0.010250835679471493,0.001241482445038855,1.3903460502624512,14.568026542663574,-0.6063829660415649
4.920894622802734,31.509138107299805,-33.5,-16.835817337036133,-14.462947845458984,33.5,0.18761491775512695,-12.225991249084473,33.5,0.8147110939025879,-26.84861183166504,-22.509445190429688,0.5920946598052979,12.019878387451172,-9.731231689453125,-5.429835319519043,-18.813566207885742,-3.215792655944824,5.492494106292725,-22.623008728027344,33.5,-4.37125301361084,-12.913128852844238,-5.703019142150879,-0.4762694239616394,1.7842886447906494,-1.9568356275558472,-0.19361929595470428,0.9511128664016724,-1.1243603229522705,0.2127467542886734,2.1024506092071533,-3.1063387393951416,-0.32806503772735596,1.1124194860458374,-0.9740613102912903,-0.37414586544036865,2.5453877449035645,-2.7686574459075928,-0.446552038192749,0.4553062915802002,0.2200918197631836,0.3933580815792084,1.7966753244400024,-2.074092388153076,-0.5226209759712219,0.9404667019844055,-1.7833032608032227,-1.0449405908584595,-1.3314666748046875,2.5431668758392334,8.3981351852417,-6.711644649505615,10.036352157592773,8.79604721069336,-0.006275454070419073,0.0032560217659920454,-10.746185302734375,24.963125228881836,-12.32529067993164
0.15604543685913086,18.312959671020508,-3.455066680908203,-9.69432544708252,20.604049682617188,33.5,-6.15629243850708,-29.444116592407227,30.692716598510742,24.5693359375,-33.5,-5.153275489807129,6.912329196929932,28.376800537109375,-6.597838401794434,-12.040900230407715,4.048660755157471,31.140274047851562,-6.951809406280518,-12.234749794006348,33.5,16.347137451171875,-30.494258880615234,-6.206523895263672,-0.5103282928466797,1.790205955505371,-2.16522216796875,-0.11689940094947815,0.6594489216804504,-0.8121374249458313,0.42138293385505676,2.102458953857422,-3.1062679290771484,-0.634265124797821,1.4796403646469116,-1.2841311693191528,-0.5430529713630676,2.2937917709350586,-2.6900882720947266,-0.3878876566886902,0.8691909909248352,0.8325541019439697,0.4132460057735443,1.366441249847412,-2.338859796524048,-0.3170660734176636,0.27093929052352905,-1.756972074508667,-1.8312907218933105,2.288090229034424,-21.924470901489258,-1.4315060377120972,-15.267958641052246,12.686121940612793,7.288518905639648,0.004261254332959652,0.004510349128395319,-14.851716041564941,11.15914249420166,-17.200448989868164
-4.430663108825684,-3.407233953475952,20.114620208740234,7.434155464172363,25.778188705444336,33.5,-14.694268226623535,-20.4710636138916,33.5,21.633249282836914,-27.011844635009766,33.5,-2.3099753856658936,11.709087371826172,16.927959442138672,-1.7416906356811523,20.20331382751465,33.5,-3.8215975761413574,-29.447721481323242,30.69255256652832,11.066407203674316,-32.70647430419922,-0.16562101244926453,-0.500802218914032,1.9109376668930054,-2.6836421489715576,-0.23241807520389557,0.47232457995414734,-0.78138267993927,0.47190654277801514,2.1025421619415283,-3.1062023639678955,-0.7050190567970276,1.3893752098083496,-1.5603388547897339,-0.5960701704025269,1.9158837795257568,-2.610421657562256,-0.15849149227142334,1.0085629224777222,0.6202037334442139,0.14142924547195435,1.590857744216919,-2.259645700454712,-0.052895016968250275,0.4133051037788391,-0.80104660987854,0.7749311923980713,4.506348133087158,-21.482250213623047,-5.596365451812744,-5.410821437835693,-1.3142521381378174,1.843970775604248,0.004609014838933945,0.0014350537676364183,5.564640045166016,-15.038701057434082,-9.624634742736816
13.945444107055664,11.018798828125,-1.9114596843719482,6.352036476135254,-5.641812801361084,9.760417938232422,-7.273449897766113,-33.5,33.5,-13.282638549804688,33.5,13.40797233581543,-0.25051599740982056,-1.5554620027542114,5.184440612792969,8.061176300048828,16.204360961914062,33.5,-6.922735214233398,-20.47528648376465,33.5,2.670012950897217,14.506952285766602,6.553626537322998,-0.5266045928001404,1.951272964477539,-2.7939889430999756,-0.3165258765220642,0.49580100178718567,-0.8179450035095215,0.43706372380256653,2.1026451587677,-3.1062092781066895,-0.4432339072227478,0.78435879945755,-1.4322296380996704,-0.24117118120193481,2.2302403450012207,-2.7878191471099854,-0.20122000575065613,0.46240857243537903,-0.6084848642349243,0.132661372423172,1.1569321155548096,-1.736512303352356,-0.4517112970352173,1.2415060997009277,-0.6296879649162292,-3.1601338386535645,0.1748703271150589,2.697814464569092,-2.1747519969940186,5.3826446533203125,-1.7275155782699585,-6.128304958343506,0.00473647378385067,-0.0008598253480158746,16.179428100585938,-36.68637466430664,23.367116928100586
-0.39469289779663086,-5.763974666595459,-4.516639709472656,8.42277717590332,-33.5,-4.130851745605469,-2.854696273803711,-33.4932861328125,33.5,-25.276466369628906,33.5,-33.5,6.280027866363525,4.767506122589111,-5.198734760284424,0.7595909833908081,-14.263106346130371,10.669379234313965,5.411357402801514,-33.5,33.5,-17.76137351989746,33.5,-11.369721412658691,-0.5220422744750977,1.9868756532669067,-2.701775550842285,-0.28403955698013306,0.6691074371337891,-0.8466410636901855,0.22682204842567444,2.1025381088256836,-3.1062026023864746,-0.18445156514644623,0.22103112936019897,-0.837226927280426,-0.4080391824245453,1.9669532775878906,-2.7707667350769043,-0.009640373289585114,-0.08707213401794434,-0.9784906506538391,-0.07398995012044907,1.2649662494659424,-1.6213682889938354,-0.6395886540412903,0.7165459394454956,-1.521470546722412,6.193520545959473,6.2088494300842285,2.1962404251098633,3.191488027572632,7.493940353393555,-1.4289143085479736,-11.472229957580566,-0.011987895704805851,0.0022456853184849024,8.838729858398438,-18.740503311157227,24.589099884033203
