120090162/mujoco_unitree_rl/pre_train/a1/csv/isaacgym_model_0702.pt_20250124212949.csv
tau_cal_0,tau_cal_1,tau_cal_2,tau_cal_3,tau_cal_4,tau_cal_5,tau_cal_6,tau_cal_7,tau_cal_8,tau_cal_9,tau_cal_10,tau_cal_11,tau_est_0,tau_est_1,tau_est_2,tau_est_3,tau_est_4,tau_est_5,tau_est_6,tau_est_7,tau_est_8,tau_est_9,tau_est_10,tau_est_11,joint_pos_0,joint_pos_1,joint_pos_2,joint_pos_3,joint_pos_4,joint_pos_5,joint_pos_6,joint_pos_7,joint_pos_8,joint_pos_9,joint_pos_10,joint_pos_11,joint_pos_target_0,joint_pos_target_1,joint_pos_target_2,joint_pos_target_3,joint_pos_target_4,joint_pos_target_5,joint_pos_target_6,joint_pos_target_7,joint_pos_target_8,joint_pos_target_9,joint_pos_target_10,joint_pos_target_11,joint_vel_0,joint_vel_1,joint_vel_2,joint_vel_3,joint_vel_4,joint_vel_5,joint_vel_6,joint_vel_7,joint_vel_8,joint_vel_9,joint_vel_10,joint_vel_11
-0.23938466608524323,-5.97027063369751,3.1374430656433105,-1.4251735210418701,-6.746285915374756,-1.2044391632080078,1.3575775623321533,2.114866256713867,6.758453845977783,0.6805245280265808,0.9175453782081604,5.514738082885742,4.1796088218688965,-2.628619432449341,0.6286251544952393,-4.266965389251709,-2.693603038787842,0.6545314192771912,2.7357027530670166,1.8787974119186401,2.8491594791412354,-2.7048516273498535,2.1316511631011963,3.051541566848755,-0.004521060734987259,0.8657113909721375,-1.5156999826431274,0.0067099835723638535,0.8673365116119385,-1.5163460969924927,0.03157327324151993,0.9529869556427002,-1.5712544918060303,-0.03234640881419182,0.9466652274131775,-1.5763158798217773,-0.010474838316440582,0.7164587378501892,-1.4372795820236206,-0.02895519882440567,0.698682963848114,-1.5464742183685303,0.06554687023162842,1.0059016942977905,-1.4022676944732666,-0.015365593135356903,0.9696473479270935,-1.438420057296753,0.0015419538831338286,0.00020591354405041784,-0.0007837038720026612,-0.0017922506667673588,0.000180288843694143,-0.0008570817299187183,0.0017079825047403574,0.00215408974327147,0.001272724475711584,-0.0016149162547662854,0.002174279885366559,0.0013682680437341332
-1.0744613409042358,-5.024692535400391,4.264106273651123,-0.737240731716156,-6.877574443817139,-0.3685355484485626,0.7479470372200012,3.396160125732422,8.37074089050293,0.6777377128601074,1.6714085340499878,6.509450912475586,-0.3211725354194641,-5.814713954925537,3.3089993000030518,-1.509657859802246,-6.7102274894714355,-0.6357163786888123,1.144485592842102,2.589498996734619,6.40061092376709,0.45533549785614014,1.415910005569458,5.266450881958008,-0.0039535709656775,0.8650246858596802,-1.5177030563354492,0.007264164742082357,0.8675154447555542,-1.521156668663025,0.033051397651433945,0.9500353932380676,-1.5693892240524292,-0.030844850465655327,0.943558394908905,-1.5752103328704834,-0.029307059943675995,0.7362092733383179,-1.4134019613265991,-0.009644769132137299,0.6944993138313293,-1.539794683456421,0.05563340708613396,1.0260682106018066,-1.3530144691467285,-0.009805537760257721,0.9760348200798035,-1.4073450565338135,0.07540231943130493,-0.15990503132343292,-0.11507799476385117,0.07610420137643814,-0.05383862555027008,-0.47123128175735474,0.1941666603088379,-0.4435591995716095,0.3553118109703064,0.2047935277223587,-0.46543943881988525,0.2564501166343689
-0.9627569913864136,-4.448415279388428,5.351513385772705,-0.535188615322113,-6.6057515144348145,-0.585538387298584,-0.018069982528686523,4.64941930770874,7.19622278213501,0.21775159239768982,2.449523448944092,5.577474594116211,-1.0839946269989014,-4.569582462310791,4.229162216186523,-0.7468059062957764,-6.479920864105225,0.1935533583164215,0.36125504970550537,4.464497089385986,7.332643985748291,0.2582564949989319,2.9017493724823,5.631093502044678,-0.002685730578377843,0.8585070967674255,-1.5191739797592163,0.00854681245982647,0.863021194934845,-1.533111810684204,0.03944246470928192,0.9337533116340637,-1.5547947883605957,-0.0239955335855484,0.9255006313323975,-1.563498854637146,-0.0262761190533638,0.739238440990448,-1.3853431940078735,-0.004354335367679596,0.6913535594940186,-1.5592719316482544,0.04615028202533722,1.0306912660598755,-1.3564250469207764,-0.010818161070346832,0.9647291898727417,-1.408685564994812,0.023926839232444763,-0.4029137194156647,0.002147761872038245,0.023928334936499596,-0.326192170381546,-0.5760830640792847,0.35797834396362305,-0.9648763537406921,0.9232087135314941,0.38667914271354675,-1.1004762649536133,0.7688211798667908
-0.8146958947181702,-4.343087673187256,5.576396942138672,-0.2529944181442261,-6.649096965789795,-1.454420566558838,-0.6760202646255493,4.5902814865112305,6.233830451965332,-0.20418575406074524,2.3677423000335693,5.210935115814209,-0.8656363487243652,-4.0298309326171875,4.821288585662842,-0.4369015693664551,-6.2480854988098145,-0.32851508259773254,-0.4026143550872803,5.243371963500977,6.404090881347656,-0.1900719702243805,3.302339553833008,4.912798881530762,-0.003232058836147189,0.8493867516517639,-1.5143460035324097,0.007980814203619957,0.8553234338760376,-1.5426427125930786,0.04762916639447212,0.9154872894287109,-1.5352270603179932,-0.01522123720496893,0.9031704068183899,-1.5471478700637817,-0.025002606213092804,0.7314070463180542,-1.366465449333191,0.00024334341287612915,0.681328296661377,-1.5874195098876953,0.03931513428688049,1.0143640041351318,-1.3606815338134766,-0.011171005666255951,0.9413642883300781,-1.401232123374939,-0.07015755027532578,-0.47012579441070557,0.423531711101532,-0.0706305280327797,-0.3883855640888214,-0.4208141565322876,0.4293237030506134,-0.7940163612365723,0.9349884390830994,0.457743763923645,-1.0499837398529053,0.7821182012557983
-0.47394102811813354,-4.582949638366699,5.231583595275879,0.26350030303001404,-6.828166484832764,-2.0057127475738525,-1.2001620531082153,3.97853684425354,5.636429786682129,-0.6370624303817749,1.9505138397216797,5.42755651473999,-0.48792821168899536,-4.021636486053467,4.729069709777832,0.05290459841489792,-6.374301433563232,-1.0228619575500488,-0.9339098334312439,4.686799049377441,5.791221618652344,-0.4789488613605499,2.858685255050659,4.826361179351807,-0.00721971457824111,0.8406164050102234,-1.5007872581481934,0.004111912567168474,0.8479376435279846,-1.5507019758224487,0.05541655421257019,0.9052248001098633,-1.5197786092758179,-0.006923824083060026,0.8859511613845825,-1.5341317653656006,-0.024652928113937378,0.7173742055892944,-1.3539025783538818,0.005508236587047577,0.6699816584587097,-1.6119908094406128,0.03265883028507233,0.9966574311256409,-1.364551305770874,-0.015123844146728516,0.9186599850654602,-1.3862022161483765,-0.2792343199253082,-0.43342316150665283,0.8047547340393066,-0.25955918431282043,-0.36259135603904724,-0.5573006272315979,0.3623163104057312,-0.40153956413269043,0.7158276438713074,0.38632699847221375,-0.8027011156082153,0.6120320558547974
0.007276386022567749,-4.900326728820801,4.904149532318115,0.550445556640625,-4.929102420806885,-1.8853338956832886,-1.6424520015716553,3.2727928161621094,4.7298583984375,-0.9639805555343628,1.555091142654419,6.0082597732543945,0.01437203399837017,-4.280060768127441,4.372927665710449,0.46681368350982666,-5.3088459968566895,-0.9930718541145325,-1.34159517288208,4.055595874786377,5.201944351196289,-0.7922270894050598,2.444556713104248,5.078467845916748,-0.015336940065026283,0.8324909210205078,-1.4823797941207886,-0.001379187684506178,0.8302716016769409,-1.566239356994629,0.06131436303257942,0.900044858455658,-1.507140040397644,-0.0005994063685648143,0.8717358708381653,-1.5235822200775146,-0.024830318987369537,0.7018675804138184,-1.340622067451477,0.007599033415317535,0.6794752478599548,-1.6342973709106445,0.025137409567832947,0.9770873785018921,-1.3763535022735596,-0.01941768079996109,0.89642333984375,-1.3629573583602905,-0.4837644398212433,-0.4057585895061493,0.9576996564865112,-0.2391459047794342,-1.3784396648406982,-1.0462332963943481,0.24421729147434235,-0.23886506259441376,0.6270039081573486,0.26406195759773254,-0.7094904780387878,0.520918071269989
0.590336799621582,-5.105741024017334,4.622106552124023,0.5632542967796326,-1.7811493873596191,-1.3575516939163208,-1.8752108812332153,2.5197861194610596,3.4971413612365723,-1.1024560928344727,1.4392139911651611,6.7494683265686035,0.5937560200691223,-4.615527629852295,4.1514692306518555,0.6184172034263611,-2.270759105682373,-0.4654839336872101,-1.6469812393188477,3.384561538696289,4.312244892120361,-0.982512354850769,2.049624443054199,5.707493782043457,-0.026923954486846924,0.824830174446106,-1.463189959526062,-0.0048512620851397514,0.7874409556388855,-1.5923749208450317,0.06444717943668365,0.8962904810905457,-1.495562195777893,0.0029007112607359886,0.8585160970687866,-1.5145405530929565,-0.024915799498558044,0.6896122694015503,-1.328856110572815,0.0062199607491493225,0.6917154788970947,-1.6565990447998047,0.019431665539741516,0.9554679989814758,-1.3967311382293701,-0.02241627126932144,0.8811630606651306,-1.336907982826233,-0.6375132203102112,-0.37871918082237244,0.939059317111969,-0.15050670504570007,-2.5598371028900146,-1.5142666101455688,0.09323794394731522,-0.1908566951751709,0.5701260566711426,0.1122208759188652,-0.6666693091392517,0.44479283690452576
1.0598690509796143,-5.327786445617676,4.45214319229126,0.452983558177948,0.7510769367218018,-1.0087260007858276,-1.904137134552002,1.8857907056808472,2.3025741577148438,-1.1634492874145508,1.7124451398849487,7.220724105834961,1.128067135810852,-4.87937068939209,4.015974044799805,0.6093432307243347,1.0508114099502563,-0.05328790098428726,-1.832813024520874,2.594900608062744,3.149482250213623,-1.0836997032165527,1.8058182001113892,6.623644828796387,-0.040053702890872955,0.8180428147315979,-1.4457558393478394,-0.006945207715034485,0.7269353270530701,-1.6226680278778076,0.06511476635932922,0.8933402895927429,-1.4852882623672485,0.004018927924335003,0.8469278216362,-1.5080119371414185,-0.02662075310945511,0.6784018874168396,-1.3179519176483154,0.0023109689354896545,0.6842221021652222,-1.6804850101470947,0.017648562788963318,0.9377402663230896,-1.4179037809371948,-0.024410009384155273,0.8788287043571472,-1.3219809532165527,-0.6531887054443359,-0.3223131000995636,0.8250173330307007,-0.10342062264680862,-3.074507474899292,-1.6299415826797485,0.006861179601401091,-0.13723960518836975,0.4910062551498413,0.03286461532115936,-0.5455122590065002,0.2756437659263611
1.496699333190918,-5.4159626960754395,4.396747589111328,0.3831509053707123,1.6127787828445435,-0.48929131031036377,-1.7075719833374023,1.4293099641799927,2.2369022369384766,-1.0659101009368896,2.4062392711639404,7.1900458335876465,1.4760053157806396,-5.170044898986816,3.959711790084839,0.5476311445236206,2.108501434326172,0.4097757637500763,-1.7526593208312988,1.830925703048706,1.8595397472381592,-1.1672592163085938,1.8727024793624878,7.333237648010254,-0.05203787609934807,0.8126239776611328,-1.430853009223938,-0.008913906291127205,0.6750516891479492,-1.6557161808013916,0.06384135782718658,0.8922534584999084,-1.4748358726501465,0.004527084529399872,0.8388501405715942,-1.5059047937393188,-0.026103399693965912,0.6722539663314819,-1.3070260286331177,-0.001801036298274994,0.6718290448188782,-1.7029616832733154,0.01877574622631073,0.927699863910675,-1.4084696769714355,-0.02187628298997879,0.8921671509742737,-1.3255606889724731,-0.5741504430770874,-0.24854692816734314,0.6954143643379211,-0.1232951432466507,-2.177105665206909,-1.750661015510559,-0.11881560832262039,-0.014317153953015804,0.5221818685531616,0.012219320051372051,-0.34194865822792053,0.029647687450051308
1.8046436309814453,-5.522756099700928,4.541634559631348,0.4098163843154907,1.4081957340240479,-0.17030298709869385,-1.5319863557815552,1.5303882360458374,3.2384183406829834,-0.8686897158622742,3.1519784927368164,6.493337631225586,1.7571706771850586,-5.27695894241333,3.969971179962158,0.42240965366363525,1.6705313920974731,0.5729798674583435,-1.5846407413482666,1.4244983196258545,1.7270478010177612,-1.1239848136901855,2.4161581993103027,7.4733357429504395,-0.061826191842556,0.808279812335968,-1.41843581199646,-0.01088002696633339,0.6478419303894043,-1.6872670650482178,0.06098196655511856,0.892198920249939,-1.4638489484786987,0.0050369505770504475,0.8343189358711243,-1.5080372095108032,-0.024916574358940125,0.666109025478363,-1.2927345037460327,-0.002115868031978607,0.6652706265449524,-1.721543788909912,0.020092107355594635,0.9303470849990845,-1.3706854581832886,-0.015493907034397125,0.9105626344680786,-1.3500607013702393,-0.4103236794471741,-0.205094113945961,0.6080223917961121,-0.0740625336766243,-0.8888099193572998,-1.5009573698043823,-0.12951000034809113,-0.005576989613473415,0.6101515889167786,0.05931929498910904,-0.12778818607330322,-0.2178463339805603
1.7114684581756592,-5.943341255187988,4.7177734375,0.5183366537094116,1.0050220489501953,-0.39957195520401,-1.572275996208191,1.8582727909088135,4.29754114151001,-0.9283014535903931,3.7121615409851074,5.281164169311523,1.7948698997497559,-5.375201225280762,4.037094593048096,0.37200841307640076,0.968754231929779,0.2802668809890747,-1.5496429204940796,1.6830682754516602,2.2522311210632324,-1.10906982421875,2.8969802856445312,7.0765509605407715,-0.06701686978340149,0.8044288754463196,-1.4064160585403442,-0.011323785409331322,0.6418729424476624,-1.7096421718597412,0.05939926207065582,0.8910680413246155,-1.4478827714920044,0.007838070392608643,0.8349899649620056,-1.5160893201828003,-0.02700161188840866,0.6519055366516113,-1.2757174968719482,0.0015423372387886047,0.6661773324012756,-1.7385398149490356,0.019526280462741852,0.9347271919250488,-1.3195526599884033,-0.010974697768688202,0.930942177772522,-1.3949453830718994,-0.13857269287109375,-0.1969904899597168,0.6377115249633789,-0.004614642355591059,-0.04105811566114426,-0.9454171657562256,-0.028304049745202065,-0.13988351821899414,1.0445791482925415,0.2197384387254715,0.1574087291955948,-0.5442583560943604
1.4512051343917847,-6.7673516273498535,4.709339141845703,0.7412561774253845,0.8580079078674316,-0.7865543365478516,-1.7763831615447998,1.9632741212844849,5.410395622253418,-1.1071267127990723,4.2160725593566895,3.517760753631592,1.5247019529342651,-5.78372049331665,4.0711588859558105,0.5138156414031982,0.5275368690490723,-0.16034968197345734,-1.6486611366271973,2.112311363220215,3.040557622909546,-1.2476781606674194,3.122103452682495,6.217984676361084,-0.0670471042394638,0.8005222678184509,-1.3927077054977417,-0.011336528696119785,0.6458350419998169,-1.7225263118743896,0.059661854058504105,0.887242317199707,-1.4237107038497925,0.013544079847633839,0.842182993888855,-1.5313756465911865,-0.028839029371738434,0.6273147463798523,-1.2597630023956299,0.007228352129459381,0.6744391322135925,-1.754194974899292,0.01633322983980179,0.9310012459754944,-1.260306715965271,-0.0074609145522117615,0.9582914113998413,-1.4624509811401367,0.0963972732424736,-0.20118658244609833,0.7605613470077515,0.0016737590776756406,0.3576946258544922,-0.6002402305603027,0.054047659039497375,-0.2661462128162384,1.4072051048278809,0.3336588144302368,0.5353301167488098,-0.9509676694869995
1.1467716693878174,-7.805629730224609,4.578890800476074,1.0198458433151245,0.8683070540428162,-0.9088305830955505,-2.478405475616455,1.8962552547454834,7.323869705200195,-1.3118400573730469,5.217278480529785,0.6358038187026978,1.0374062061309814,-6.509866237640381,3.868744134902954,0.6212285757064819,0.2473384290933609,-0.2967572510242462,-2.3101725578308105,2.1764698028564453,4.922444820404053,-1.4847787618637085,3.2759599685668945,4.808918476104736,-0.062381863594055176,0.7957888841629028,-1.375675916671753,-0.010487926192581654,0.6558444499969482,-1.73378324508667,0.06517896056175232,0.8820383548736572,-1.4021152257919312,0.02095174789428711,0.8573552370071411,-1.5549858808517456,-0.026104889810085297,0.5949206352233887,-1.2420092821121216,0.017193786799907684,0.6899633407592773,-1.7694967985153198,0.012127406895160675,0.9239959120750427,-1.2002711296081543,-0.003137446939945221,1.0068243741989136,-1.5667788982391357,0.3803839683532715,-0.28637510538101196,0.9597179293632507,0.10927821695804596,0.6205607056617737,-0.6496394276618958,0.44542908668518066,-0.27244114875793457,0.9373674988746643,0.43534034490585327,0.9518589973449707,-1.3844056129455566
0.9872404932975769,-8.937119483947754,4.56340217590332,0.8961218595504761,1.3981828689575195,-0.9127896428108215,-2.9350223541259766,0.8800896406173706,9.216902732849121,-1.4891808032989502,7.210783004760742,-4.203895568847656,0.4387849271297455,-7.375882625579834,3.498548746109009,0.6919640302658081,0.1634601354598999,-0.26378461718559265,-2.9572384357452393,2.2627012729644775,6.406022548675537,-1.5059767961502075,3.1698265075683594,3.000779628753662,-0.05161747336387634,0.7883989810943604,-1.3539496660232544,-0.0068013533018529415,0.669784426689148,-1.7473572492599487,0.07482946664094925,0.8754616975784302,-1.3824478387832642,0.028239471837878227,0.8861274719238281,-1.592137098312378,-0.012393496930599213,0.5558897256851196,-1.2153879404067993,0.022297732532024384,0.7208313941955566,-1.7857218980789185,0.012682817876338959,0.8894306421279907,-1.1299991607666016,-0.002717547118663788,1.1078482866287231,-1.7468957901000977,0.7271481156349182,-0.454063355922699,1.223833680152893,0.33480194211006165,0.8046197295188904,-0.7772453427314758,0.5614453554153442,-0.4016647934913635,1.1013051271438599,0.31362494826316833,2.0725622177124023,-2.483065366744995
0.4295473098754883,-10.226905822753906,6.246119499206543,-1.3537788391113281,3.5861222743988037,-2.3887996673583984,-3.142138957977295,-0.7892197370529175,9.948884963989258,-1.1239879131317139,9.01618766784668,-10.263999938964844,-0.3148723840713501,-8.184765815734863,3.127530336380005,0.14099594950675964,0.41474735736846924,-0.10634587705135345,-3.6796207427978516,1.6876386404037476,7.681765556335449,-0.7576068043708801,2.3671085834503174,0.6087091565132141,-0.03147641196846962,0.7760958075523376,-1.3258018493652344,0.0037518576718866825,0.688083291053772,-1.7636966705322266,0.08775888383388519,0.8634890913963318,-1.3552019596099854,0.02639920450747013,0.9522897601127625,-1.6611778736114502,0.006216995418071747,0.5048362016677856,-1.1374231576919556,-0.01507163792848587,0.8001157641410828,-1.8427832126617432,0.026119858026504517,0.8275091648101807,-1.0733212232589722,-0.011877074837684631,1.2740752696990967,-2.0187134742736816,1.3477362394332886,-0.7793471217155457,1.6112854480743408,0.7510488033294678,1.1189707517623901,-0.9683273434638977,0.8457224369049072,-0.8124716281890869,1.657930612564087,-0.5088290572166443,4.819040775299072,-5.046779155731201
-0.9701905846595764,-13.88181209564209,15.030569076538086,-3.733969211578369,4.298965930938721,-7.213665008544922,-2.2880520820617676,-5.81381368637085,9.145708084106445,1.2813260555267334,8.725973129272461,-11.901987075805664,-1.4824331998825073,-8.937955856323242,4.104255676269531,-1.3914846181869507,1.2750355005264282,-0.1045495793223381,-4.298989772796631,0.6581588387489319,7.548228740692139,1.0863934755325317,0.4565578103065491,-0.2618217170238495,0.002630464732646942,0.7547234892845154,-1.2869712114334106,0.015099551528692245,0.7205138802528381,-1.7930190563201904,0.10841589421033859,0.8397168517112732,-1.3124351501464844,-0.0003713607438839972,1.087881326675415,-1.805709719657898,0.01902306079864502,0.38123977184295654,-0.8642653822898865,-0.07363374531269073,0.8757140040397644,-2.0205111503601074,0.07639329880475998,0.6657098531723022,-1.0333842039108276,-0.007003761827945709,1.4808106422424316,-2.3097176551818848,2.0323679447174072,-1.3219196796417236,2.347080945968628,0.23079636693000793,2.386298656463623,-2.357523202896118,1.2589353322982788,-1.433082938194275,2.520411729812622,-1.9332774877548218,8.738998413085938,-10.322911262512207
-4.606057167053223,-18.063541412353516,33.5,-1.691055417060852,0.23716092109680176,-9.757636070251465,0.780553936958313,-14.178961753845215,16.211132049560547,2.736161708831787,12.008628845214844,-10.509515762329102,-3.970695734024048,-11.294187545776367,10.437146186828613,-1.926567792892456,0.011240643449127674,-0.795358419418335,-4.657247543334961,-3.4271726608276367,5.051039218902588,3.0734338760375977,-1.4989768266677856,1.4588379859924316,0.053560707718133926,0.7158873677253723,-1.219250202178955,0.002251769183203578,0.7878315448760986,-1.8745285272598267,0.14348159730434418,0.799988865852356,-1.2446011304855347,-0.044121842831373215,1.2889330387115479,-2.052769899368286,0.0031390339136123657,0.21200597286224365,-0.27558982372283936,-0.06774593889713287,0.8813620209693909,-2.244568109512329,0.21233832836151123,0.39691513776779175,-0.7543818950653076,-0.015435561537742615,1.8185007572174072,-2.60892653465271,3.23648738861084,-2.6146440505981445,4.702807426452637,-1.38606595993042,4.380072593688965,-6.304934024810791,2.467144012451172,-2.4299843311309814,4.247045993804932,-1.985888123512268,11.467599868774414,-14.670936584472656
-8.869632720947266,-13.035694122314453,33.5,-0.6144952774047852,-5.5537214279174805,-12.618246078491211,1.8745064735412598,-19.22008514404297,33.5,-2.500974178314209,22.17162322998047,-10.466031074523926,-10.608785629272461,-11.92086410522461,22.100229263305664,0.7387018799781799,-3.067686080932617,-0.6195806264877319,-5.0343475341796875,-9.263504981994629,7.007728576660156,2.0092484951019287,-0.2317601591348648,2.9102187156677246,0.14407411217689514,0.6308496594429016,-1.0600467920303345,-0.04335147514939308,0.8754255771636963,-2.0344889163970947,0.22238478064537048,0.7271974682807922,-1.1129746437072754,-0.062451355159282684,1.535462737083435,-2.351447105407715,0.046617865562438965,0.18413519859313965,0.23752176761627197,-0.10157586634159088,0.8192111253738403,-2.544534683227539,0.3850596845149994,0.14800065755844116,0.003443479537963867,-0.12819112837314606,2.3785853385925293,-2.9433326721191406,6.21422815322876,-6.041104793548584,11.597559928894043,-2.1431005001068115,4.131429195404053,-9.729479789733887,5.790611743927002,-4.9347357749938965,9.169975280761719,-0.16077090799808502,14.441600799560547,-16.51173973083496
-2.7671926021575928,14.21295166015625,33.5,-9.949533462524414,-13.999338150024414,-19.733640670776367,-3.2498366832733154,-10.279634475708008,33.5,-3.9442646503448486,33.5,-16.287273406982422,-12.458046913146973,-5.610150337219238,33.5,1.0169587135314941,-3.1510119438171387,-0.42890897393226624,-4.969452857971191,-5.14577579498291,15.79393196105957,2.6282570362091064,3.7829012870788574,3.3239667415618896,0.2649560570716858,0.47971808910369873,-0.8447410464286804,-0.08790570497512817,0.9072990417480469,-2.256660223007202,0.3611586391925812,0.5493487119674683,-0.8122889995574951,-0.09650993347167969,1.8731976747512817,-2.6734185218811035,0.28888922929763794,0.6797127723693848,0.6183760166168213,-0.3757381737232208,0.5480030179023743,-3.0271530151367188,0.42805010080337524,0.01965421438217163,0.692657470703125,-0.2925041615962982,3.125568151473999,-3.4336137771606445,4.655649185180664,-7.766456127166748,4.577200412750244,-1.9547063112258911,-0.4656296670436859,-13.857588768005371,7.406868934631348,-13.63518238067627,21.044206619262695,-4.869380950927734,20.540756225585938,-17.650671005249023
6.052597999572754,23.974863052368164,33.5,6.35273551940918,-10.443120956420898,-4.321126937866211,-22.014699935913086,19.787660598754883,33.5,-4.555634021759033,5.255542755126953,-25.235612869262695,2.436265468597412,15.754441261291504,33.5,-0.03532480075955391,-5.034274578094482,-1.194351315498352,-2.686563491821289,-6.240109443664551,33.5,0.7088615298271179,2.9515011310577393,-24.157194137573242,0.26068490743637085,0.35078203678131104,-0.833358883857727,-0.19402967393398285,0.8212224245071411,-2.586733818054199,0.44351446628570557,0.3628183603286743,-0.7464216947555542,-0.2023800164461136,2.396249294281006,-2.8183631896972656,0.37929752469062805,0.8852233290672302,0.21373999118804932,-0.21603667736053467,0.41278189420700073,-3.1053223609924316,-0.055153317749500275,0.6703484654426575,1.360184907913208,-0.4241165518760681,3.18316912651062,-3.460574150085449,-1.6351159811019897,-3.2465152740478516,-0.5291132926940918,-9.041269302368164,-7.368126392364502,-20.528018951416016,2.5849857330322266,-9.358070373535156,-1.2060376405715942,-5.392283916473389,32.77656173706055,-0.5660309195518494
6.607486724853516,20.18966293334961,0.6080084443092346,9.139301300048828,3.4594688415527344,1.5159718990325928,-29.220918655395508,33.5,33.5,2.6673269271850586,-22.710628509521484,-24.844043731689453,7.945984363555908,13.220258712768555,33.5,10.049832344055176,5.870378494262695,-7.299224376678467,-14.042482376098633,21.266817092895508,33.5,-2.8821232318878174,-19.276578903198242,-28.10749053955078,0.22092735767364502,0.41068050265312195,-0.8482714295387268,-0.3631649613380432,0.5718898773193359,-2.861953020095825,0.4156077802181244,0.20918968319892883,-0.7922574281692505,-0.2769542932510376,3.06416392326355,-2.790764093399048,0.3458350896835327,1.0594584941864014,-0.8474786877632141,-0.23879995942115784,0.35250914096832275,-2.8849425315856934,-0.43461427092552185,1.0817073583602905,1.259965181350708,-0.2853803038597107,3.097317934036255,-3.378988027572632,-2.0139718055725098,7.201817989349365,-0.7203734517097473,-5.20587682723999,-15.29337215423584,-3.044440269470215,-5.984951496124268,-3.5255815982818604,-2.370610237121582,-3.7554590702056885,30.04598617553711,1.643858790397644
5.685220718383789,12.244385719299316,-33.5,-5.432287693023682,9.180405616760254,-6.905363082885742,-13.755255699157715,9.347119331359863,30.338451385498047,8.513761520385742,-14.988883972167969,-16.798818588256836,4.956948280334473,3.123806953430176,2.3188636302948,5.386865139007568,7.754017353057861,-5.066103935241699,-9.755786895751953,21.316234588623047,33.5,3.9522600173950195,-18.698223114013672,-25.4742374420166,0.21349959075450897,0.6628450751304626,-0.870000958442688,-0.38215866684913635,0.333319753408432,-2.820218086242676,0.15949393808841705,0.3149360716342926,-0.828994631767273,-0.3418622612953186,3.4034574031829834,-2.7643795013427734,0.36404189467430115,1.2874729633331299,-1.7660644054412842,-0.5092787742614746,0.3881688416004181,-2.9309239387512207,-0.5346010327339172,0.782479465007782,-0.10059177875518799,-0.17134279012680054,3.190051317214966,-3.162102460861206,0.4205894470214844,15.925910949707031,-1.7724663019180298,0.434353768825531,-8.733052253723145,3.0964114665985107,-17.510677337646484,11.693270683288574,-1.5029224157333374,-2.116227865219116,8.065800666809082,1.1123745441436768
-10.195804595947266,-33.5,-20.993661880493164,-25.785768508911133,8.150104522705078,-30.048080444335938,20.432523727416992,-4.582657814025879,-33.5,13.355188369750977,-10.065252304077148,-2.1400294303894043,1.1077951192855835,-11.84667682647705,-9.685547828674316,-4.550724029541016,4.6249542236328125,-8.163862228393555,8.68736743927002,-8.75149917602539,30.41822624206543,4.207569122314453,-2.6328959465026855,-17.21034049987793,0.26073047518730164,1.0741223096847534,-1.0616298913955688,-0.37077316641807556,0.2728831470012665,-2.7687478065490723,-0.27583256363868713,0.6582444310188293,-0.8479008078575134,-0.3279814124107361,3.364323377609253,-2.7474591732025146,0.08145192265510559,0.5446202754974365,-2.048767328262329,-1.0401549339294434,0.47629761695861816,-3.478029489517212,-0.2409721314907074,0.8867005109786987,-2.1852917671203613,0.05734769254922867,3.004242420196533,-2.7853446006774902,3.780827522277832,25.47587776184082,-23.114791870117188,-1.2368756532669067,-0.016907360404729843,2.096017360687256,-23.797632217407227,17.151124954223633,-0.6573311686515808,2.5724692344665527,-5.422482013702393,0.7807654142379761
-28.609333038330078,-33.5,33.5,-33.5,3.6001288890838623,-33.5,33.5,23.75751304626465,-33.5,4.915153980255127,-33.5,-7.0928544998168945,-10.646492958068848,-33.5,2.373736619949341,-13.366926193237305,2.3363192081451416,-29.708498001098633,29.414306640625,-14.712075233459473,-31.37946319580078,3.0429887771606445,-0.4173741638660431,-2.778770923614502,0.33703863620758057,1.4869096279144287,-1.610524296760559,-0.48486965894699097,0.32946473360061646,-2.7451932430267334,-0.6813321113586426,0.9490190744400024,-1.0034152269363403,-0.20253711938858032,3.2090988159179688,-2.7326889038085938,-0.3676190972328186,-0.6946021914482117,-0.30906713008880615,-1.5480362176895142,0.5078928470611572,-3.901385545730591,0.22374483942985535,1.848440170288086,-4.094756126403809,0.10415182262659073,1.9868273735046387,-2.8931965827941895,0.5287801623344421,12.231863021850586,-24.879322052001953,-11.055606842041016,4.4212446212768555,0.49380823969841003,-14.749884605407715,15.274164199829102,-19.869495391845703,9.19050407409668,-9.72110652923584,0.8406844139099121
12.004005432128906,-33.5,33.5,-11.89906120300293,6.53708553314209,-33.5,33.5,2.5084705352783203,-33.5,-33.5,-15.107980728149414,5.172093391418457,-3.7001593112945557,-33.5,33.5,-5.428046703338623,-0.5864518284797668,-33.5,28.415348052978516,-0.5838481187820435,-33.5,-5.242835998535156,-14.953852653503418,-7.371474742889404,0.12627209722995758,1.3225338459014893,-1.77985417842865,-0.8754527568817139,0.42696529626846313,-2.743417739868164,-0.6854568719863892,1.3405970335006714,-1.8453705310821533,0.020283790305256844,2.881802558898926,-2.7192695140838623,0.024985015392303467,-0.011709809303283691,1.1541798114776611,-1.7098115682601929,0.685981273651123,-3.7569000720977783,1.0789779424667358,1.9257481098175049,-4.698576927185059,-0.7371361255645752,1.9829742908477783,-2.5796074867248535,-20.069360733032227,-22.164623260498047,9.030291557312012,-26.844112396240234,4.779442310333252,-0.06444160640239716,9.940900802612305,26.121967315673828,-56.494361877441406,10.746946334838867,-26.056440353393555,0.5179843306541443
-4.1496100425720215,30.3427791595459,33.5,-33.5,-16.69420051574707,-33.5,33.5,-33.5,-1.1755962371826172,-33.5,33.5,33.5,12.064177513122559,17.241798400878906,33.5,-31.588533401489258,4.17163610458374,-33.5,-4.697319984436035,-14.16438102722168,-32.75815200805664,-33.5,17.688411712646484,1.2786282300949097,-0.16173993051052094,0.5067201852798462,-0.9305216073989868,-0.9528548717498779,0.495281457901001,-2.744164228439331,0.10008307546377182,1.863065481185913,-3.112772226333618,0.18219920992851257,2.203725576400757,-2.685274124145508,-0.3803596496582031,0.31581467390060425,2.387881278991699,-1.8046250343322754,0.16433537006378174,-4.730095386505127,2.579484701156616,0.04470342397689819,-3.909013032913208,-1.4942988157272339,2.5116498470306396,-1.6363836526870728,-5.743973731994629,-47.47374725341797,61.573429107666016,1.6378318071365356,4.320446014404297,-0.059132207185029984,54.81639099121094,20.83960723876953,-38.34254455566406,-0.4556468725204468,-33.148075103759766,3.6850407123565674
-14.81656265258789,33.5,33.5,19.495126724243164,-33.5,-33.5,9.97779655456543,-33.5,33.5,-27.92133331298828,33.5,-33.5,-2.9415175914764404,29.162290573120117,33.5,-33.5,-11.838272094726562,-33.5,33.5,-33.5,-22.110984802246094,-9.40479564666748,30.444812774658203,17.97501564025879,-0.1877121925354004,-0.1074410229921341,-0.34448689222335815,-0.9022945761680603,0.5332594513893127,-2.7448158264160156,1.0682342052459717,1.9660568237304688,-3.302189826965332,-0.3664295971393585,1.8454736471176147,-2.4908499717712402,-0.6772357821464539,1.4707579612731934,2.751903533935547,-0.36893558502197266,-0.6701294779777527,-4.279600143432617,1.8689607381820679,-0.9245907068252563,-1.2797887325286865,-1.957212209701538,3.1957943439483643,-3.03007173538208,-5.955475807189941,-15.290077209472656,-0.29612231254577637,2.299041986465454,-3.648362159729004,0.020638596266508102,27.56407928466797,1.468092679977417,-2.702427625656128,-44.63746643066406,-4.7472076416015625,20.254552841186523
-23.226354598999023,33.5,28.65604019165039,33.5,-24.89410972595215,2.690427303314209,-33.5,-33.5,33.5,-24.856409072875977,28.395915985107422,-33.5,-8.425381660461426,33.5,33.5,4.602625846862793,-18.761804580688477,-33.5,33.5,-33.5,33.5,-27.7518310546875,27.981220245361328,-33.5,-0.35523924231529236,-0.11043059825897217,-0.5251637101173401,-0.7682309150695801,0.2571123242378235,-2.744486093521118,1.0817664861679077,1.988604187965393,-3.362790107727051,-1.0729306936264038,2.0876996517181396,-1.9860774278640747,-1.0472601652145386,2.203416347503662,-0.010068774223327637,0.5568556785583496,-0.8234371542930603,-2.676506757736206,0.026163257658481598,0.13183659315109253,0.7758042812347412,-1.88482666015625,3.2061617374420166,-2.7379448413848877,-5.568100929260254,8.217243194580078,-10.065303802490234,14.211484909057617,-22.909833908081055,0.03593261167407036,-5.228198051452637,0.8268626928329468,-2.5723366737365723,-9.524286270141602,20.42820930480957,14.144722938537598
3.395406484603882,33.5,-33.5,14.185839653015137,4.554050445556641,33.5,-32.992305755615234,-33.5,33.5,-19.04258155822754,-29.69978141784668,-12.287120819091797,-15.955906867980957,33.5,32.37290954589844,30.8701171875,-11.181742668151855,1.7547584772109985,-13.488746643066406,-33.5,33.5,-33.5,-12.196786880493164,-5.313807010650635,-0.47179320454597473,0.22119338810443878,-0.686129629611969,-0.4859411418437958,-0.2441992163658142,-2.7363622188568115,0.8347958326339722,1.9743455648422241,-3.353332281112671,-1.0192809104919434,2.757793426513672,-2.1883811950683594,-0.5634773373603821,2.1116526126861572,-2.1094987392425537,0.1397487223148346,-0.4300423264503479,-1.7161986827850342,-0.46142569184303284,1.0851632356643677,1.5751490592956543,-1.39513099193573,2.7685868740081787,-2.9122776985168457,-8.82846450805664,20.20804786682129,-6.663092613220215,13.552194595336914,-14.984718322753906,0.7993231415748596,-23.570693969726562,-0.06082282215356827,-0.5637057423591614,5.01072359085083,37.664398193359375,-20.83592414855957
33.5,33.5,-33.5,-18.801708221435547,18.661508560180664,33.5,-31.736690521240234,-29.19928741455078,33.5,-22.71059226989746,12.975815773010254,3.786442756652832,16.171707153320312,15.622027397155762,-22.900075912475586,-1.5535157918930054,1.7674787044525146,33.5,12.427647590637207,-33.5,33.5,-21.6944522857666,-7.699219703674316,0.6007204055786133,-0.7284147143363953,0.8699064254760742,-0.9672495722770691,-0.17086674273014069,-0.3822152018547058,-2.6960694789886475,0.09516533464193344,1.9716899394989014,-3.3537039756774902,-0.9297868013381958,2.9217114448547363,-2.539212703704834,-0.11512383073568344,3.7851693630218506,-4.68112325668335,-0.29145610332489014,-0.007691562175750732,-1.0497277975082397,-1.565533995628357,1.2392536401748657,3.2431883811950684,-1.4205344915390015,3.2854628562927246,-2.832634687423706,-11.967763900756836,42.55977249145508,-28.487361907958984,17.472667694091797,-4.600703716278076,3.842536449432373,-43.36410903930664,-0.12270431965589523,0.08980812877416611,3.8508553504943848,1.9678009748458862,-19.404151916503906
33.5,22.879817962646484,-33.5,-33.5,8.396538734436035,33.5,-2.0222244262695312,-21.804548263549805,33.5,-3.193457841873169,-10.752933502197266,-1.9447743892669678,21.203622817993164,11.21387004852295,-33.5,-24.531526565551758,16.209707260131836,25.801586151123047,8.978619575500488,-29.195995330810547,33.5,-23.460922241210938,8.273980140686035,1.6799829006195068,-0.784161388874054,2.0540311336517334,-1.8606541156768799,0.14350391924381256,-0.433627724647522,-2.3251075744628906,-0.7754848003387451,1.9707850217819214,-3.354377269744873,-0.8756465911865234,2.956864356994629,-2.8010964393615723,0.22424358129501343,4.076817989349365,-6.002782344818115,-1.2433255910873413,-0.20302075147628784,-0.6700128316879272,-1.840555191040039,1.4240398406982422,2.4188685417175293,-0.9138479232788086,2.8097901344299316,-2.9232535362243652,6.947349548339844,72.5395736694336,-52.231014251708984,8.916407585144043,1.0346753597259521,31.517004013061523,-50.72573471069336,-0.08157570660114288,0.055107567459344864,2.0817556381225586,6.0874552726745605,-3.676886796951294
-33.5,-33.5,-33.5,-33.5,4.480403900146484,-19.652265548706055,7.589529991149902,27.223037719726562,22.837425231933594,3.581879138946533,-33.5,17.757022857666016,9.651963233947754,-33.5,-33.5,-33.5,10.407876014709473,-17.039199829101562,-28.168651580810547,-21.811983108520508,33.5,-7.78287935256958,-14.628082275390625,-7.244935989379883,-0.4203086197376251,3.809760570526123,-2.9648263454437256,0.11493852734565735,-0.4258629083633423,-1.352824330329895,-1.169506549835205,1.9700757265090942,-3.354527711868286,-0.8166491985321045,3.106435537338257,-2.7808713912963867,-1.0109323263168335,2.30230450630188,-6.653894901275635,-2.1250126361846924,-0.35120755434036255,-0.7353395223617554,-0.9466006755828857,2.6499154567718506,-2.783127784729004,-0.6297289729118347,1.5558090209960938,-2.2982046604156494,20.162654876708984,88.23880767822266,-56.962310791015625,-8.856508255004883,-1.8677374124526978,55.439571380615234,1.6583812236785889,-0.036812324076890945,0.023214876651763916,4.868662357330322,3.452838182449341,1.9370582103729248
-33.5,-33.5,-33.5,-33.5,21.987396240234375,-33.5,32.56663513183594,2.1525394916534424,-33.5,3.9940454959869385,-33.5,17.563457489013672,-33.5,-33.5,-33.5,-33.5,-11.620230674743652,-8.97762393951416,-1.8805217742919922,27.11157989501953,22.895803451538086,8.930838584899902,-33.5,4.624576091766357,-0.06612423807382584,4.507357120513916,-3.197221517562866,-0.2841751277446747,-0.3222894072532654,-0.6963005661964417,-1.0386649370193481,1.9706323146820068,-3.3548905849456787,-0.8239055871963501,2.92158579826355,-2.6635444164276123,-1.4695563316345215,1.990063190460205,-4.837580680847168,-1.9365257024765015,0.48898306488990784,-3.174560785293579,-0.08542176336050034,2.025939464569092,-5.19296407699585,-0.7531487941741943,1.6605229377746582,-1.9747326374053955,5.370971202850342,9.871490478515625,-3.368544816970825,-24.99858856201172,13.079380989074707,9.27008056640625,6.953866004943848,0.07468324154615402,-0.03160841017961502,-1.4547171592712402,-20.67431640625,12.486266136169434
13.76418685913086,-33.5,24.096250534057617,-14.144485473632812,13.781801223754883,-33.5,33.5,-33.5,-33.5,-31.308406829833984,6.773567199707031,16.468355178833008,0.11769313365221024,-33.5,-33.5,-11.305665016174316,-8.272673606872559,-33.5,8.500970840454102,2.11822247505188,-33.5,2.477140426635742,13.9736909866333,-9.752046585083008,-0.5832124352455139,4.5557026863098145,-3.2140915393829346,-0.9348929524421692,0.1083998829126358,-0.8599191904067993,-0.78266841173172,1.9718966484069824,-3.355423927307129,-0.8227230310440063,2.176563024520874,-2.2474446296691895,-1.1283940076828003,2.1024680137634277,-2.6165874004364014,-2.0074961185455322,1.0403449535369873,-4.449841499328613,1.6477303504943848,1.1031242609024048,-6.194108486175537,-1.5977874994277954,1.4805198907852173,-1.3192224502563477,-44.46430969238281,0.6764307022094727,-0.24510525166988373,-35.949554443359375,29.3700008392334,-20.914825439453125,24.23611831665039,0.054364439100027084,-0.06427130848169327,0.38228562474250793,-43.26911544799805,25.825664520263672
-14.351390838623047,-33.5,33.5,2.1185765266418457,-27.4737606048584,-33.5,33.5,-33.5,-33.5,-33.5,33.5,-26.517080307006836,-3.73858904838562,-33.5,23.96026039123535,-33.5,-24.019683837890625,-33.5,1.7772119045257568,-33.5,-33.5,-33.5,18.63075065612793,-4.041575908660889,-0.993094265460968,4.5586771965026855,-3.215280771255493,-1.0277494192123413,0.8412777185440063,-1.5599421262741089,0.2327149659395218,1.9713984727859497,-3.354982614517212,-0.718605101108551,1.5225812196731567,-1.7468892335891724,-1.3937140703201294,1.480818271636963,-0.7623875141143799,-0.917792022228241,0.9539929628372192,-5.958466529846191,3.1228320598602295,-1.2872025966644287,-4.716684341430664,-2.064408302307129,2.4378247261047363,-1.8811100721359253,-2.0917513370513916,0.02668312005698681,-0.0156598761677742,2.84964919090271,39.977962493896484,-43.363014221191406,68.52925109863281,-0.043853819370269775,-0.007024691440165043,-0.016978556290268898,-25.391502380371094,26.4353084564209
-33.5,-33.5,33.5,33.5,0.234832763671875,-33.5,33.5,-33.5,-33.5,6.041303634643555,33.5,-20.667322158813477,-21.032047271728516,-33.5,33.5,-1.8947789669036865,-33.5,-33.5,33.5,-33.5,-33.5,-33.5,33.5,-22.9810791015625,-0.9366021752357483,4.558431148529053,-3.215306282043457,-0.9477880001068115,1.5317678451538086,-2.5784244537353516,1.2279417514801025,1.9019877910614014,-3.356712818145752,-0.9268316626548767,1.2803490161895752,-1.4010635614395142,-1.8104156255722046,2.1952171325683594,2.348149061203003,0.44692936539649963,2.0808444023132324,-6.888889789581299,3.199126720428467,-0.9457015991210938,-4.6827545166015625,-0.9502875804901123,2.1892995834350586,-1.8232661485671997,3.4344630241394043,-0.02533598244190216,0.0028592266608029604,3.8682713508605957,27.16028594970703,-54.34259796142578,12.855195045471191,-6.724586009979248,-0.13674020767211914,-8.724425315856934,-1.6957507133483887,4.724023818969727
-2.4768123626708984,-33.5,33.5,33.5,33.5,-33.5,33.5,-33.5,-33.5,-3.168276309967041,23.242422103881836,-1.0934667587280273,-33.5,-33.5,33.5,19.729890823364258,13.268400192260742,-33.5,33.5,-33.5,-33.5,-3.0543339252471924,8.49636459350586,9.551533699035645,-0.882951021194458,4.557819366455078,-3.2152552604675293,-0.6494243144989014,1.704667091369629,-3.1325979232788086,1.1380890607833862,1.7507567405700684,-3.3565709590911865,-0.9226166605949402,1.557392954826355,-1.6811158657073975,-0.9029222726821899,2.014127492904663,4.098948955535889,1.454981803894043,2.6037018299102783,-5.686551094055176,2.9957263469696045,-0.5801517963409424,-4.277542591094971,-0.953136146068573,2.557950973510742,-2.0893912315368652,2.0974526405334473,-0.02965816669166088,0.002095392206683755,30.155319213867188,2.2233636379241943,-7.68015193939209,-7.7860260009765625,-7.403640270233154,-0.10713686794042587,2.43437123298645,20.974872589111328,-19.046934127807617
10.892651557922363,-33.5,33.5,0.13982009887695312,33.5,-33.5,33.5,-33.5,-4.350555896759033,-7.29250955581665,6.347707748413086,0.7962436676025391,-3.511096715927124,-33.5,33.5,-10.982867240905762,33.5,-33.5,33.5,-33.5,-33.5,-4.959537506103516,-3.3406853675842285,4.475311279296875,-0.8500799536705017,4.557411193847656,-3.21523380279541,0.40961143374443054,1.7157139778137207,-3.1705167293548584,1.0025038719177246,1.6734822988510132,-3.3543477058410645,-0.8730345964431763,2.0682077407836914,-1.9605411291122437,-0.5428285598754883,3.4981815814971924,4.1172871589660645,1.733048915863037,2.6238203048706055,-4.410279273986816,2.5440163612365723,-0.4494597911834717,-3.4637980461120605,-1.0114604234695435,2.8001608848571777,-2.181367874145508,1.7467559576034546,-0.01840578019618988,0.0010510022984817624,65.99710083007812,0.15808911621570587,-0.5411092042922974,-5.748592853546143,-1.4357829093933105,-0.0343223474919796,2.194345712661743,28.663022994995117,-12.036642074584961
5.5055131912231445,-33.5,33.5,-13.02421760559082,-24.453256607055664,0.7739896774291992,10.387133598327637,-33.5,9.922759056091309,7.637155532836914,-33.5,12.307857513427734,7.09755277633667,-33.5,33.5,12.9985933303833,33.5,-33.5,33.5,-33.5,-4.43927526473999,-7.692102909088135,-12.38469123840332,-1.5794070959091187,-0.8024763464927673,4.557132720947266,-3.2152302265167236,1.2473706007003784,1.7165082693099976,-3.1732046604156494,0.9183651804924011,1.6654751300811768,-3.354534864425659,-0.8423548340797424,2.61277437210083,-2.0819602012634277,-0.5826295614242554,1.9747486114501953,2.8512215614318848,1.082478642463684,1.105412483215332,-3.154639959335327,1.1108958721160889,-0.4072411060333252,-3.1047472953796387,-0.6282289624214172,2.1186575889587402,-1.834186315536499,4.110446929931641,-0.01184490229934454,-0.00022739343694411218,8.035674095153809,0.011779826134443283,-0.03925204277038574,-3.3573827743530273,-0.1965566724538803,0.08592966198921204,1.1598490476608276,24.850183486938477,-2.996126890182495
-33.5,-33.5,33.5,-31.3779354095459,-29.170297622680664,21.790464401245117,-21.464399337768555,-33.5,18.90146827697754,33.5,-33.5,33.5,-4.784504413604736,-33.5,33.5,5.375539779663086,-24.44584083557129,0.7575499415397644,11.206201553344727,-33.5,9.97531509399414,2.2769365310668945,-32.31193161010742,-1.2160762548446655,-0.6410713195800781,4.556985855102539,-3.2152531147003174,1.1218210458755493,1.716559648513794,-3.1734459400177,0.8707858920097351,1.6637279987335205,-3.354602813720703,-0.7907885909080505,2.880638837814331,-2.011594533920288,-1.336385726928711,1.6198835372924805,0.7910623550415039,0.16364184021949768,0.9873011112213135,-2.628817081451416,0.2941308319568634,-0.17995429039001465,-2.8815934658050537,0.1962161660194397,1.0151642560958862,-0.9372735023498535,8.902718544006348,-0.003837871365249157,-0.0018634074367582798,-8.686545372009277,-5.473074270412326e-05,-0.006638325285166502,-2.0022521018981934,-0.08428621292114258,0.023631954565644264,5.281809329986572,2.29085636138916,10.390511512756348
31.85297393798828,-33.5,33.5,-10.497406005859375,-30.069849014282227,4.200223445892334,-18.933975219726562,-33.5,33.5,20.169321060180664,-6.035713195800781,2.6670055389404297,-13.88158893585205,-33.5,33.5,-3.150739908218384,-29.170175552368164,21.79212760925293,-1.8860121965408325,-33.5,18.90949821472168,12.602616310119629,-33.5,-1.3106647729873657,-0.6706536412239075,4.556926250457764,-3.2152955532073975,0.8105310201644897,1.7165544033050537,-3.173536777496338,0.7119705677032471,1.6623188257217407,-3.3544938564300537,-0.5401792526245117,2.546597957611084,-1.5802112817764282,-0.1930217146873474,1.4409676790237427,0.7269735336303711,-0.0200248584151268,0.9648092985153198,-3.0686147212982178,-0.1320682168006897,-0.15913879871368408,-1.3521161079406738,0.38538381457328796,1.8141732215881348,-0.8378317952156067,-15.934618949890137,-0.0025770901702344418,-0.00234211515635252,-28.40603256225586,5.485106521518901e-05,-0.004176365677267313,-18.534469604492188,-0.06985461711883545,0.008151865564286709,21.066499710083008,-29.076595306396484,33.78521728515625
33.5,-33.5,33.5,16.4006404876709,-24.04851722717285,33.5,12.124191284179688,-33.5,33.5,-33.5,33.5,-10.39529800415039,31.77535629272461,-33.5,33.5,20.806507110595703,-30.06427574157715,4.198315143585205,9.453241348266602,-33.5,33.5,-25.428390502929688,21.095260620117188,-23.40753746032715,-0.9947262406349182,4.556728839874268,-3.215303659439087,0.10749875009059906,1.7165319919586182,-3.1735687255859375,0.189599871635437,1.6609662771224976,-3.354339361190796,0.18249158561229706,1.8504328727722168,-0.8392083644866943,0.4337679147720337,2.361237049102783,-2.250509262084961,-0.1301714926958084,1.1152032613754272,-1.2884303331375122,-0.06529446691274643,-0.3350856304168701,-0.8709239363670349,-0.0009529814124107361,2.279280662536621,-0.5125257968902588,0.36603108048439026,-0.020280037075281143,0.00292388373054564,-32.38431167602539,-0.005790547002106905,-0.00019774491374846548,-27.89995574951172,-0.07436417043209076,0.015069222077727318,41.93009948730469,-28.182056427001953,29.328250885009766
-33.5,-33.5,33.5,13.17446517944336,33.19895553588867,33.5,1.018723487854004,-33.5,33.5,-12.140109062194824,-24.73220443725586,33.011451721191406,-3.5527007579803467,-33.5,33.5,10.456952095031738,-24.03960418701172,33.5,10.502657890319824,-33.5,33.5,-32.87601089477539,23.095849990844727,11.869186401367188,-0.40198859572410583,4.55625057220459,-3.215202808380127,-0.22915737330913544,1.7163515090942383,-3.1735680103302,-0.16135744750499725,1.6595922708511353,-3.3544371128082275,0.651519238948822,1.6747804880142212,-0.7669302821159363,-0.5713495016098022,2.425692558288574,-2.32185697555542,-0.06223367527127266,2.5461671352386475,-0.7522740364074707,-0.3023928105831146,0.5803743600845337,-1.7897123098373413,0.5174446105957031,1.0835793018341064,0.01603078842163086,46.228702545166016,-0.023334654048085213,0.004948701709508896,-8.121895790100098,-0.007909569889307022,-0.00041102629620581865,-8.325172424316406,-0.07231875509023666,0.005199694540351629,8.471405029296875,1.3551950454711914,-2.1162590980529785
-33.5,-33.5,25.194477081298828,-5.0904974937438965,33.5,33.5,-6.393085479736328,-33.5,33.5,15.368342399597168,-22.624725341796875,31.611440658569336,-33.5,-33.5,33.5,2.972633123397827,33.191158294677734,33.5,-2.3861441612243652,-33.5,33.5,13.006094932556152,-26.390464782714844,33.5,0.4137519598007202,4.5559401512146,-3.2151710987091064,-0.2217130959033966,1.7163124084472656,-3.1735668182373047,-0.19122803211212158,1.658322811126709,-3.3544085025787354,0.439007043838501,1.7781909704208374,-0.8160561919212341,-0.6942445039749146,1.9945921897888184,-2.5853562355041504,-0.26381194591522217,2.895399808883667,-0.1400454044342041,-0.4025663435459137,0.6128562092781067,-0.6999046802520752,0.5765007734298706,1.1777228116989136,-0.06181836128234863,25.23409080505371,-0.003967690281569958,-0.002354218391701579,4.258179187774658,0.003787784371525049,0.0010016919113695621,-2.575558662414551,-0.05618876591324806,0.0011223508045077324,-12.33574104309082,-1.7425017356872559,-1.802408218383789
-22.023883819580078,-33.5,33.5,-2.4987881183624268,21.993263244628906,33.5,19.879703521728516,-29.984222412109375,33.5,-10.759971618652344,4.760862827301025,-0.47780394554138184,-23.953874588012695,-33.5,25.19236946105957,-5.634603977203369,33.5,33.5,3.207336187362671,-33.5,33.5,10.454643249511719,-8.909035682678223,31.878067016601562,0.3326752185821533,4.55582332611084,-3.215209722518921,-0.1376834660768509,1.7163865566253662,-3.1735503673553467,-0.3134661912918091,1.65718674659729,-3.354407548904419,0.36456942558288574,1.5461552143096924,-0.8393463492393494,-0.6459947228431702,2.1803174018859863,-0.7735729813575745,-0.1854165494441986,2.2661681175231934,-1.0834150314331055,0.014242865145206451,0.9061960577964783,-0.4078948497772217,0.04613538831472397,1.51947021484375,-0.8707151412963867,-21.403640747070312,-0.0214958805590868,0.002212378429248929,0.73683100938797,-0.002500217640772462,-0.0008833075989969075,-8.464177131652832,-0.06925489753484726,0.0025197763461619616,-2.4717371463775635,-7.285328388214111,-0.9711846709251404
-3.3552494049072266,-33.5,33.5,-20.024805068969727,6.725198745727539,33.5,33.5,-31.598684310913086,33.5,-28.741968154907227,7.338923454284668,-0.3926011323928833,22.495454788208008,-33.5,33.5,-10.113324165344238,21.995792388916016,33.5,15.591991424560547,-29.951526641845703,33.5,5.400134086608887,-6.379575729370117,0.6483342051506042,-0.43641772866249084,4.555365085601807,-3.2151541709899902,-0.10314833372831345,1.7163221836090088,-3.173570394515991,-0.4129093885421753,1.6559972763061523,-3.3545026779174805,0.1968325972557068,1.5799716711044312,-0.8602117896080017,-1.292262315750122,1.9758427143096924,0.9926466941833496,-0.4332035779953003,1.8844032287597656,-2.260725975036621,1.0257904529571533,0.8650171756744385,-2.2278079986572266,-0.8074172139167786,1.8624327182769775,-0.8967385292053223,-38.598167419433594,-0.020430682227015495,0.002203050535172224,8.528244018554688,-0.0024463918525725603,-0.0006840789574198425,1.8676234483718872,-0.0506499782204628,-0.002185672987252474,-14.285027503967285,4.949398040771484,-1.3355854749679565
-15.757512092590332,-33.5,33.5,33.5,-3.8644802570343018,33.5,33.5,-33.5,33.5,-7.829751968383789,33.5,-8.956268310546875,-7.847642421722412,-33.5,33.5,-10.631074905395508,6.725436210632324,33.5,20.24760627746582,-31.564258575439453,33.5,-1.0748566389083862,-0.8298885822296143,1.3956668376922607,-0.8726608157157898,4.555023193359375,-3.215128183364868,-0.1026463508605957,1.7162965536117554,-3.1735763549804688,-0.08529934287071228,1.6550670862197876,-3.35447096824646,-0.20164835453033447,1.7173761129379272,-0.8910510540008545,-1.490009069442749,1.8302505016326904,1.0154924392700195,0.7041416168212891,1.6196553707122803,-1.9314907789230347,1.701306700706482,-0.6218230724334717,-1.5741231441497803,-0.9762895703315735,2.835562229156494,-1.1555368900299072,-11.17052173614502,-0.016765516251325607,0.0012362293200567365,-3.2390174865722656,-0.0014589105267077684,-0.00022126662952359766,30.24498176574707,-0.04717506840825081,-0.0028771760407835245,-28.94487190246582,8.290191650390625,-2.028956890106201
-23.71754264831543,-33.5,33.5,0.7382841110229492,13.31784439086914,33.5,-33.5,-33.5,33.5,27.60588836669922,-32.874412536621094,33.5,-25.035701751708984,-33.5,33.5,13.471565246582031,-3.858200788497925,33.5,-21.970378875732422,-33.5,33.5,16.992984771728516,17.84235954284668,5.507002353668213,-0.8910394906997681,4.554643630981445,-3.2150914669036865,-0.01019522175192833,1.7162388563156128,-3.1735763549804688,0.967853844165802,1.6540390253067017,-3.3544654846191406,-0.832958996295929,1.972281813621521,-1.01887047290802,-1.4570550918579102,3.195213556289673,-0.0646284818649292,0.38580960035324097,2.0490565299987793,1.2025253772735596,0.5739457011222839,-0.1093595027923584,-1.3520041704177856,-0.710966944694519,1.5676429271697998,-0.15269732475280762,1.3461463451385498,-0.02495250478386879,0.003558842232450843,18.87738609313965,-0.006421541329473257,5.72472890780773e-05,64.13561248779297,-0.05532199516892433,0.0011748671531677246,-28.407756805419922,20.86107063293457,-13.717071533203125
7.745057106018066,-33.5,18.655399322509766,-33.5,-13.091206550598145,33.5,-32.585548400878906,-33.5,33.5,-6.737670421600342,-12.95091438293457,-33.5,-24.902070999145508,-33.5,33.5,-17.83253288269043,13.31166934967041,33.5,-11.356597900390625,-33.5,33.5,4.6236162185668945,-33.5,25.178401947021484,-0.8612598180770874,4.554360866546631,-3.2150800228118896,0.469660222530365,1.7162164449691772,-3.1735963821411133,1.0980204343795776,1.6525866985321045,-3.3544180393218994,-0.9033951163291931,2.318775177001953,-1.0853354930877686,-0.6408768892288208,2.648752212524414,-2.748732089996338,-0.22646594047546387,1.3889846801757812,3.3986873626708984,0.043221987783908844,0.21718013286590576,-1.4121233224868774,-0.9949991106987,2.100600242614746,-2.0260748863220215,1.3378249406814575,-0.004257031716406345,-0.0018523710314184427,18.098134994506836,0.0024197387974709272,-0.002513892948627472,-12.007991790771484,-0.06856805086135864,-0.01498944777995348,3.841888189315796,5.279896259307861,15.158905982971191
32.54447937011719,-33.5,-31.396289825439453,8.1726655960083,-4.600096702575684,33.5,9.965437889099121,-33.5,33.5,-13.446789741516113,33.5,-33.5,3.5989136695861816,-33.5,18.65456199645996,-14.958040237426758,-13.090476989746094,33.5,-4.582468509674072,-33.5,33.5,-6.301020622253418,-5.844387054443359,-33.5,-0.8153498768806458,4.554207801818848,-3.2151007652282715,0.4601591229438782,1.7162433862686157,-3.173619270324707,0.7188202738761902,1.6510330438613892,-3.3543829917907715,-0.8657243251800537,2.24515700340271,-0.6233851909637451,0.08276215195655823,3.063279390335083,-4.000003337860107,0.35180169343948364,1.6012442111968994,1.310640573501587,0.4069196283817291,0.38894736766815186,-0.5340168476104736,-1.1736433506011963,3.1183836460113525,-2.6915106773376465,4.2250075340271,-0.012663711793720722,0.0002334154851268977,-15.633703231811523,0.00016217038501054049,0.0009528041700832546,-28.051828384399414,-0.0662066861987114,-0.007547298446297646,1.4125357866287231,0.07764066010713577,5.537564754486084
2.891134262084961,-33.5,-8.48598575592041,33.5,14.215333938598633,33.5,-5.179001808166504,-1.212831735610962,33.5,2.637537956237793,-16.043109893798828,-33.5,3.597142219543457,-33.5,-31.398683547973633,23.62698745727539,-4.596626281738281,33.5,21.702909469604492,-33.5,33.5,-15.258356094360352,9.821099281311035,-29.467470169067383,-0.5412406325340271,4.553873538970947,-3.2150769233703613,0.012770161963999271,1.7162163257598877,-3.173591375350952,0.17236895859241486,1.6498405933380127,-3.35444974899292,-0.8355875611305237,2.462122917175293,-1.1005252599716187,0.06511195003986359,2.776559352874756,-3.4271860122680664,0.6451277136802673,2.0715432167053223,1.0746104717254639,-0.26512816548347473,1.618349552154541,-0.5926051735877991,-0.7262459993362427,2.471778392791748,-2.8804197311401367,26.703710556030273,-0.020230965688824654,0.0020282084587961435,-12.582157135009766,-0.0028230035677552223,0.0013902973150834441,-15.401103973388672,-0.058512404561042786,0.00027232590946368873,2.1701555252075195,20.53666114807129,-42.71493148803711
-28.182647705078125,-33.5,3.4211456775665283,-24.922637939453125,21.49506378173828,33.5,-28.603496551513672,9.680171966552734,33.5,15.244569778442383,-33.5,32.593196868896484,-20.608203887939453,-33.5,-8.484103202819824,1.470757246017456,14.210186004638672,33.5,-11.123619079589844,-1.2178726196289062,33.5,-0.7210833430290222,-28.81458282470703,19.63719367980957,0.08178838342428207,4.55359411239624,-3.215066432952881,0.2061307728290558,1.716219186782837,-3.1735754013061523,0.13722537457942963,1.6490558385849,-3.3545308113098145,-0.7880794405937195,2.914945602416992,-2.2477121353149414,-0.12424912303686142,2.4823238849639893,-3.1295547485351562,-0.014707140624523163,2.2536652088165283,1.5196335315704346,-0.7021251320838928,1.8908007144927979,-1.3983796834945679,-0.32710468769073486,1.5749614238739014,-2.5565195083618164,24.926433563232422,-0.00849787425249815,-0.0008479108801111579,20.111400604248047,0.0034708562307059765,0.0005105219897814095,-6.21315336227417,-0.012970929965376854,-0.007700818125158548,3.993025064468384,13.859865188598633,-56.18186569213867
-21.918508529663086,-33.5,31.956762313842773,-21.344778060913086,24.24828338623047,33.5,33.5,-13.065007209777832,33.5,4.9224853515625,-3.217580795288086,-2.3902535438537598,-7.991048812866211,-33.5,3.4210143089294434,-20.05588722229004,21.4913330078125,33.5,8.411591529846191,9.649399757385254,33.5,13.50870418548584,-25.991350173950195,18.628984451293945,0.19499658048152924,4.553360939025879,-3.2150754928588867,0.48634594678878784,1.7162996530532837,-3.173609972000122,-0.2875630259513855,1.6491504907608032,-3.3545753955841064,-0.7375391721725464,2.7141189575195312,-2.8461053371429443,-0.4724356234073639,1.9253575801849365,-2.416161060333252,-0.04692942276597023,2.3225889205932617,0.5424492359161377,0.38711056113243103,1.3229405879974365,-2.3468503952026367,-0.5417601466178894,2.14430570602417,-3.082000494003296,-5.973474025726318,-0.013550891540944576,-0.00023026672715786844,0.017204711213707924,0.004109520465135574,-0.0032791122794151306,-31.24259376525879,0.02076394110918045,-0.00683215819299221,3.6358442306518555,-24.468687057495117,-8.806941032409668
-2.0741405487060547,-33.5,33.5,-0.45881175994873047,-8.322710037231445,33.5,33.5,-33.5,-8.186586380004883,-22.704444885253906,22.46421241760254,-14.666741371154785,3.076735258102417,-33.5,31.955015182495117,6.320823669433594,24.252031326293945,33.5,33.5,-13.045083045959473,33.5,-9.022619247436523,28.400720596313477,-14.940340042114258,-0.1242838054895401,4.553078651428223,-3.2150731086730957,0.1746893674135208,1.716340184211731,-3.173647880554199,-0.7497895956039429,1.6493483781814575,-3.354497194290161,-0.5379378795623779,2.023055076599121,-2.7739174365997314,-0.6012074947357178,1.3889044523239136,-0.6921635270118713,-0.21642029285430908,1.5082204341888428,-1.5493711233139038,1.0961451530456543,0.7229939699172974,-3.5590178966522217,-0.8838057518005371,1.9958930015563965,-3.075160503387451,-21.253509521484375,-0.020171741023659706,0.0018313243053853512,-18.98196792602539,-0.002600092673674226,-0.00025200474192388356,-9.469355583190918,-0.014036505483090878,0.007197578437626362,11.08716106414795,-29.438369750976562,3.271272897720337
0.826573371887207,-33.5,33.5,32.203643798828125,2.814068078994751,33.5,33.5,-33.5,32.854427337646484,-6.566494464874268,28.46062469482422,26.55143928527832,8.91935920715332,-33.5,33.5,5.177278518676758,-8.313898086547852,33.5,32.62233352661133,-33.5,-8.136927604675293,-9.887890815734863,10.896405220031738,-14.034692764282227,-0.5012887120246887,4.552532196044922,-3.214998245239258,-0.1096530333161354,1.7162048816680908,-3.173654794692993,-0.39992958307266235,1.6488128900527954,-3.354975700378418,-0.49420249462127686,1.7893097400665283,-2.7428574562072754,-0.8035271167755127,1.8521153926849365,0.6306705474853516,0.45923879742622375,1.7864196300506592,-2.247647762298584,1.3789142370224,0.22387367486953735,-2.534234046936035,-0.8007708191871643,2.4349985122680664,-2.060507297515869,-16.145137786865234,-0.027042219415307045,0.003731575096026063,-11.809961318969727,-0.00684767309576273,-0.0005215796991251409,34.02581787109375,-0.043935298919677734,-0.03094976767897606,-7.120298385620117,-3.29134202003479,0.9282087683677673
-16.53182029724121,-33.5,33.5,24.7475643157959,-7.187889099121094,33.5,-33.5,-33.5,33.5,7.691314697265625,-12.467687606811523,33.5,-4.356517791748047,-33.5,33.5,19.079730987548828,2.8156118392944336,33.5,-25.872995376586914,-33.5,32.777408599853516,5.178621292114258,6.874904155731201,11.558432579040527,-0.6458803415298462,4.552046775817871,-3.2149412631988525,-0.15724286437034607,1.7161072492599487,-3.1736814975738525,0.7487375140190125,1.6473129987716675,-3.354287624359131,-0.7373802065849304,1.9411052465438843,-2.6288931369781494,-1.1079096794128418,3.0451905727386475,-0.6106296181678772,0.6009346842765808,1.536332130432129,0.08524703979492188,0.3655330240726471,0.0022943615913391113,-2.2863380908966064,-0.7379534840583801,1.9514336585998535,-1.3193689584732056,-2.436691999435425,-0.02399621717631817,0.002526947297155857,6.974420070648193,-0.0038945369888097048,-0.0023884817492216825,63.85007858276367,-0.07007993757724762,0.030913962051272392,-9.642807006835938,16.101030349731445,13.971248626708984
27.380693435668945,-33.5,17.881423950195312,-26.883445739746094,-25.214954376220703,33.5,-32.30131149291992,-33.5,33.5,-6.485978126525879,18.972780227661133,-33.5,0.49728623032569885,-33.5,33.5,-1.8470197916030884,-7.196983337402344,33.5,-30.544546127319336,-33.5,33.5,4.945479393005371,-14.185579299926758,0.2275536060333252,-0.8152176141738892,4.551795482635498,-3.2149453163146973,0.20222313702106476,1.7161368131637573,-3.1737160682678223,1.1948662996292114,1.645970344543457,-3.3543410301208496,-0.8247236013412476,2.2198894023895264,-2.0919089317321777,-0.4358244836330414,3.458627700805664,-2.7679615020751953,-0.024975962936878204,1.0858827829360962,2.5361948013305664,0.3216138780117035,-0.18305933475494385,-1.2222236394882202,-1.0237399339675903,2.780392646789551,-2.2021849155426025,-15.256210327148438,-0.0025728961918503046,-0.0025897794403135777,22.244352340698242,0.005992311984300613,-0.0018209589179605246,-3.2859790325164795,-0.07436700165271759,-0.002155618043616414,-1.843343734741211,4.309186935424805,38.342552185058594
9.562298774719238,-23.92647361755371,-28.162189483642578,-30.156604766845703,-33.5,33.5,-26.001296997070312,-33.5,33.5,-8.189258575439453,-4.49519157409668,-33.5,5.647154808044434,-33.5,17.878747940063477,-24.574176788330078,-25.211002349853516,33.5,-20.245805740356445,-33.5,33.5,-8.219428062438965,22.22849464416504,-33.5,-0.790568470954895,4.551629543304443,-3.2149641513824463,0.520121157169342,1.716187834739685,-3.173710346221924,0.9922760128974915,1.6447068452835083,-3.354435682296753,-0.8231638669967651,2.166137456893921,-1.4375842809677124,-0.3379458487033844,3.9530961513519287,-3.918984889984131,-0.16453665494918823,0.7625377774238586,3.5013675689697266,0.1777265965938568,0.5307988524436951,-1.527226209640503,-1.0229856967926025,2.112300395965576,-2.6815929412841797,10.67825698852539,-0.01857811212539673,0.0016995294718071818,3.4628663063049316,-0.0014977037208154798,0.002659871242940426,-8.225851058959961,-0.05767396092414856,0.005389323458075523,0.24548162519931793,2.927136182785034,16.39908790588379
4.001095771789551,-33.5,-7.481942653656006,33.5,-12.614409446716309,33.5,-11.551107406616211,6.558687210083008,33.5,1.1703640222549438,-18.3228759765625,-33.5,-6.258401393890381,-23.919139862060547,-28.161922454833984,7.06577205657959,-33.5,33.5,-6.931255340576172,-33.5,33.5,-8.379684448242188,-20.6543025970459,-19.89771270751953,-0.48283010721206665,4.5512871742248535,-3.214935302734375,0.17799581587314606,1.7161595821380615,-3.1736562252044678,0.7257516980171204,1.6436128616333008,-3.3544070720672607,-0.8182282447814941,2.405054807662964,-1.6748069524765015,-0.08145841211080551,2.1547789573669434,-3.4019854068756104,0.734715461730957,1.4008080959320068,1.2867271900177002,0.062230318784713745,1.8064457178115845,-1.4742968082427979,-0.7842344641685486,2.170586109161377,-3.2107367515563965,15.067214012145996,-0.01062232255935669,-7.692947110626847e-05,-25.958837509155273,0.0004379377933219075,0.0018409143667668104,-18.737184524536133,-0.0567159578204155,0.00022494237055070698,0.23673400282859802,11.180161476135254,-25.4671573638916
-0.9373884201049805,-33.5,-10.544243812561035,26.519062042236328,6.932945728302002,33.5,-8.08308219909668,1.4433093070983887,33.5,6.895968437194824,-14.539275169372559,24.68570327758789,-4.16941499710083,-33.5,-7.480013847351074,33.5,-12.61845588684082,33.5,10.158102035522461,6.538214206695557,33.5,-2.449258804321289,-9.766761779785156,6.214822769165039,-0.2396365851163864,4.551156044006348,-3.2149579524993896,-0.1624082773923874,1.7162071466445923,-3.173628568649292,0.25684016942977905,1.6429692506790161,-3.3546109199523926,-0.7899855971336365,2.4651153087615967,-2.4566378593444824,-0.0006577447056770325,2.582693338394165,-3.478591203689575,0.45276376605033875,1.8895931243896484,1.943230152130127,-0.3937992751598358,1.6790730953216553,-1.1299834251403809,-0.5506037473678589,2.0512733459472656,-2.748964786529541,13.12067699432373,-0.005848780740052462,-0.0013581214006990194,-2.3902275562286377,0.003116504056379199,0.0013395034475252032,-22.428119659423828,0.0010556491324678063,-0.014677372761070728,3.3491313457489014,-2.5180039405822754,-45.47347640991211
-10.961278915405273,-33.5,-22.374635696411133,-33.5,0.6549364328384399,33.5,17.908222198486328,-19.80767822265625,33.5,-1.5180425643920898,2.0588502883911133,11.294904708862305,-7.356843948364258,-33.5,-10.5422945022583,-11.821155548095703,6.92545747756958,33.5,2.9704787731170654,1.435644507408142,33.5,-2.539393424987793,7.169873237609863,15.053380966186523,-0.004018514882773161,4.551011085510254,-3.2149927616119385,0.2393978089094162,1.7163162231445312,-3.173651933670044,-0.08443383872509003,1.6430609226226807,-3.354495048522949,-0.6663098931312561,2.2161240577697754,-3.0121066570281982,-0.09076859802007675,3.176321029663086,-3.774399757385254,-0.45637238025665283,1.7328300476074219,2.7132787704467773,-0.02035566419363022,1.147990107536316,-1.8479938507080078,-0.5250699520111084,1.9234976768493652,-2.8429267406463623,9.364093780517578,-0.00842037983238697,-0.002055382588878274,25.44474220275879,0.007020705379545689,-0.003369478043168783,-19.18136978149414,0.006055848672986031,-0.0009375585941597819,8.959549903869629,-17.20488166809082,-5.659634590148926
-4.977499485015869,-33.5,-14.290997505187988,-26.342514038085938,-22.726491928100586,33.5,15.723730087280273,-11.55422592163086,33.5,-2.1701810359954834,-12.580142974853516,-8.456027030944824,-4.323398590087891,-33.5,-22.377696990966797,-33.5,0.6618549227714539,33.5,19.99500846862793,-19.775711059570312,33.5,-1.4503331184387207,-7.39063024520874,8.173384666442871,0.0516197644174099,4.550656318664551,-3.214975595474243,0.4800253212451935,1.7163033485412598,-3.1736745834350586,-0.3947785198688507,1.6428821086883545,-3.354478359222412,-0.5469474792480469,2.1319761276245117,-3.0395915508270264,-0.10712113231420517,3.110577344894409,-3.572232246398926,-0.2176685929298401,1.1481213569641113,2.6059646606445312,-0.12713763117790222,1.353527307510376,-1.7974026203155518,-0.543066143989563,1.793759822845459,-3.258661985397339,-1.715169906616211,-0.016925478354096413,0.0009141740156337619,-1.9565531015396118,-0.0009841487044468522,-0.00033582543255761266,-6.272618770599365,-0.024957550689578056,0.0074488818645477295,2.9067931175231934,-1.1856364011764526,-0.38348743319511414
6.0283589363098145,-33.5,-6.848328590393066,33.5,-33.5,33.5,-16.22708511352539,-0.9919182062149048,33.5,-3.5863592624664307,-15.613784790039062,-11.175042152404785,4.703110694885254,-33.5,-14.291094779968262,12.294024467468262,-22.726516723632812,33.5,-3.110539197921753,-11.540279388427734,33.5,-0.5048101544380188,-13.230881690979004,-8.66775894165039,-0.07987033575773239,4.550354957580566,-3.214963912963867,0.035127490758895874,1.716293215751648,-3.173675537109375,-0.2588619589805603,1.642438530921936,-3.354501962661743,-0.5309846997261047,2.1261720657348633,-3.0414512157440186,-0.07398992031812668,3.0750415325164795,-3.3861629962921143,0.5621662735939026,0.6424444317817688,2.109830617904663,-0.4550512731075287,1.6172363758087158,-1.349791407585144,-0.6201048493385315,1.734187126159668,-3.3213441371917725,-7.241427898406982,-0.014430467039346695,0.00045656345901079476,-28.007333755493164,-0.0004475345485843718,2.054022297670599e-05,10.474390029907227,-0.020209992304444313,0.001737292855978012,0.026941727846860886,-0.08201610296964645,-0.025843007490038872
3.2368826866149902,-33.5,-15.518793106079102,17.317089080810547,-33.5,33.5,-11.98618221282959,3.4251046180725098,33.5,-7.356414318084717,-8.687579154968262,-3.225209951400757,4.565389156341553,-33.5,-6.848572731018066,33.5,-33.5,33.5,-12.891356468200684,-0.9886422753334045,33.5,-4.31132698059082,-15.658339500427246,-11.189485549926758,-0.16123484075069427,4.550072193145752,-3.214956045150757,-0.26370853185653687,1.7162834405899048,-3.1736745834350586,-0.12768316268920898,1.6421232223510742,-3.354494333267212,-0.5210458040237427,2.125765562057495,-3.041574478149414,-0.10720258206129074,3.452378511428833,-3.6029183864593506,0.15210923552513123,0.8394877314567566,2.662860870361328,-0.43242189288139343,1.7275800704956055,-1.2725749015808105,-0.69623202085495,1.9084560871124268,-3.122237205505371,-1.3444902896881104,-0.014076542109251022,0.00037400799919851124,-0.8554731607437134,-0.0005702759954147041,5.9652666095644236e-05,-0.25420939922332764,-0.008538509719073772,-0.0024331994354724884,0.4362070858478546,-0.005999311339110136,-0.0016239245887845755
0.8781542778015137,-27.419376373291016,-18.509761810302734,-33.5,-28.648351669311523,33.5,17.363040924072266,-7.629115581512451,33.5,-6.497817039489746,-11.009014129638672,-8.397296905517578,5.641429901123047,-33.5,-15.519068717956543,-13.978166580200195,-33.5,33.5,2.673370361328125,3.414533853530884,33.5,-4.118020534515381,-8.690470695495605,-3.2262868881225586,-0.2006681263446808,4.549792289733887,-3.214948892593384,0.0993456020951271,1.7162718772888184,-3.173673152923584,-0.2868499457836151,1.6420958042144775,-3.354548215866089,-0.5325796008110046,2.1257314682006836,-3.0415804386138916,-0.2262844741344452,3.864028215408325,-3.6776857376098633,-0.587978184223175,1.0000519752502441,3.3856358528137207,-0.06518011540174484,1.4514888525009155,-1.777437686920166,-0.7557269334793091,1.8504925966262817,-3.2515125274658203,-2.3785102367401123,-0.013982442207634449,0.000360247417120263,20.110889434814453,-0.0005543509032577276,6.467221101047471e-05,-10.620309829711914,0.006046995986253023,-0.0050347899086773396,-3.035095691680908,-0.0006754427449777722,1.6518064512638375e-05
-1.9262800216674805,-33.5,0.599089503288269,-2.2596688270568848,-33.5,33.5,8.723958015441895,-2.5747783184051514,33.5,4.179803848266602,-23.467697143554688,-12.520662307739258,-0.2370782196521759,-27.408336639404297,-18.510046005249023,-23.10727310180664,-28.648054122924805,33.5,12.626214981079102,-7.62591028213501,33.5,3.965801477432251,-11.008989334106445,-8.397472381591797,-0.21249490976333618,4.549513816833496,-3.2149417400360107,0.1871003359556198,1.7162619829177856,-3.1736717224121094,-0.40714403986930847,1.6421736478805542,-3.3545279502868652,-0.6698817610740662,2.1257238388061523,-3.0415782928466797,-0.2685145139694214,3.211975336074829,-3.1999573707580566,-0.06678809970617294,0.783298671245575,2.872725009918213,-0.16273653507232666,1.5777671337127686,-1.8355731964111328,-0.7503768801689148,1.539024829864502,-3.3545923233032227,-0.3931300938129425,-0.01385901402682066,0.000356605916749686,-9.869834899902344,-0.00043586979154497385,7.0305606641341e-05,1.3154282569885254,-0.001852783258073032,0.0008371673175133765,-9.249510765075684,-0.00032951540197245777,0.00012648635311052203
-9.081072807312012,-33.5,-8.046765327453613,16.244911193847656,-28.936363220214844,33.5,-15.96790885925293,3.86173415184021,33.5,12.142817497253418,-30.08056640625,7.719512939453125,-5.59848165512085,-33.5,0.5987954139709473,17.24437141418457,-33.5,33.5,-8.09292984008789,-2.5566742420196533,33.5,4.618231773376465,-23.46725845336914,-12.52077865600586,-0.17810466885566711,4.54923677444458,-3.2149345874786377,-0.21829283237457275,1.7162528038024902,-3.1736702919006348,-0.1770220547914505,1.6419683694839478,-3.3544528484344482,-0.8040052056312561,2.125715970993042,-3.0415756702423096,-0.35557928681373596,3.207087755203247,-3.4160964488983154,-0.09177457541227341,0.9928331971168518,2.913804531097412,-0.35961100459098816,1.738227367401123,-1.6252765655517578,-0.562262237071991,1.3736920356750488,-2.8485851287841797,2.477609634399414,-0.013918389566242695,0.00036326920962892473,-13.980226516723633,-0.0005270713591016829,7.293475209735334e-05,10.830437660217285,-0.014217800460755825,0.005123053211718798,-3.0913729667663574,-0.0004895156598649919,0.00013593850599136204
-4.340498447418213,-32.88133239746094,-2.7939083576202393,-4.265531539916992,-11.710062980651855,33.5,-11.899068832397461,4.072394847869873,33.5,20.383893966674805,-28.775590896606445,12.121188163757324,2.303867816925049,-33.5,-8.047059059143066,5.642952919006348,-28.93589973449707,33.5,-8.728352546691895,3.8565704822540283,33.5,8.584057807922363,-30.07992935180664,7.719387054443359,-0.2530840337276459,4.548956871032715,-3.2149271965026855,-0.26657116413116455,1.716241478919983,-3.1736690998077393,-0.10334905236959457,1.6418424844741821,-3.3545212745666504,-0.8037919402122498,2.125703811645508,-3.0415728092193604,-0.5216884613037109,3.7266438007354736,-3.2847676277160645,-0.339486688375473,1.4234790802001953,2.7215709686279297,-0.4388789236545563,1.7436230182647705,-1.3742879629135132,-0.26726630330085754,1.40630042552948,-2.7385401725769043,-8.004597663879395,-0.013992578722536564,0.00036375364288687706,1.6861381530761719,-0.0005412455648183823,6.804359145462513e-05,-1.9026563167572021,-0.0014671098906546831,-0.0006771973567083478,1.3464142084121704,-0.0006793071515858173,0.00014703876513522118
-1.6847772598266602,-33.5,9.579826354980469,9.50083065032959,-8.573347091674805,33.5,8.010513305664062,-5.569244861602783,33.5,9.704146385192871,-19.140520095825195,3.2072958946228027,-1.2700098752975464,-32.8702507019043,-2.7941951751708984,-2.923483371734619,-11.709927558898926,33.5,2.373002290725708,4.059472560882568,33.5,6.680043697357178,-28.775066375732422,12.121063232421875,-0.37963050603866577,4.548678398132324,-3.2149200439453125,-0.232852041721344,1.7162331342697144,-3.1736676692962646,-0.2733246684074402,1.641955018043518,-3.3545374870300293,-0.6693355441093445,2.125690460205078,-3.041569709777832,-0.5320576429367065,3.405346632003784,-2.975417137145996,-0.0288788303732872,1.5018936395645142,2.1868622303009033,-0.2979411780834198,1.5029051303863525,-1.2924232482910156,-0.1916637122631073,1.6471641063690186,-2.9613842964172363,-5.515385150909424,-0.01390543207526207,0.0003625450481195003,-1.6773781776428223,-0.00029048803844489157,6.39757708995603e-05,-11.243966102600098,0.009061949327588081,-0.0019918489269912243,11.75340747833252,-0.0006666266126558185,0.00015091011300683022
0.6298656463623047,-26.57891082763672,-2.697829484939575,-2.096158504486084,-18.179218292236328,33.5,6.798563480377197,-20.188678741455078,33.5,-11.808938980102539,-8.469780921936035,8.382271766662598,0.6653991937637329,-33.5,9.579526901245117,5.24422550201416,-8.573224067687988,33.5,6.932111740112305,-5.562779903411865,33.5,-9.737176895141602,-19.140174865722656,3.207184314727783,-0.4767428934574127,4.548399925231934,-3.2149126529693604,-0.24823282659053802,1.7162284851074219,-3.173666477203369,-0.4277799129486084,1.642041563987732,-3.354503631591797,-0.3264552354812622,2.125678539276123,-3.041566848754883,-0.532945990562439,3.883648633956909,-3.282351016998291,-0.21238842606544495,1.2617437839508057,2.481832981109619,-0.30127987265586853,1.137257695198059,-1.5365628004074097,-0.24345776438713074,1.913923978805542,-2.8320071697235107,-3.597486734390259,-0.013925723731517792,0.0003686400887090713,4.412417888641357,-0.00021233422739896923,6.938213482499123e-05,-2.1732027530670166,-0.0033448433969169855,0.003346790326759219,18.911046981811523,-0.0005017875228077173,0.000144375633681193
-2.4663522243499756,-23.443710327148438,8.109668731689453,-1.6838107109069824,-18.3022403717041,33.5,-1.387063980102539,-11.021890640258789,33.5,-12.058267593383789,-17.71748161315918,6.675990581512451,1.4545645713806152,-26.567903518676758,-2.6981194019317627,-3.694490432739258,-18.178966522216797,33.5,0.0760188177227974,-20.157732009887695,33.5,-10.698598861694336,-8.469646453857422,8.382161140441895,-0.5250744819641113,4.548122406005859,-3.214905261993408,-0.13674749433994293,1.7162237167358398,-3.1736650466918945,-0.3673301041126251,1.641754150390625,-3.354445219039917,-0.08455701172351837,2.1256706714630127,-3.0415639877319336,-0.6309689283370972,3.9617536067962646,-3.0121562480926514,-0.16212143003940582,1.2586619853973389,2.3936026096343994,-0.3378569483757019,1.3656537532806396,-1.5426157712936401,-0.27744948863983154,1.6827280521392822,-2.874661445617676,-2.2117819786071777,-0.01380243431776762,0.0003648977435659617,0.8360666036605835,-0.00028724342701025307,7.43009804864414e-05,3.2074875831604004,-0.027656491845846176,0.006460422184318304,5.428210735321045,-0.0002800473303068429,0.00013900690828450024
-3.4708073139190674,-30.730375289916992,19.77193260192871,4.3544135093688965,-5.197591781616211,33.5,9.407096862792969,2.0284793376922607,33.5,-5.686645984649658,-12.202301025390625,10.00082015991211,1.3268259763717651,-23.43275260925293,8.109381675720215,0.4948691129684448,-18.301939010620117,33.5,-0.2686217129230499,-11.00737190246582,33.5,0.616624653339386,-17.717140197753906,6.675872802734375,-0.5858928561210632,4.547846794128418,-3.214898109436035,-0.1516088843345642,1.7162171602249146,-3.17366361618042,-0.34011512994766235,1.6412495374679565,-3.3545048236846924,-0.15393149852752686,2.125664472579956,-3.0415611267089844,-0.7509097456932068,3.7793128490448,-2.720592498779297,-0.06563282012939453,1.5862706899642944,1.9368088245391846,-0.0959639772772789,1.6915500164031982,-1.2965606451034546,-0.4350312352180481,1.82059907913208,-2.7915377616882324,-3.912335157394409,-0.01372789777815342,0.0003646797558758408,-1.1442136764526367,-0.00033378638909198344,6.519994349218905e-05,0.44868549704551697,-0.020575106143951416,-0.001797845121473074,-6.946680068969727,-0.0003929491504095495,0.00014355384337250143
-3.1993556022644043,-19.622722625732422,18.930368423461914,-1.3518985509872437,1.9955899715423584,33.5,-1.0343537330627441,-2.591987371444702,33.5,0.594700813293457,-18.77681541442871,18.26869773864746,0.4950719475746155,-30.719289779663086,19.77163314819336,0.9427627921104431,-5.197475433349609,33.5,2.6419925689697266,2.017179012298584,33.5,2.2107973098754883,-12.201985359191895,10.000702857971191,-0.6678120493888855,4.547571659088135,-3.214890718460083,-0.14174041152000427,1.7162115573883057,-3.1736624240875244,-0.2903347313404083,1.6410564184188843,-3.3545706272125244,-0.314113050699234,2.1256563663482666,-3.041558265686035,-0.8432704210281372,4.056726932525635,-2.741624116897583,-0.12299935519695282,1.7660973072052002,2.173306703567505,-0.18787264823913574,1.5763208866119385,-1.2880818843841553,-0.4754336476325989,1.6562284231185913,-2.5848379135131836,-4.77372407913208,-0.01383235864341259,0.00037016262649558485,2.6269259452819824,-0.00019996425544377416,5.7325953093823045e-05,6.416046142578125,0.0032074861228466034,-0.006782769225537777,-8.809405326843262,-0.0003783361753448844,0.00014574281522072852
3.663416862487793,-21.38173484802246,25.394506454467773,7.779136657714844,3.6998085975646973,33.5,-2.8679909706115723,2.4306390285491943,33.5,-5.497153282165527,-16.277786254882812,15.407805442810059,3.099222183227539,-19.611835479736328,18.930070877075195,-0.9107468724250793,1.9955824613571167,33.5,-5.887393474578857,-2.588942050933838,33.5,-1.5639768838882446,-18.77641487121582,18.26857566833496,-0.7834601402282715,4.547296047210693,-3.214883327484131,-0.09800950437784195,1.716209053993225,-3.173661231994629,-0.13867232203483582,1.6410701274871826,-3.35449481010437,-0.40016937255859375,2.125648021697998,-3.041555404663086,-0.829165518283844,4.012479305267334,-2.5800132751464844,0.0942477360367775,1.8087029457092285,2.1153156757354736,-0.11238759011030197,1.701810359954834,-1.079911470413208,-0.5737630724906921,1.7186940908432007,-2.6563572883605957,-6.864540100097656,-0.013668594881892204,0.00036957673728466034,-0.11105891317129135,-6.622818909818307e-05,6.270033190958202e-05,4.899225234985352,-0.001287287101149559,0.0009038489661179483,-1.8082430362701416,-0.0004621232219506055,0.00014915560313966125
1.892228126525879,-30.55923080444336,26.67828369140625,5.443889617919922,7.921220302581787,33.5,-1.223668098449707,-4.134525299072266,33.5,-3.9787864685058594,-13.847317695617676,12.280468940734863,0.44287535548210144,-21.370838165283203,25.394207000732422,4.962953090667725,3.6998181343078613,33.5,-0.46712884306907654,2.4261832237243652,33.5,-4.6781206130981445,-16.277433395385742,15.407681465148926,-0.8390138745307922,4.547023296356201,-3.2148759365081787,-0.09644211828708649,1.7162082195281982,-3.1736600399017334,-0.1165715754032135,1.6410828828811646,-3.3545374870300293,-0.4286139905452728,2.125638961791992,-3.0415523052215576,-0.7929316759109497,3.7827694416046143,-2.5479114055633545,0.1062711700797081,1.9142379760742188,2.1470139026641846,-0.13130107522010803,1.537792682647705,-1.1283226013183594,-0.556279718875885,1.779447078704834,-2.7345376014709473,-0.061175283044576645,-0.013653946109116077,0.00037188438000157475,3.330801248550415,-3.731041942955926e-05,6.071677489671856e-05,0.793110191822052,0.0036463504657149315,-0.001479427213780582,-1.4098037481307983,-0.0004467262770049274,0.00014893860497977585
1.0097401142120361,-30.05601692199707,10.488334655761719,-7.448201656341553,3.6353182792663574,33.5,-6.720904350280762,-13.506148338317871,33.5,-2.763838291168213,-13.84737491607666,10.139482498168945,-1.6573911905288696,-30.548194885253906,26.677980422973633,-1.4844964742660522,7.921166896820068,33.5,-1.2211498022079468,-4.130488395690918,33.5,-3.6554925441741943,-13.84704303741455,12.280353546142578,-0.8090779781341553,4.546749591827393,-3.2148683071136475,0.02103443443775177,1.7162081003189087,-3.173658609390259,-0.10616185516119003,1.6411124467849731,-3.3544931411743164,-0.454598069190979,2.1256306171417236,-3.0415494441986084,-0.7262533903121948,3.795073986053467,-2.9526524543762207,-0.042821455746889114,1.8070917129516602,2.664900302886963,-0.2687949538230896,1.303401231765747,-1.269656777381897,-0.533988356590271,1.7794387340545654,-2.7880594730377197,2.879054307937622,-0.013759654946625233,0.0003743927809409797,6.117457389831543,3.283757177996449e-05,6.329028838081285e-05,0.2694762647151947,-0.002875572070479393,0.00211151409894228,-0.5147164463996887,-0.00037605359102599323,0.00014587570331059396
4.641441345214844,-33.5,13.63066577911377,3.207866668701172,-1.897136926651001,33.5,2.761813163757324,-9.342028617858887,33.5,-4.015208721160889,-8.697478294372559,0.9738720059394836,-0.7229676842689514,-30.044950485229492,10.488043785095215,-3.3478972911834717,3.6352972984313965,33.5,-1.431963562965393,-13.483674049377441,33.5,-1.860033631324768,-13.847094535827637,10.139364242553711,-0.7567480802536011,4.546473503112793,-3.2148609161376953,0.07111793011426926,1.716208815574646,-3.1736574172973633,-0.14304037392139435,1.640899419784546,-3.3544528484344482,-0.46764832735061646,2.1256232261657715,-3.04154634475708,-0.592143177986145,3.5074124336242676,-2.874086856842041,0.12107264250516891,1.66878080368042,2.3881354331970215,-0.16395053267478943,1.406942367553711,-1.255967617034912,-0.5878677368164062,1.9081790447235107,-3.0171966552734375,2.428443193435669,-0.013793574646115303,0.0003705576527863741,-1.5120975971221924,2.0506171495071612e-05,6.689994916087016e-05,-4.497774600982666,-0.020317325368523598,0.005161125212907791,-0.9919596910476685,-0.00036179349990561604,0.00014446630666498095
0.1373581886291504,-33.5,3.2870945930480957,1.995985746383667,-10.36594009399414,33.5,-3.9085536003112793,-13.408124923706055,33.5,-1.2705233097076416,-12.863582611083984,1.8088361024856567,-0.9040652513504028,-33.5,13.630372047424316,4.7854509353637695,-1.8970342874526978,33.5,2.3659486770629883,-9.327055931091309,33.5,-2.2468132972717285,-8.697242736816406,0.9737657904624939,-0.6852055788040161,4.546197414398193,-3.214853525161743,0.009528200142085552,1.7162083387374878,-3.1736562252044678,-0.22185207903385162,1.6405214071273804,-3.354494094848633,-0.4966602623462677,2.1256165504455566,-3.04154372215271,-0.5661075711250305,3.5803215503692627,-3.1326687335968018,0.05133601278066635,1.4570581912994385,2.620911121368408,-0.3208130896091461,1.3049156665802002,-1.313771367073059,-0.5634604692459106,1.804020643234253,-2.9963200092315674,5.783202648162842,-0.013866163790225983,0.0003712780599016696,-0.4045916199684143,-8.235922723542899e-05,6.520508759422228e-05,-0.062358397990465164,-0.020131269469857216,0.00256895599886775,-1.7518562078475952,-0.0003175722958985716,0.00014048600860405713
-3.497602939605713,-33.5,1.3350030183792114,-10.176034927368164,-10.626932144165039,33.5,-9.472345352172852,-8.910401344299316,33.5,5.983343124389648,-22.412212371826172,5.797551155090332,-4.214296817779541,-33.5,3.2868049144744873,-2.2860662937164307,-10.365750312805176,33.5,-6.5913872718811035,-13.387029647827148,33.5,2.203296661376953,-12.863300323486328,1.808720588684082,-0.5626031756401062,4.545919895172119,-3.214846134185791,0.06327695399522781,1.7162055969238281,-3.173654794692993,-0.16880002617835999,1.640092372894287,-3.3544516563415527,-0.5495360493659973,2.125610113143921,-3.0415408611297607,-0.5481902360916138,3.6292564868927,-3.1814637184143066,-0.14591319859027863,1.450528621673584,2.8160629272460938,-0.3928370475769043,1.416831374168396,-1.2939109802246094,-0.4689592719078064,1.5652979612350464,-2.896599292755127,5.092650413513184,-0.013861012645065784,0.00036695634480565786,2.260535955429077,-0.0001832743000704795,6.623671652050689e-05,0.6385807991027832,-0.02504792995750904,0.00224845833145082,-3.4503402709960938,-0.000344055617460981,0.00013976219634059817
-0.5309123396873474,-33.5,9.767068862915039,4.939617156982422,-9.834535598754883,33.5,2.1846742630004883,-4.0678277015686035,33.5,8.364797592163086,-21.036771774291992,3.7942299842834473,-2.04909348487854,-33.5,1.334715485572815,-2.922159433364868,-10.626760482788086,33.5,-0.8475176095962524,-8.898598670959473,33.5,5.31074333190918,-22.411741256713867,5.797431945800781,-0.5167555212974548,4.545642852783203,-3.214838981628418,0.033185623586177826,1.716201663017273,-3.1736536026000977,-0.24624672532081604,1.6396596431732178,-3.354492425918579,-0.594314694404602,2.1256015300750732,-3.0415380001068115,-0.5102357268333435,3.3185441493988037,-2.9706549644470215,0.050631217658519745,1.4703342914581299,2.2990734577178955,-0.31703224778175354,1.5376006364822388,-1.1150010824203491,-0.3926079273223877,1.5996720790863037,-2.9466793537139893,0.9896301627159119,-0.013843642547726631,0.00036454666405916214,-5.302241802215576,-0.00019932838040404022,6.269194273045287e-05,-6.270118713378906,-0.01816573180258274,-0.0012588715180754662,-0.37065818905830383,-0.0005066715530119836,0.0001447234390070662
-0.8935228586196899,-33.5,1.3875796794891357,5.3774003982543945,-14.062803268432617,33.5,-1.6271634101867676,-10.204283714294434,33.5,2.74489164352417,-18.25056266784668,5.060136795043945,-1.5402823686599731,-33.5,9.766772270202637,6.673831462860107,-9.834352493286133,33.5,3.5217292308807373,-4.067890167236328,33.5,0.4611190855503082,-21.036338806152344,3.79411244392395,-0.5036284327507019,4.545365810394287,-3.214831590652466,-0.07665269076824188,1.7161974906921387,-3.173652410507202,-0.3512859642505646,1.6394155025482178,-3.354527711868286,-0.5263852477073669,2.1255910396575928,-3.0415351390838623,-0.4940667450428009,3.400890588760376,-3.1801347732543945,0.018220432102680206,1.3646230697631836,2.402116060256958,-0.4457545578479767,1.3841907978057861,-1.1810578107833862,-0.3355135917663574,1.6693165302276611,-2.9150288105010986,1.5949878692626953,-0.013828204944729805,0.0003663361712824553,-1.978094220161438,-0.00021671441209036857,6.08825939707458e-05,-2.6894752979278564,-0.005880923010408878,-0.0033926628530025482,6.112468242645264,-0.0005210774834267795,0.00014524429570883512
-0.6078397035598755,-33.5,-1.1292227506637573,-7.473750114440918,-18.7932071685791,33.5,-0.6819683313369751,-11.347723960876465,33.5,-4.582161903381348,-16.625425338745117,1.7647074460983276,-2.42195200920105,-33.5,1.3872876167297363,-0.684979259967804,-14.06258487701416,33.5,-2.143198013305664,-10.189143180847168,33.5,-3.8020851612091064,-18.250225067138672,5.060020446777344,-0.4634280800819397,4.5450897216796875,-3.2148241996765137,-0.028575187548995018,1.7161927223205566,-3.1736509799957275,-0.36362746357917786,1.6392147541046143,-3.3544681072235107,-0.3812529742717743,2.1255812644958496,-3.041532278060913,-0.44871392846107483,3.538983106613159,-3.2430474758148193,-0.15149883925914764,1.2463574409484863,2.583308219909668,-0.4092238247394562,1.3552262783050537,-1.4519667625427246,-0.35501551628112793,1.709936499595642,-2.9974117279052734,1.4955071210861206,-0.013810733333230019,0.00036464660661295056,3.196004867553711,-0.0002541875292081386,6.756735092494637e-05,-1.4273576736450195,-0.014768806286156178,0.002283772686496377,7.039575099945068,-0.00045518515980802476,0.00014316284796223044
-0.5298972129821777,-33.5,3.8266515731811523,0.40772902965545654,-18.89983558654785,33.5,2.8707704544067383,-9.004925727844238,33.5,-2.8224453926086426,-15.77446460723877,0.188151553273201,-0.16531281173229218,-33.5,-1.1295102834701538,-3.0413551330566406,-18.792943954467773,33.5,1.2315716743469238,-11.33138656616211,33.5,-3.113649845123291,-16.62510108947754,1.764591097831726,-0.45277103781700134,4.54481315612793,-3.2148170471191406,-0.018349621444940567,1.7161871194839478,-3.173649549484253,-0.4053710699081421,1.6388804912567139,-3.3544886112213135,-0.3054131269454956,2.125572443008423,-3.041529417037964,-0.457828551530838,3.5203590393066406,-3.119143486022949,-0.06527173519134521,1.2436851263046265,2.3432579040527344,-0.36824384331703186,1.4133877754211426,-1.430524230003357,-0.3477354049682617,1.7312023639678955,-3.03682279586792,0.4094958007335663,-0.01381625235080719,0.00036347314016893506,-2.855767011642456,-0.00030571891693398356,6.752801709808409e-05,-1.7321019172668457,-0.018478086218237877,0.0007138141081668437,1.411942958831787,-0.00042342310189269483,0.00014162035949993879
-2.79634165763855,-33.5,3.846296787261963,4.418423652648926,-17.480499267578125,33.5,-1.0955803394317627,-6.110002040863037,33.5,-0.014895796775817871,-16.678348541259766,2.4540441036224365,-1.3168416023254395,-33.5,3.8263580799102783,4.571405410766602,-18.89954948425293,33.5,0.2497447282075882,-8.994131088256836,33.5,-0.025652509182691574,-15.77414321899414,0.1880359798669815,-0.4400702714920044,4.54453706741333,-3.2148096561431885,-0.11206355690956116,1.716180682182312,-3.1736483573913574,-0.4041314125061035,1.638541579246521,-3.354499578475952,-0.32131722569465637,2.1255640983581543,-3.0415265560150146,-0.49481603503227234,3.5148870944976807,-3.118644952774048,-0.06909627467393875,1.2791614532470703,2.375521183013916,-0.40187695622444153,1.4854910373687744,-1.3626904487609863,-0.34746649861335754,1.708597183227539,-2.980172634124756,0.7581387758255005,-0.013807843439280987,0.0003641446528490633,-3.3746657371520996,-0.00033925072057172656,6.588627002201974e-05,1.4821982383728027,-0.015024394728243351,-0.000903094420209527,-1.2888438701629639,-0.00041044948738999665,0.00014091994671616703
-3.101738691329956,-33.5,1.3898320198059082,-3.993842840194702,-14.026273727416992,33.5,-3.2062206268310547,-5.595613479614258,33.5,0.730842113494873,-19.635957717895508,4.182854652404785,-2.2730133533477783,-33.5,3.846007823944092,1.1968499422073364,-17.480234146118164,33.5,-2.984529495239258,-6.1022844314575195,33.5,0.6918503046035767,-16.678007125854492,2.4539287090301514,-0.43278542160987854,4.5442609786987305,-3.2148025035858154,-0.1174197718501091,1.7161738872528076,-3.173646926879883,-0.36058059334754944,1.638270616531372,-3.3544986248016357,-0.34397828578948975,2.1255557537078857,-3.0415236949920654,-0.5155341625213623,3.6507489681243896,-3.180049419403076,-0.19886359572410583,1.3655104637145996,2.566446304321289,-0.40741923451423645,1.4981578588485718,-1.3902153968811035,-0.3464916944503784,1.634648323059082,-2.9369494915008545,-0.26026371121406555,-0.013792959041893482,0.00036415422800928354,0.9201124906539917,-0.000328639434883371,6.522295734612271e-05,1.6658434867858887,-0.011120971292257309,-0.0009283445542678237,-1.039223074913025,-0.0004240523267071694,0.0001418682368239388
-1.8996719121932983,-33.5,5.29921817779541,0.3153797388076782,-12.074942588806152,33.5,-1.181555151939392,-5.236616134643555,33.5,2.648481607437134,-20.28788948059082,4.88104772567749,-0.8912419676780701,-33.5,1.3895223140716553,-2.109199047088623,-14.02607536315918,33.5,-1.6080340147018433,-5.588994979858398,33.5,1.1938356161117554,-19.635568618774414,4.1827392578125,-0.45722100138664246,4.543985366821289,-3.2147951126098633,-0.11264695227146149,1.7161678075790405,-3.1736457347869873,-0.3562372326850891,1.6380670070648193,-3.3545010089874268,-0.36079075932502747,2.125546932220459,-3.041520833969116,-0.5407449007034302,3.6829211711883545,-3.0823071002960205,-0.13824912905693054,1.4142887592315674,2.483093500137329,-0.3967572748661041,1.506967306137085,-1.3212589025497437,-0.31012555956840515,1.618340253829956,-2.919491767883301,-1.801604986190796,-0.01379732321947813,0.0003778867539949715,-1.6743334531784058,-0.00027383514679968357,6.507729267468676e-05,-0.549058198928833,-0.009214680641889572,-0.0005427014548331499,-0.777341902256012,-0.0004714210517704487,0.00014350892161019146
-1.9264276027679443,-33.5,6.224039077758789,3.7982966899871826,-9.522649765014648,33.5,-1.2122526168823242,-5.448026180267334,33.5,2.9018969535827637,-21.105426788330078,6.946782112121582,-0.535571813583374,-33.5,5.2989044189453125,2.806140899658203,-12.07475757598877,33.5,-0.6977241635322571,-5.230514049530029,33.5,1.3017470836639404,-20.28748321533203,4.880931854248047,-0.4937393069267273,4.5437092781066895,-3.214787483215332,-0.16930390894412994,1.7161626815795898,-3.1736443042755127,-0.3710249364376068,1.6378933191299438,-3.354503870010376,-0.3605405390262604,2.125537157058716,-3.041517972946167,-0.5755162835121155,3.673003911972046,-3.0591788291931152,-0.1134452298283577,1.4780914783477783,2.4411256313323975,-0.4096204936504364,1.5015294551849365,-1.228096604347229,-0.27012181282043457,1.5978915691375732,-2.8678455352783203,-1.680814266204834,-0.013795474544167519,0.00038385213701985776,-1.9549369812011719,-0.0002481135306879878,6.508385558845475e-05,-0.41446202993392944,-0.008160705678164959,-0.00023983983555808663,0.8935652375221252,-0.0004947974230162799,0.00014444968837779015
-2.032101631164551,-31.397357940673828,4.170348167419434,-3.715867042541504,-6.374000549316406,33.5,-2.0259718894958496,-6.438988208770752,33.5,1.0324926376342773,-23.796438217163086,9.608390808105469,-1.1315613985061646,-33.5,6.223726749420166,1.0339579582214355,-9.522488594055176,33.5,-1.4492156505584717,-5.441095352172852,33.5,-0.05531736835837364,-21.105018615722656,6.946664810180664,-0.519970178604126,4.543433666229248,-3.2147796154022217,-0.16537246108055115,1.7161580324172974,-3.173643112182617,-0.37274765968322754,1.6377264261245728,-3.3545005321502686,-0.3207310438156128,2.1255271434783936,-3.0415151119232178,-0.5980297923088074,3.7582240104675293,-3.110513210296631,-0.23219084739685059,1.5568037033081055,2.5187759399414062,-0.42403939366340637,1.4765821695327759,-1.2780287265777588,-0.24292656779289246,1.5306060314178467,-2.801302433013916,-1.362853765487671,-0.013785324990749359,0.00038475735345855355,1.3039144277572632,-0.000215779451536946,6.50030342512764e-05,-0.032121870666742325,-0.008477690629661083,2.614519326016307e-05,2.5996079444885254,-0.0005085458396933973,0.0001454250595998019
-0.7376344203948975,-30.707286834716797,10.44236946105957,6.724207878112793,-4.260548114776611,33.5,1.566723108291626,-4.343204021453857,33.5,-1.478867530822754,-19.045169830322266,9.191452026367188,0.9019014835357666,-31.386362075805664,4.170044898986816,-0.4986830949783325,-6.373881816864014,33.5,-0.36625784635543823,-6.430449485778809,33.5,-1.4017751216888428,-23.79596519470215,9.608269691467285,-0.5640633702278137,4.543158054351807,-3.2147719860076904,-0.1686999648809433,1.7161540985107422,-3.1736416816711426,-0.38644376397132874,1.6375398635864258,-3.354499578475952,-0.2644624412059784,2.125516414642334,-3.0415120124816895,-0.639018177986145,3.775200843811035,-2.953705072402954,-0.051618583500385284,1.6096370220184326,2.1832616329193115,-0.37571486830711365,1.5287632942199707,-1.0951753854751587,-0.2448538839817047,1.6493759155273438,-2.811722755432129,-2.825697183609009,-0.013751637190580368,0.0003838256234303117,-2.5511903762817383,-0.0001684941234998405,6.438575655920431e-05,-1.4219590425491333,-0.009823460131883621,-3.09651622956153e-05,2.829012155532837,-0.0005632757092826068,0.00014778210606891662
-1.1049309968948364,-29.81813621520996,14.194571495056152,5.137331008911133,-0.7184495329856873,33.5,2.9055120944976807,-4.179808616638184,33.5,-3.030827760696411,-16.499963760375977,9.797799110412598,0.5200806260108948,-30.69632911682129,10.442062377929688,5.153440952301025,-4.260432243347168,33.5,1.7867802381515503,-4.341137886047363,33.5,-1.520283818244934,-19.044797897338867,9.191339492797852,-0.6096461415290833,4.542883396148682,-3.214764356613159,-0.20622992515563965,1.7161509990692139,-3.173640489578247,-0.4103088676929474,1.63739013671875,-3.354523181915283,-0.2246571183204651,2.1255056858062744,-3.0415091514587402,-0.679643452167511,3.7971556186676025,-2.8598923683166504,-0.052021320909261703,1.6981866359710693,2.135620355606079,-0.3477465808391571,1.5327965021133423,-1.179403305053711,-0.2826174795627594,1.7129967212677002,-2.7965612411499023,-2.118701696395874,-0.013718324713408947,0.0003850717912428081,1.2887659072875977,-0.0001562699762871489,6.288445001700893e-05,-0.5037758350372314,-0.004921005107462406,-0.0013863173080608249,0.8905166983604431,-0.0004934550961479545,0.00014698540326207876
-1.7691305875778198,-23.011524200439453,12.69626235961914,-4.698857307434082,1.8338797092437744,33.5,0.9724811315536499,-6.240682601928711,33.5,-5.181305885314941,-17.176406860351562,12.115924835205078,0.41420865058898926,-29.807191848754883,14.194260597229004,-0.6090816855430603,-0.7183920741081238,33.5,0.3069975674152374,-4.1757965087890625,33.5,-2.528096914291382,-16.499629974365234,9.797683715820312,-0.6482687592506409,4.542609214782715,-3.214756488800049,-0.1270393431186676,1.7161483764648438,-3.1736392974853516,-0.39105165004730225,1.6372835636138916,-3.3545138835906982,-0.21850968897342682,2.1254963874816895,-3.041506290435791,-0.7342269420623779,3.9670472145080566,-2.8973422050476074,-0.15426570177078247,1.761993408203125,2.3430991172790527,-0.33110949397087097,1.481174349784851,-1.3441259860992432,-0.3489477038383484,1.6960773468017578,-2.738605260848999,-2.086495876312256,-0.013694738037884235,0.0003865202306769788,4.512253284454346,-9.804813453229144e-05,6.259632209548727e-05,1.7815064191818237,-0.004607322625815868,-0.0008004361880011857,-0.045268524438142776,-0.0004445837112143636,0.00014589446072932333
